assets/luts/bw.cube
# Black & white with mild contrast.
# Generated procedurally by videokit gen-luts.py
TITLE "bw"
LUT_3D_SIZE 5
DOMAIN_MIN 0.0 0.0 0.0
DOMAIN_MAX 1.0 1.0 1.0
0.119203 0.119203 0.119203
0.143392 0.143392 0.143392
0.171533 0.171533 0.171533
0.203883 0.203883 0.203883
0.240562 0.240562 0.240562
0.216734 0.216734 0.216734
0.254985 0.254985 0.254985
0.297423 0.297423 0.297423
0.343666 0.343666 0.343666
0.393076 0.393076 0.393076
0.361329 0.361329 0.361329
0.411686 0.411686 0.411686
0.463963 0.463963 0.463963
0.517043 0.517043 0.517043
0.569742 0.569742 0.569742
0.536336 0.536336 0.536336
0.588605 0.588605 0.588605
0.638948 0.638948 0.638948
0.686412 0.686412 0.686412
0.730271 0.730271 0.730271
0.702828 0.702828 0.702828
0.745243 0.745243 0.745243
0.783469 0.783469 0.783469
0.817366 0.817366 0.817366
0.846992 0.846992 0.846992
0.126994 0.126994 0.126994
0.152490 0.152490 0.152490
0.182038 0.182038 0.182038
0.215853 0.215853 0.215853
0.253998 0.253998 0.253998
0.229241 0.229241 0.229241
0.268941 0.268941 0.268941
0.312727 0.312727 0.312727
0.360130 0.360130 0.360130
0.410427 0.410427 0.410427
0.378152 0.378152 0.378152
0.429277 0.429277 0.429277
0.481958 0.481958 0.481958
0.535042 0.535042 0.535042
0.587345 0.587345 0.587345
0.554236 0.554236 0.554236
0.605969 0.605969 0.605969
0.655431 0.655431 0.655431
0.701741 0.701741 0.701741
0.744254 0.744254 0.744254
0.717684 0.717684 0.717684
0.758706 0.758706 0.758706
0.795467 0.795467 0.795467
0.827898 0.827898 0.827898
0.856116 0.856116 0.856116
0.135217 0.135217 0.135217
0.162057 0.162057 0.162057
0.193036 0.193036 0.193036
0.228324 0.228324 0.228324
0.267920 0.267920 0.267920
0.242247 0.242247 0.242247
0.283371 0.283371 0.283371
0.328451 0.328451 0.328451
0.376930 0.376930 0.376930
0.428004 0.428004 0.428004
0.395273 0.395273 0.395273
0.447049 0.447049 0.447049
0.500000 0.500000 0.500000
0.552951 0.552951 0.552951
0.604727 0.604727 0.604727
0.571996 0.571996 0.571996
0.623070 0.623070 0.623070
0.671549 0.671549 0.671549
0.716629 0.716629 0.716629
0.757753 0.757753 0.757753
0.732080 0.732080 0.732080
0.771676 0.771676 0.771676
0.806964 0.806964 0.806964
0.837943 0.837943 0.837943
0.864783 0.864783 0.864783
0.143884 0.143884 0.143884
0.172102 0.172102 0.172102
0.204533 0.204533 0.204533
0.241294 0.241294 0.241294
0.282316 0.282316 0.282316
0.255746 0.255746 0.255746
0.298259 0.298259 0.298259
0.344569 0.344569 0.344569
0.394031 0.394031 0.394031
0.445764 0.445764 0.445764
0.412655 0.412655 0.412655
0.464958 0.464958 0.464958
0.518042 0.518042 0.518042
0.570723 0.570723 0.570723
0.621848 0.621848 0.621848
0.589573 0.589573 0.589573
0.639870 0.639870 0.639870
0.687273 0.687273 0.687273
0.731059 0.731059 0.731059
0.770759 0.770759 0.770759
0.746002 0.746002 0.746002
0.784147 0.784147 0.784147
0.817962 0.817962 0.817962
0.847510 0.847510 0.847510
0.873006 0.873006 0.873006
0.153008 0.153008 0.153008
0.182634 0.182634 0.182634
0.216531 0.216531 0.216531
0.254757 0.254757 0.254757
0.297172 0.297172 0.297172
0.269729 0.269729 0.269729
0.313588 0.313588 0.313588
0.361052 0.361052 0.361052
0.411395 0.411395 0.411395
0.463664 0.463664 0.463664
0.430258 0.430258 0.430258
0.482957 0.482957 0.482957
0.536037 0.536037 0.536037
0.588314 0.588314 0.588314
0.638671 0.638671 0.638671
0.606924 0.606924 0.606924
0.656334 0.656334 0.656334
0.702577 0.702577 0.702577
0.745015 0.745015 0.745015
0.783266 0.783266 0.783266
0.759438 0.759438 0.759438
0.796117 0.796117 0.796117
0.828467 0.828467 0.828467
0.856608 0.856608 0.856608
0.880797 0.880797 0.880797
