assets/luts/bw.cube
# Black & white with mild contrast.
# Generated procedurally by videokit gen-luts.py
TITLE "bw"
LUT_3D_SIZE 17
DOMAIN_MIN 0.0 0.0 0.0
DOMAIN_MAX 1.0 1.0 1.0
0.119203 0.119203 0.119203
0.124897 0.124897 0.124897
0.130823 0.130823 0.130823
0.136986 0.136986 0.136986
0.143392 0.143392 0.143392
0.150045 0.150045 0.150045
0.156950 0.156950 0.156950
0.164111 0.164111 0.164111
0.171533 0.171533 0.171533
0.179219 0.179219 0.179219
0.187171 0.187171 0.187171
0.195392 0.195392 0.195392
0.203883 0.203883 0.203883
0.212646 0.212646 0.212646
0.221680 0.221680 0.221680
0.230986 0.230986 0.230986
0.240562 0.240562 0.240562
0.139290 0.139290 0.139290
0.145785 0.145785 0.145785
0.152529 0.152529 0.152529
0.159527 0.159527 0.159527
0.166783 0.166783 0.166783
0.174301 0.174301 0.174301
0.182083 0.182083 0.182083
0.190132 0.190132 0.190132
0.198452 0.198452 0.198452
0.207042 0.207042 0.207042
0.215904 0.215904 0.215904
0.225037 0.225037 0.225037
0.234441 0.234441 0.234441
0.244115 0.244115 0.244115
0.254055 0.254055 0.254055
0.264259 0.264259 0.264259
0.274721 0.274721 0.274721
0.162139 0.162139 0.162139
0.169489 0.169489 0.169489
0.177103 0.177103 0.177103
0.184982 0.184982 0.184982
0.193130 0.193130 0.193130
0.201548 0.201548 0.201548
0.210237 0.210237 0.210237
0.219197 0.219197 0.219197
0.228430 0.228430 0.228430
0.237932 0.237932 0.237932
0.247703 0.247703 0.247703
0.257740 0.257740 0.257740
0.268038 0.268038 0.268038
0.278593 0.278593 0.278593
0.289400 0.289400 0.289400
0.300451 0.300451 0.300451
0.311739 0.311739 0.311739
0.187917 0.187917 0.187917
0.196163 0.196163 0.196163
0.204679 0.204679 0.204679
0.213467 0.213467 0.213467
0.222527 0.222527 0.222527
0.231858 0.231858 0.231858
0.241458 0.241458 0.241458
0.251327 0.251327 0.251327
0.261459 0.261459 0.261459
0.271851 0.271851 0.271851
0.282499 0.282499 0.282499
0.293395 0.293395 0.293395
0.304534 0.304534 0.304534
0.315906 0.315906 0.315906
0.327503 0.327503 0.327503
0.339315 0.339315 0.339315
0.351330 0.351330 0.351330
0.216734 0.216734 0.216734
0.225893 0.225893 0.225893
0.235322 0.235322 0.235322
0.245020 0.245020 0.245020
0.254985 0.254985 0.254985
0.265212 0.265212 0.265212
0.275698 0.275698 0.275698
0.286437 0.286437 0.286437
0.297423 0.297423 0.297423
0.308647 0.308647 0.308647
0.320103 0.320103 0.320103
0.331779 0.331779 0.331779
0.343666 0.343666 0.343666
0.355752 0.355752 0.355752
0.368025 0.368025 0.368025
0.380471 0.380471 0.380471
0.393076 0.393076 0.393076
0.248617 0.248617 0.248617
0.258678 0.258678 0.258678
0.269000 0.269000 0.269000
0.279579 0.279579 0.279579
0.290409 0.290409 0.290409
0.301482 0.301482 0.301482
0.312792 0.312792 0.312792
0.324329 0.324329 0.324329
0.336083 0.336083 0.336083
0.348044 0.348044 0.348044
0.360199 0.360199 0.360199
0.372537 0.372537 0.372537
0.385042 0.385042 0.385042
0.397702 0.397702 0.397702
0.410500 0.410500 0.410500
0.423420 0.423420 0.423420
0.436446 0.436446 0.436446
0.283493 0.283493 0.283493
0.294412 0.294412 0.294412
0.305573 0.305573 0.305573
0.316966 0.316966 0.316966
0.328583 0.328583 0.328583
0.340414 0.340414 0.340414
0.352447 0.352447 0.352447
0.364670 0.364670 0.364670
0.377071 0.377071 0.377071
0.389634 0.389634 0.389634
0.402346 0.402346 0.402346
0.415190 0.415190 0.415190
0.428151 0.428151 0.428151
0.441211 0.441211 0.441211
0.454352 0.454352 0.454352
0.467558 0.467558 0.467558
0.480809 0.480809 0.480809
0.321170 0.321170 0.321170
0.332866 0.332866 0.332866
0.344772 0.344772 0.344772
0.356876 0.356876 0.356876
0.369165 0.369165 0.369165
0.381627 0.381627 0.381627
0.394246 0.394246 0.394246
0.407008 0.407008 0.407008
0.419896 0.419896 0.419896
0.432895 0.432895 0.432895
0.445987 0.445987 0.445987
0.459154 0.459154 0.459154
0.472378 0.472378 0.472378
0.485641 0.485641 0.485641
0.498925 0.498925 0.498925
0.512210 0.512210 0.512210
0.525478 0.525478 0.525478
0.361329 0.361329 0.361329
0.373683 0.373683 0.373683
0.386203 0.386203 0.386203
0.398876 0.398876 0.398876
0.411686 0.411686 0.411686
0.424617 0.424617 0.424617
0.437651 0.437651 0.437651
0.450772 0.450772 0.450772
0.463963 0.463963 0.463963
0.477203 0.477203 0.477203
0.490476 0.490476 0.490476
0.503762 0.503762 0.503762
0.517043 0.517043 0.517043
0.530300 0.530300 0.530300
0.543515 0.543515 0.543515
0.556668 0.556668 0.556668
0.569742 0.569742 0.569742
0.403525 0.403525 0.403525
0.416380 0.416380 0.416380
0.429351 0.429351 0.429351
0.442419 0.442419 0.442419
0.455568 0.455568 0.455568
0.468778 0.468778 0.468778
0.482033 0.482033 0.482033
0.495313 0.495313 0.495313
0.508599 0.508599 0.508599
0.521874 0.521874 0.521874
0.535117 0.535117 0.535117
0.548311 0.548311 0.548311
0.561438 0.561438 0.561438
0.574479 0.574479 0.574479
0.587418 0.587418 0.587418
0.600236 0.600236 0.600236
0.612919 0.612919 0.612919
0.447198 0.447198 0.447198
0.460371 0.460371 0.460371
0.473600 0.473600 0.473600
0.486866 0.486866 0.486866
0.500150 0.500150 0.500150
0.513434 0.513434 0.513434
0.526700 0.526700 0.526700
0.539927 0.539927 0.539927
0.553099 0.553099 0.553099
0.566197 0.566197 0.566197
0.579202 0.579202 0.579202
0.592099 0.592099 0.592099
0.604870 0.604870 0.604870
0.617500 0.617500 0.617500
0.629973 0.629973 0.629973
0.642275 0.642275 0.642275
0.654392 0.654392 0.654392
0.491701 0.491701 0.491701
0.504987 0.504987 0.504987
0.518267 0.518267 0.518267
0.531521 0.531521 0.531521
0.544730 0.544730 0.544730
0.557877 0.557877 0.557877
0.570943 0.570943 0.570943
0.583911 0.583911 0.583911
0.596764 0.596764 0.596764
0.609485 0.609485 0.609485
0.622060 0.622060 0.622060
0.634472 0.634472 0.634472
0.646708 0.646708 0.646708
0.658755 0.658755 0.658755
0.670600 0.670600 0.670600
0.682232 0.682232 0.682232
0.693642 0.693642 0.693642
0.536336 0.536336 0.536336
0.549525 0.549525 0.549525
0.562644 0.562644 0.562644
0.575677 0.575677 0.575677
0.588605 0.588605 0.588605
0.601412 0.601412 0.601412
0.614081 0.614081 0.614081
0.626598 0.626598 0.626598
0.638948 0.638948 0.638948
0.651116 0.651116 0.651116
0.663091 0.663091 0.663091
0.674860 0.674860 0.674860
0.686412 0.686412 0.686412
0.697738 0.697738 0.697738
0.708828 0.708828 0.708828
0.719675 0.719675 0.719675
0.730271 0.730271 0.730271
0.580396 0.580396 0.580396
0.593282 0.593282 0.593282
0.606041 0.606041 0.606041
0.618657 0.618657 0.618657
0.631114 0.631114 0.631114
0.643400 0.643400 0.643400
0.655499 0.655499 0.655499
0.667400 0.667400 0.667400
0.679092 0.679092 0.679092
0.690562 0.690562 0.690562
0.701803 0.701803 0.701803
0.712806 0.712806 0.712806
0.723562 0.723562 0.723562
0.734066 0.734066 0.734066
0.744312 0.744312 0.744312
0.754295 0.754295 0.754295
0.764012 0.764012 0.764012
0.623211 0.623211 0.623211
0.635608 0.635608 0.635608
0.647827 0.647827 0.647827
0.659855 0.659855 0.659855
0.671681 0.671681 0.671681
0.683294 0.683294 0.683294
0.694682 0.694682 0.694682
0.705837 0.705837 0.705837
0.716751 0.716751 0.716751
0.727416 0.727416 0.727416
0.737826 0.737826 0.737826
0.747977 0.747977 0.747977
0.757863 0.757863 0.757863
0.767482 0.767482 0.767482
0.776832 0.776832 0.776832
0.785911 0.785911 0.785911
0.794718 0.794718 0.794718
0.664185 0.664185 0.664185
0.675934 0.675934 0.675934
0.687466 0.687466 0.687466
0.698771 0.698771 0.698771
0.709839 0.709839 0.709839
0.720662 0.720662 0.720662
0.731235 0.731235 0.731235
0.741552 0.741552 0.741552
0.751607 0.751607 0.751607
0.761396 0.761396 0.761396
0.770918 0.770918 0.770918
0.780169 0.780169 0.780169
0.789148 0.789148 0.789148
0.797856 0.797856 0.797856
0.806293 0.806293 0.806293
0.814459 0.814459 0.814459
0.822357 0.822357 0.822357
0.702828 0.702828 0.702828
0.713808 0.713808 0.713808
0.724541 0.724541 0.724541
0.735021 0.735021 0.735021
0.745243 0.745243 0.745243
0.755202 0.755202 0.755202
0.764894 0.764894 0.764894
0.774317 0.774317 0.774317
0.783469 0.783469 0.783469
0.792350 0.792350 0.792350
0.800959 0.800959 0.800959
0.809297 0.809297 0.809297
0.817366 0.817366 0.817366
0.825166 0.825166 0.825166
0.832702 0.832702 0.832702
0.839976 0.839976 0.839976
0.846992 0.846992 0.846992
0.121111 0.121111 0.121111
0.126883 0.126883 0.126883
0.132889 0.132889 0.132889
0.139134 0.139134 0.139134
0.145623 0.145623 0.145623
0.152361 0.152361 0.152361
0.159353 0.159353 0.159353
0.166602 0.166602 0.166602
0.174113 0.174113 0.174113
0.181889 0.181889 0.181889
0.189932 0.189932 0.189932
0.198245 0.198245 0.198245
0.206828 0.206828 0.206828
0.215684 0.215684 0.215684
0.224810 0.224810 0.224810
0.234208 0.234208 0.234208
0.243875 0.243875 0.243875
0.141468 0.141468 0.141468
0.148047 0.148047 0.148047
0.154877 0.154877 0.154877
0.161962 0.161962 0.161962
0.169307 0.169307 0.169307
0.176914 0.176914 0.176914
0.184786 0.184786 0.184786
0.192927 0.192927 0.192927
0.201338 0.201338 0.201338
0.210021 0.210021 0.210021
0.218975 0.218975 0.218975
0.228201 0.228201 0.228201
0.237697 0.237697 0.237697
0.247461 0.247461 0.247461
0.257491 0.257491 0.257491
0.267783 0.267783 0.267783
0.278332 0.278332 0.278332
0.164606 0.164606 0.164606
0.172045 0.172045 0.172045
0.179749 0.179749 0.179749
0.187719 0.187719 0.187719
0.195958 0.195958 0.195958
0.204468 0.204468 0.204468
0.213249 0.213249 0.213249
0.222302 0.222302 0.222302
0.231626 0.231626 0.231626
0.241220 0.241220 0.241220
0.251082 0.251082 0.251082
0.261208 0.261208 0.261208
0.271594 0.271594 0.271594
0.282235 0.282235 0.282235
0.293126 0.293126 0.293126
0.304259 0.304259 0.304259
0.315625 0.315625 0.315625
0.190687 0.190687 0.190687
0.199025 0.199025 0.199025
0.207633 0.207633 0.207633
0.216514 0.216514 0.216514
0.225666 0.225666 0.225666
0.235088 0.235088 0.235088
0.244780 0.244780 0.244780
0.254738 0.254738 0.254738
0.264959 0.264959 0.264959
0.275439 0.275439 0.275439
0.286172 0.286172 0.286172
0.297151 0.297151 0.297151
0.308370 0.308370 0.308370
0.319820 0.319820 0.319820
0.331491 0.331491 0.331491
0.343373 0.343373 0.343373
0.355454 0.355454 0.355454
0.219814 0.219814 0.219814
0.229065 0.229065 0.229065
0.238586 0.238586 0.238586
0.248375 0.248375 0.248375
0.258429 0.258429 0.258429
0.268745 0.268745 0.268745
0.279317 0.279317 0.279317
0.290141 0.290141 0.290141
0.301208 0.301208 0.301208
0.312512 0.312512 0.312512
0.324044 0.324044 0.324044
0.335793 0.335793 0.335793
0.347749 0.347749 0.347749
0.359900 0.359900 0.359900
0.372233 0.372233 0.372233
0.384735 0.384735 0.384735
0.397390 0.397390 0.397390
0.252005 0.252005 0.252005
0.262155 0.262155 0.262155
0.272565 0.272565 0.272565
0.283229 0.283229 0.283229
0.294142 0.294142 0.294142
0.305297 0.305297 0.305297
0.316685 0.316685 0.316685
0.328296 0.328296 0.328296
0.340122 0.340122 0.340122
0.352150 0.352150 0.352150
0.364369 0.364369 0.364369
0.376765 0.376765 0.376765
0.389325 0.389325 0.389325
0.402033 0.402033 0.402033
0.414875 0.414875 0.414875
0.427833 0.427833 0.427833
0.440890 0.440890 0.440890
0.287174 0.287174 0.287174
0.298176 0.298176 0.298176
0.309416 0.309416 0.309416
0.320887 0.320887 0.320887
0.332578 0.332578 0.332578
0.344478 0.344478 0.344478
0.356577 0.356577 0.356577
0.368862 0.368862 0.368862
0.381320 0.381320 0.381320
0.393935 0.393935 0.393935
0.406694 0.406694 0.406694
0.419579 0.419579 0.419579
0.432576 0.432576 0.432576
0.445665 0.445665 0.445665
0.458831 0.458831 0.458831
0.472054 0.472054 0.472054
0.485317 0.485317 0.485317
0.325118 0.325118 0.325118
0.336887 0.336887 0.336887
0.348861 0.348861 0.348861
0.361029 0.361029 0.361029
0.373379 0.373379 0.373379
0.385895 0.385895 0.385895
0.398564 0.398564 0.398564
0.411371 0.411371 0.411371
0.424299 0.424299 0.424299
0.437331 0.437331 0.437331
0.450451 0.450451 0.450451
0.463639 0.463639 0.463639
0.476879 0.476879 0.476879
0.490151 0.490151 0.490151
0.503437 0.503437 0.503437
0.516719 0.516719 0.516719
0.529977 0.529977 0.529977
0.365505 0.365505 0.365505
0.377917 0.377917 0.377917
0.390491 0.390491 0.390491
0.403212 0.403212 0.403212
0.416065 0.416065 0.416065
0.429032 0.429032 0.429032
0.442098 0.442098 0.442098
0.455245 0.455245 0.455245
0.468454 0.468454 0.468454
0.481708 0.481708 0.481708
0.494988 0.494988 0.494988
0.508274 0.508274 0.508274
0.521549 0.521549 0.521549
0.534794 0.534794 0.534794
0.547989 0.547989 0.547989
0.561118 0.561118 0.561118
0.574161 0.574161 0.574161
0.407877 0.407877 0.407877
0.420773 0.420773 0.420773
0.433779 0.433779 0.433779
0.446876 0.446876 0.446876
0.460048 0.460048 0.460048
0.473275 0.473275 0.473275
0.486541 0.486541 0.486541
0.499825 0.499825 0.499825
0.513109 0.513109 0.513109
0.526375 0.526375 0.526375
0.539604 0.539604 0.539604
0.552778 0.552778 0.552778
0.565877 0.565877 0.565877
0.578886 0.578886 0.578886
0.591785 0.591785 0.591785
0.604560 0.604560 0.604560
0.617193 0.617193 0.617193
0.451664 0.451664 0.451664
0.464858 0.464858 0.464858
0.478102 0.478102 0.478102
0.491376 0.491376 0.491376
0.504662 0.504662 0.504662
0.517942 0.517942 0.517942
0.531197 0.531197 0.531197
0.544408 0.544408 0.544408
0.557556 0.557556 0.557556
0.570625 0.570625 0.570625
0.583595 0.583595 0.583595
0.596451 0.596451 0.596451
0.609176 0.609176 0.609176
0.621754 0.621754 0.621754
0.634170 0.634170 0.634170
0.646411 0.646411 0.646411
0.658462 0.658462 0.658462
0.496213 0.496213 0.496213
0.509499 0.509499 0.509499
0.522772 0.522772 0.522772
0.536013 0.536013 0.536013
0.549203 0.549203 0.549203
0.562324 0.562324 0.562324
0.575359 0.575359 0.575359
0.588290 0.588290 0.588290
0.601100 0.601100 0.601100
0.613773 0.613773 0.613773
0.626294 0.626294 0.626294
0.638648 0.638648 0.638648
0.650821 0.650821 0.650821
0.662801 0.662801 0.662801
0.674575 0.674575 0.674575
0.686133 0.686133 0.686133
0.697464 0.697464 0.697464
0.540821 0.540821 0.540821
0.553989 0.553989 0.553989
0.567081 0.567081 0.567081
0.580080 0.580080 0.580080
0.592968 0.592968 0.592968
0.605730 0.605730 0.605730
0.618350 0.618350 0.618350
0.630812 0.630812 0.630812
0.643101 0.643101 0.643101
0.655205 0.655205 0.655205
0.667112 0.667112 0.667112
0.678808 0.678808 0.678808
0.690285 0.690285 0.690285
0.701531 0.701531 0.701531
0.712540 0.712540 0.712540
0.723302 0.723302 0.723302
0.733812 0.733812 0.733812
0.584786 0.584786 0.584786
0.597630 0.597630 0.597630
0.610342 0.610342 0.610342
0.622906 0.622906 0.622906
0.635306 0.635306 0.635306
0.647530 0.647530 0.647530
0.659564 0.659564 0.659564
0.671395 0.671395 0.671395
0.683012 0.683012 0.683012
0.694406 0.694406 0.694406
0.705567 0.705567 0.705567
0.716487 0.716487 0.716487
0.727158 0.727158 0.727158
0.737575 0.737575 0.737575
0.747732 0.747732 0.747732
0.757625 0.757625 0.757625
0.767250 0.767250 0.767250
0.627440 0.627440 0.627440
0.639778 0.639778 0.639778
0.651934 0.651934 0.651934
0.663895 0.663895 0.663895
0.675650 0.675650 0.675650
0.687187 0.687187 0.687187
0.698497 0.698497 0.698497
0.709571 0.709571 0.709571
0.720401 0.720401 0.720401
0.730980 0.730980 0.730980
0.741303 0.741303 0.741303
0.751364 0.751364 0.751364
0.761160 0.761160 0.761160
0.770688 0.770688 0.770688
0.779946 0.779946 0.779946
0.788932 0.788932 0.788932
0.797647 0.797647 0.797647
0.668199 0.668199 0.668199
0.679876 0.679876 0.679876
0.691331 0.691331 0.691331
0.702556 0.702556 0.702556
0.713542 0.713542 0.713542
0.724282 0.724282 0.724282
0.734768 0.734768 0.734768
0.744996 0.744996 0.744996
0.754961 0.754961 0.754961
0.764660 0.764660 0.764660
0.774090 0.774090 0.774090
0.783249 0.783249 0.783249
0.792136 0.792136 0.792136
0.800752 0.800752 0.800752
0.809096 0.809096 0.809096
0.817171 0.817171 0.817171
0.824979 0.824979 0.824979
0.706584 0.706584 0.706584
0.717481 0.717481 0.717481
0.728129 0.728129 0.728129
0.738522 0.738522 0.738522
0.748655 0.748655 0.748655
0.758523 0.758523 0.758523
0.768124 0.768124 0.768124
0.777456 0.777456 0.777456
0.786516 0.786516 0.786516
0.795304 0.795304 0.795304
0.803821 0.803821 0.803821
0.812067 0.812067 0.812067
0.820045 0.820045 0.820045
0.827755 0.827755 0.827755
0.835202 0.835202 0.835202
0.842387 0.842387 0.842387
0.849316 0.849316 0.849316
0.123046 0.123046 0.123046
0.128897 0.128897 0.128897
0.134983 0.134983 0.134983
0.141310 0.141310 0.141310
0.147883 0.147883 0.147883
0.154707 0.154707 0.154707
0.161786 0.161786 0.161786
0.169124 0.169124 0.169124
0.176724 0.176724 0.176724
0.184591 0.184591 0.184591
0.192725 0.192725 0.192725
0.201129 0.201129 0.201129
0.209805 0.209805 0.209805
0.218753 0.218753 0.218753
0.227972 0.227972 0.227972
0.237461 0.237461 0.237461
0.247219 0.247219 0.247219
0.143675 0.143675 0.143675
0.150338 0.150338 0.150338
0.157254 0.157254 0.157254
0.164427 0.164427 0.164427
0.171860 0.171860 0.171860
0.179557 0.179557 0.179557
0.187521 0.187521 0.187521
0.195753 0.195753 0.195753
0.204257 0.204257 0.204257
0.213031 0.213031 0.213031
0.222078 0.222078 0.222078
0.231395 0.231395 0.231395
0.240983 0.240983 0.240983
0.250838 0.250838 0.250838
0.260957 0.260957 0.260957
0.271337 0.271337 0.271337
0.281972 0.281972 0.281972
0.167103 0.167103 0.167103
0.174632 0.174632 0.174632
0.182426 0.182426 0.182426
0.190487 0.190487 0.190487
0.198818 0.198818 0.198818
0.207420 0.207420 0.207420
0.216293 0.216293 0.216293
0.225438 0.225438 0.225438
0.234854 0.234854 0.234854
0.244540 0.244540 0.244540
0.254491 0.254491 0.254491
0.264706 0.264706 0.264706
0.275180 0.275180 0.275180
0.285906 0.285906 0.285906
0.296880 0.296880 0.296880
0.308093 0.308093 0.308093
0.319537 0.319537 0.319537
0.193489 0.193489 0.193489
0.201918 0.201918 0.201918
0.210619 0.210619 0.210619
0.219591 0.219591 0.219591
0.228835 0.228835 0.228835
0.238349 0.238349 0.238349
0.248132 0.248132 0.248132
0.258180 0.258180 0.258180
0.268489 0.268489 0.268489
0.279056 0.279056 0.279056
0.289873 0.289873 0.289873
0.300935 0.300935 0.300935
0.312233 0.312233 0.312233
0.323759 0.323759 0.323759
0.335503 0.335503 0.335503
0.347454 0.347454 0.347454
0.359600 0.359600 0.359600
0.222925 0.222925 0.222925
0.232268 0.232268 0.232268
0.241880 0.241880 0.241880
0.251760 0.251760 0.251760
0.261903 0.261903 0.261903
0.272307 0.272307 0.272307
0.282965 0.282965 0.282965
0.293872 0.293872 0.293872
0.305021 0.305021 0.305021
0.316403 0.316403 0.316403
0.328010 0.328010 0.328010
0.339830 0.339830 0.339830
0.351854 0.351854 0.351854
0.364068 0.364068 0.364068
0.376460 0.376460 0.376460
0.389016 0.389016 0.389016
0.401721 0.401721 0.401721
0.255422 0.255422 0.255422
0.265661 0.265661 0.265661
0.276158 0.276158 0.276158
0.286908 0.286908 0.286908
0.297904 0.297904 0.297904
0.309138 0.309138 0.309138
0.320603 0.320603 0.320603
0.332289 0.332289 0.332289
0.344185 0.344185 0.344185
0.356279 0.356279 0.356279
0.368560 0.368560 0.368560
0.381013 0.381013 0.381013
0.393625 0.393625 0.393625
0.406380 0.406380 0.406380
0.419263 0.419263 0.419263
0.432257 0.432257 0.432257
0.445344 0.445344 0.445344
0.290883 0.290883 0.290883
0.301967 0.301967 0.301967
0.313286 0.313286 0.313286
0.324833 0.324833 0.324833
0.336596 0.336596 0.336596
0.348566 0.348566 0.348566
0.360729 0.360729 0.360729
0.373074 0.373074 0.373074
0.385587 0.385587 0.385587
0.398253 0.398253 0.398253
0.411056 0.411056 0.411056
0.423981 0.423981 0.423981
0.437011 0.437011 0.437011
0.450129 0.450129 0.450129
0.463316 0.463316 0.463316
0.476555 0.476555 0.476555
0.489826 0.489826 0.489826
0.329091 0.329091 0.329091
0.340931 0.340931 0.340931
0.352972 0.352972 0.352972
0.365203 0.365203 0.365203
0.377611 0.377611 0.377611
0.390181 0.390181 0.390181
0.402899 0.402899 0.402899
0.415749 0.415749 0.415749
0.428714 0.428714 0.428714
0.441778 0.441778 0.441778
0.454923 0.454923 0.454923
0.468131 0.468131 0.468131
0.481384 0.481384 0.481384
0.494663 0.494663 0.494663
0.507949 0.507949 0.507949
0.521225 0.521225 0.521225
0.534470 0.534470 0.534470
0.369701 0.369701 0.369701
0.382169 0.382169 0.382169
0.394795 0.394795 0.394795
0.407563 0.407563 0.407563
0.420456 0.420456 0.420456
0.433460 0.433460 0.433460
0.446555 0.446555 0.446555
0.459725 0.459725 0.459725
0.472951 0.472951 0.472951
0.486216 0.486216 0.486216
0.499500 0.499500 0.499500
0.512785 0.512785 0.512785
0.526051 0.526051 0.526051
0.539281 0.539281 0.539281
0.552456 0.552456 0.552456
0.565558 0.565558 0.565558
0.578569 0.578569 0.578569
0.412243 0.412243 0.412243
0.425179 0.425179 0.425179
0.438217 0.438217 0.438217
0.451342 0.451342 0.451342
0.464535 0.464535 0.464535
0.477777 0.477777 0.477777
0.491051 0.491051 0.491051
0.504337 0.504337 0.504337
0.517618 0.517618 0.517618
0.530873 0.530873 0.530873
0.544085 0.544085 0.544085
0.557236 0.557236 0.557236
0.570306 0.570306 0.570306
0.583279 0.583279 0.583279
0.596138 0.596138 0.596138
0.608866 0.608866 0.608866
0.621448 0.621448 0.621448
0.456138 0.456138 0.456138
0.469351 0.469351 0.469351
0.482607 0.482607 0.482607
0.495888 0.495888 0.495888
0.509174 0.509174 0.509174
0.522447 0.522447 0.522447
0.535689 0.535689 0.535689
0.548881 0.548881 0.548881
0.562004 0.562004 0.562004
0.575041 0.575041 0.575041
0.587975 0.587975 0.587975
0.600788 0.600788 0.600788
0.613465 0.613465 0.613465
0.625990 0.625990 0.625990
0.638348 0.638348 0.638348
0.650526 0.650526 0.650526
0.662510 0.662510 0.662510
0.500725 0.500725 0.500725
0.514009 0.514009 0.514009
0.527273 0.527273 0.527273
0.540499 0.540499 0.540499
0.553667 0.553667 0.553667
0.566761 0.566761 0.566761
0.579763 0.579763 0.579763
0.592655 0.592655 0.592655
0.605420 0.605420 0.605420
0.618043 0.618043 0.618043
0.630509 0.630509 0.630509
0.642803 0.642803 0.642803
0.654912 0.654912 0.654912
0.666823 0.666823 0.666823
0.678525 0.678525 0.678525
0.690007 0.690007 0.690007
0.701259 0.701259 0.701259
0.545300 0.545300 0.545300
0.558444 0.558444 0.558444
0.571506 0.571506 0.571506
0.584470 0.584470 0.584470
0.597317 0.597317 0.597317
0.610033 0.610033 0.610033
0.622600 0.622600 0.622600
0.635005 0.635005 0.635005
0.647233 0.647233 0.647233
0.659272 0.659272 0.659272
0.671108 0.671108 0.671108
0.682731 0.682731 0.682731
0.694130 0.694130 0.694130
0.705297 0.705297 0.705297
0.716222 0.716222 0.716222
0.726900 0.726900 0.726900
0.737323 0.737323 0.737323
0.589161 0.589161 0.589161
0.601963 0.601963 0.601963
0.614626 0.614626 0.614626
0.627136 0.627136 0.627136
0.639478 0.639478 0.639478
0.651639 0.651639 0.651639
0.663605 0.663605 0.663605
0.675365 0.675365 0.675365
0.686907 0.686907 0.686907
0.698223 0.698223 0.698223
0.709303 0.709303 0.709303
0.720139 0.720139 0.720139
0.730724 0.730724 0.730724
0.741053 0.741053 0.741053
0.751121 0.751121 0.751121
0.760924 0.760924 0.760924
0.770458 0.770458 0.770458
0.631650 0.631650 0.631650
0.643927 0.643927 0.643927
0.656018 0.656018 0.656018
0.667911 0.667911 0.667911
0.679593 0.679593 0.679593
0.691054 0.691054 0.691054
0.702284 0.702284 0.702284
0.713276 0.713276 0.713276
0.724022 0.724022 0.724022
0.734515 0.734515 0.734515
0.744749 0.744749 0.744749
0.754721 0.754721 0.754721
0.764426 0.764426 0.764426
0.773862 0.773862 0.773862
0.783028 0.783028 0.783028
0.791922 0.791922 0.791922
0.800544 0.800544 0.800544
0.672188 0.672188 0.672188
0.683791 0.683791 0.683791
0.695170 0.695170 0.695170
0.706314 0.706314 0.706314
0.717217 0.717217 0.717217
0.727871 0.727871 0.727871
0.738271 0.738271 0.738271
0.748410 0.748410 0.748410
0.758285 0.758285 0.758285
0.767893 0.767893 0.767893
0.777231 0.777231 0.777231
0.786297 0.786297 0.786297
0.795093 0.795093 0.795093
0.803616 0.803616 0.803616
0.811869 0.811869 0.811869
0.819853 0.819853 0.819853
0.827570 0.827570 0.827570
0.710312 0.710312 0.710312
0.721125 0.721125 0.721125
0.731687 0.731687 0.731687
0.741992 0.741992 0.741992
0.752036 0.752036 0.752036
0.761814 0.761814 0.761814
0.771324 0.771324 0.771324
0.780563 0.780563 0.780563
0.789531 0.789531 0.789531
0.798227 0.798227 0.798227
0.806652 0.806652 0.806652
0.814807 0.814807 0.814807
0.822693 0.822693 0.822693
0.830313 0.830313 0.830313
0.837671 0.837671 0.837671
0.844769 0.844769 0.844769
0.851612 0.851612 0.851612
0.125007 0.125007 0.125007
0.130937 0.130937 0.130937
0.137105 0.137105 0.137105
0.143515 0.143515 0.143515
0.150172 0.150172 0.150172
0.157082 0.157082 0.157082
0.164249 0.164249 0.164249
0.171675 0.171675 0.171675
0.179366 0.179366 0.179366
0.187323 0.187323 0.187323
0.195549 0.195549 0.195549
0.204045 0.204045 0.204045
0.212813 0.212813 0.212813
0.221853 0.221853 0.221853
0.231164 0.231164 0.231164
0.240745 0.240745 0.240745
