assets/luts/bw.cube
# Black & white with mild contrast.
# Generated procedurally by videokit gen-luts.py
TITLE "bw"
LUT_3D_SIZE 9
DOMAIN_MIN 0.0 0.0 0.0
DOMAIN_MAX 1.0 1.0 1.0
0.119203 0.119203 0.119203
0.130823 0.130823 0.130823
0.143392 0.143392 0.143392
0.156950 0.156950 0.156950
0.171533 0.171533 0.171533
0.187171 0.187171 0.187171
0.203883 0.203883 0.203883
0.221680 0.221680 0.221680
0.240562 0.240562 0.240562
0.162139 0.162139 0.162139
0.177103 0.177103 0.177103
0.193130 0.193130 0.193130
0.210237 0.210237 0.210237
0.228430 0.228430 0.228430
0.247703 0.247703 0.247703
0.268038 0.268038 0.268038
0.289400 0.289400 0.289400
0.311739 0.311739 0.311739
0.216734 0.216734 0.216734
0.235322 0.235322 0.235322
0.254985 0.254985 0.254985
0.275698 0.275698 0.275698
0.297423 0.297423 0.297423
0.320103 0.320103 0.320103
0.343666 0.343666 0.343666
0.368025 0.368025 0.368025
0.393076 0.393076 0.393076
0.283493 0.283493 0.283493
0.305573 0.305573 0.305573
0.328583 0.328583 0.328583
0.352447 0.352447 0.352447
0.377071 0.377071 0.377071
0.402346 0.402346 0.402346
0.428151 0.428151 0.428151
0.454352 0.454352 0.454352
0.480809 0.480809 0.480809
0.361329 0.361329 0.361329
0.386203 0.386203 0.386203
0.411686 0.411686 0.411686
0.437651 0.437651 0.437651
0.463963 0.463963 0.463963
0.490476 0.490476 0.490476
0.517043 0.517043 0.517043
0.543515 0.543515 0.543515
0.569742 0.569742 0.569742
0.447198 0.447198 0.447198
0.473600 0.473600 0.473600
0.500150 0.500150 0.500150
0.526700 0.526700 0.526700
0.553099 0.553099 0.553099
0.579202 0.579202 0.579202
0.604870 0.604870 0.604870
0.629973 0.629973 0.629973
0.654392 0.654392 0.654392
0.536336 0.536336 0.536336
0.562644 0.562644 0.562644
0.588605 0.588605 0.588605
0.614081 0.614081 0.614081
0.638948 0.638948 0.638948
0.663091 0.663091 0.663091
0.686412 0.686412 0.686412
0.708828 0.708828 0.708828
0.730271 0.730271 0.730271
0.623211 0.623211 0.623211
0.647827 0.647827 0.647827
0.671681 0.671681 0.671681
0.694682 0.694682 0.694682
0.716751 0.716751 0.716751
0.737826 0.737826 0.737826
0.757863 0.757863 0.757863
0.776832 0.776832 0.776832
0.794718 0.794718 0.794718
0.702828 0.702828 0.702828
0.724541 0.724541 0.724541
0.745243 0.745243 0.745243
0.764894 0.764894 0.764894
0.783469 0.783469 0.783469
0.800959 0.800959 0.800959
0.817366 0.817366 0.817366
0.832702 0.832702 0.832702
0.846992 0.846992 0.846992
0.123046 0.123046 0.123046
0.134983 0.134983 0.134983
0.147883 0.147883 0.147883
0.161786 0.161786 0.161786
0.176724 0.176724 0.176724
0.192725 0.192725 0.192725
0.209805 0.209805 0.209805
0.227972 0.227972 0.227972
0.247219 0.247219 0.247219
0.167103 0.167103 0.167103
0.182426 0.182426 0.182426
0.198818 0.198818 0.198818
0.216293 0.216293 0.216293
0.234854 0.234854 0.234854
0.254491 0.254491 0.254491
0.275180 0.275180 0.275180
0.296880 0.296880 0.296880
0.319537 0.319537 0.319537
0.222925 0.222925 0.222925
0.241880 0.241880 0.241880
0.261903 0.261903 0.261903
0.282965 0.282965 0.282965
0.305021 0.305021 0.305021
0.328010 0.328010 0.328010
0.351854 0.351854 0.351854
0.376460 0.376460 0.376460
0.401721 0.401721 0.401721
0.290883 0.290883 0.290883
0.313286 0.313286 0.313286
0.336596 0.336596 0.336596
0.360729 0.360729 0.360729
0.385587 0.385587 0.385587
0.411056 0.411056 0.411056
0.437011 0.437011 0.437011
0.463316 0.463316 0.463316
0.489826 0.489826 0.489826
0.369701 0.369701 0.369701
0.394795 0.394795 0.394795
0.420456 0.420456 0.420456
0.446555 0.446555 0.446555
0.472951 0.472951 0.472951
0.499500 0.499500 0.499500
0.526051 0.526051 0.526051
0.552456 0.552456 0.552456
0.578569 0.578569 0.578569
0.456138 0.456138 0.456138
0.482607 0.482607 0.482607
0.509174 0.509174 0.509174
0.535689 0.535689 0.535689
0.562004 0.562004 0.562004
0.587975 0.587975 0.587975
0.613465 0.613465 0.613465
0.638348 0.638348 0.638348
0.662510 0.662510 0.662510
0.545300 0.545300 0.545300
0.571506 0.571506 0.571506
0.597317 0.597317 0.597317
0.622600 0.622600 0.622600
0.647233 0.647233 0.647233
0.671108 0.671108 0.671108
0.694130 0.694130 0.694130
0.716222 0.716222 0.716222
0.737323 0.737323 0.737323
0.631650 0.631650 0.631650
0.656018 0.656018 0.656018
0.679593 0.679593 0.679593
0.702284 0.702284 0.702284
0.724022 0.724022 0.724022
0.744749 0.744749 0.744749
0.764426 0.764426 0.764426
0.783028 0.783028 0.783028
0.800544 0.800544 0.800544
0.710312 0.710312 0.710312
0.731687 0.731687 0.731687
0.752036 0.752036 0.752036
0.771324 0.771324 0.771324
0.789531 0.789531 0.789531
0.806652 0.806652 0.806652
0.822693 0.822693 0.822693
0.837671 0.837671 0.837671
0.851612 0.851612 0.851612
0.126994 0.126994 0.126994
0.139254 0.139254 0.139254
0.152490 0.152490 0.152490
0.166741 0.166741 0.166741
0.182038 0.182038 0.182038
0.198404 0.198404 0.198404
0.215853 0.215853 0.215853
0.234388 0.234388 0.234388
0.253998 0.253998 0.253998
0.172188 0.172188 0.172188
0.187872 0.187872 0.187872
0.204631 0.204631 0.204631
0.222475 0.222475 0.222475
0.241404 0.241404 0.241404
0.261401 0.261401 0.261401
0.282438 0.282438 0.282438
0.304470 0.304470 0.304470
0.327437 0.327437 0.327437
0.229241 0.229241 0.229241
0.248561 0.248561 0.248561
0.268941 0.268941 0.268941
0.290347 0.290347 0.290347
0.312727 0.312727 0.312727
0.336016 0.336016 0.336016
0.360130 0.360130 0.360130
0.384971 0.384971 0.384971
0.410427 0.410427 0.410427
0.298385 0.298385 0.298385
0.321105 0.321105 0.321105
0.344704 0.344704 0.344704
0.369095 0.369095 0.369095
0.394174 0.394174 0.394174
0.419823 0.419823 0.419823
0.445912 0.445912 0.445912
0.472303 0.472303 0.472303
0.498850 0.498850 0.498850
0.378152 0.378152 0.378152
0.403453 0.403453 0.403453
0.429277 0.429277 0.429277
0.455493 0.455493 0.455493
0.481958 0.481958 0.481958
0.508524 0.508524 0.508524
0.535042 0.535042 0.535042
0.561364 0.561364 0.561364
0.587345 0.587345 0.587345
0.465107 0.465107 0.465107
0.491626 0.491626 0.491626
0.518192 0.518192 0.518192
0.544656 0.544656 0.544656
0.570870 0.570870 0.570870
0.596692 0.596692 0.596692
0.621989 0.621989 0.621989
0.646639 0.646639 0.646639
0.670534 0.670534 0.670534
0.554236 0.554236 0.554236
0.580323 0.580323 0.580323
0.605969 0.605969 0.605969
0.631044 0.631044 0.631044
0.655431 0.655431 0.655431
0.679026 0.679026 0.679026
0.701741 0.701741 0.701741
0.723502 0.723502 0.723502
0.744254 0.744254 0.744254
0.640008 0.640008 0.640008
0.664118 0.664118 0.664118
0.687402 0.687402 0.687402
0.709777 0.709777 0.709777
0.731177 0.731177 0.731177
0.751551 0.751551 0.751551
0.770865 0.770865 0.770865
0.789099 0.789099 0.789099
0.806246 0.806246 0.806246
0.717684 0.717684 0.717684
0.738715 0.738715 0.738715
0.758706 0.758706 0.758706
0.777629 0.777629 0.777629
0.795467 0.795467 0.795467
0.812220 0.812220 0.812220
0.827898 0.827898 0.827898
0.842520 0.842520 0.842520
0.856116 0.856116 0.856116
0.131051 0.131051 0.131051
0.143638 0.143638 0.143638
0.157215 0.157215 0.157215
0.171818 0.171818 0.171818
0.187475 0.187475 0.187475
0.204208 0.204208 0.204208
0.222026 0.222026 0.222026
0.240928 0.240928 0.240928
0.260899 0.260899 0.260899
0.177395 0.177395 0.177395
0.193442 0.193442 0.193442
0.210569 0.210569 0.210569
0.228782 0.228782 0.228782
0.248076 0.248076 0.248076
0.268431 0.268431 0.268431
0.289811 0.289811 0.289811
0.312169 0.312169 0.312169
0.335436 0.335436 0.335436
0.235682 0.235682 0.235682
0.255365 0.255365 0.255365
0.276098 0.276098 0.276098
0.297841 0.297841 0.297841
0.320538 0.320538 0.320538
0.344117 0.344117 0.344117
0.368490 0.368490 0.368490
0.393553 0.393553 0.393553
0.419190 0.419190 0.419190
0.305997 0.305997 0.305997
0.329025 0.329025 0.329025
0.352904 0.352904 0.352904
0.377541 0.377541 0.377541
0.402827 0.402827 0.402827
0.428641 0.428641 0.428641
0.454848 0.454848 0.454848
0.481309 0.481309 0.481309
0.507874 0.507874 0.507874
0.386677 0.386677 0.386677
0.412170 0.412170 0.412170
0.438143 0.438143 0.438143
0.464460 0.464460 0.464460
0.490976 0.490976 0.490976
0.517543 0.517543 0.517543
0.544011 0.544011 0.544011
0.570233 0.570233 0.570233
0.596066 0.596066 0.596066
0.474098 0.474098 0.474098
0.500650 0.500650 0.500650
0.527198 0.527198 0.527198
0.553593 0.553593 0.553593
0.579690 0.579690 0.579690
0.605348 0.605348 0.605348
0.630439 0.630439 0.630439
0.654844 0.654844 0.654844
0.678459 0.678459 0.678459
0.563136 0.563136 0.563136
0.589089 0.589089 0.589089
0.614555 0.614555 0.614555
0.639409 0.639409 0.639409
0.663538 0.663538 0.663538
0.686843 0.686843 0.686843
0.709241 0.709241 0.709241
0.730665 0.730665 0.730665
0.751065 0.751065 0.751065
0.648283 0.648283 0.648283
0.672122 0.672122 0.672122
0.695106 0.695106 0.695106
0.717156 0.717156 0.717156
0.738213 0.738213 0.738213
0.758230 0.758230 0.758230
0.777179 0.777179 0.777179
0.795044 0.795044 0.795044
0.811823 0.811823 0.811823
0.724940 0.724940 0.724940
0.745622 0.745622 0.745622
0.765253 0.765253 0.765253
0.783808 0.783808 0.783808
0.801278 0.801278 0.801278
0.817664 0.817664 0.817664
0.832981 0.832981 0.832981
0.847251 0.847251 0.847251
0.860506 0.860506 0.860506
0.135217 0.135217 0.135217
0.148136 0.148136 0.148136
0.162057 0.162057 0.162057
0.177016 0.177016 0.177016
0.193036 0.193036 0.193036
0.210137 0.210137 0.210137
0.228324 0.228324 0.228324
0.247591 0.247591 0.247591
0.267920 0.267920 0.267920
0.182724 0.182724 0.182724
0.199137 0.199137 0.199137
0.216632 0.216632 0.216632
0.235214 0.235214 0.235214
0.254871 0.254871 0.254871
0.275579 0.275579 0.275579
0.297298 0.297298 0.297298
0.319972 0.319972 0.319972
0.343531 0.343531 0.343531
0.242247 0.242247 0.242247
0.262290 0.262290 0.262290
0.283371 0.283371 0.283371
0.305445 0.305445 0.305445
0.328451 0.328451 0.328451
0.352310 0.352310 0.352310
0.376930 0.376930 0.376930
0.402202 0.402202 0.402202
0.428004 0.428004 0.428004
0.313717 0.313717 0.313717
0.337043 0.337043 0.337043
0.361191 0.361191 0.361191
0.386061 0.386061 0.386061
0.411541 0.411541 0.411541
0.437504 0.437504 0.437504
0.463813 0.463813 0.463813
0.490326 0.490326 0.490326
0.516894 0.516894 0.516894
0.395273 0.395273 0.395273
0.420944 0.420944 0.420944
0.447049 0.447049 0.447049
0.473450 0.473450 0.473450
0.500000 0.500000 0.500000
0.526550 0.526550 0.526550
0.552951 0.552951 0.552951
0.579056 0.579056 0.579056
0.604727 0.604727 0.604727
0.483106 0.483106 0.483106
0.509674 0.509674 0.509674
0.536187 0.536187 0.536187
0.562496 0.562496 0.562496
0.588459 0.588459 0.588459
0.613939 0.613939 0.613939
0.638809 0.638809 0.638809
0.662957 0.662957 0.662957
0.686283 0.686283 0.686283
0.571996 0.571996 0.571996
0.597798 0.597798 0.597798
0.623070 0.623070 0.623070
0.647690 0.647690 0.647690
0.671549 0.671549 0.671549
0.694555 0.694555 0.694555
0.716629 0.716629 0.716629
0.737710 0.737710 0.737710
0.757753 0.757753 0.757753
0.656469 0.656469 0.656469
0.680028 0.680028 0.680028
0.702702 0.702702 0.702702
0.724421 0.724421 0.724421
0.745129 0.745129 0.745129
0.764786 0.764786 0.764786
0.783368 0.783368 0.783368
0.800863 0.800863 0.800863
0.817276 0.817276 0.817276
0.732080 0.732080 0.732080
0.752409 0.752409 0.752409
0.771676 0.771676 0.771676
0.789863 0.789863 0.789863
0.806964 0.806964 0.806964
0.822984 0.822984 0.822984
0.837943 0.837943 0.837943
0.851864 0.851864 0.851864
0.864783 0.864783 0.864783
0.139494 0.139494 0.139494
0.152749 0.152749 0.152749
0.167019 0.167019 0.167019
0.182336 0.182336 0.182336
0.198722 0.198722 0.198722
0.216192 0.216192 0.216192
0.234747 0.234747 0.234747
0.254378 0.254378 0.254378
0.275060 0.275060 0.275060
0.188177 0.188177 0.188177
0.204956 0.204956 0.204956
0.222821 0.222821 0.222821
0.241770 0.241770 0.241770
0.261787 0.261787 0.261787
0.282844 0.282844 0.282844
0.304894 0.304894 0.304894
0.327878 0.327878 0.327878
0.351717 0.351717 0.351717
0.248935 0.248935 0.248935
0.269335 0.269335 0.269335
0.290759 0.290759 0.290759
0.313157 0.313157 0.313157
0.336462 0.336462 0.336462
0.360591 0.360591 0.360591
0.385445 0.385445 0.385445
0.410911 0.410911 0.410911
0.436864 0.436864 0.436864
0.321541 0.321541 0.321541
0.345156 0.345156 0.345156
0.369561 0.369561 0.369561
0.394652 0.394652 0.394652
0.420310 0.420310 0.420310
0.446407 0.446407 0.446407
0.472802 0.472802 0.472802
0.499350 0.499350 0.499350
0.525902 0.525902 0.525902
0.403934 0.403934 0.403934
0.429767 0.429767 0.429767
0.455989 0.455989 0.455989
0.482457 0.482457 0.482457
0.509024 0.509024 0.509024
0.535540 0.535540 0.535540
0.561857 0.561857 0.561857
0.587830 0.587830 0.587830
0.613323 0.613323 0.613323
0.492126 0.492126 0.492126
0.518691 0.518691 0.518691
0.545152 0.545152 0.545152
0.571359 0.571359 0.571359
0.597173 0.597173 0.597173
0.622459 0.622459 0.622459
0.647096 0.647096 0.647096
0.670975 0.670975 0.670975
0.694003 0.694003 0.694003
0.580810 0.580810 0.580810
0.606447 0.606447 0.606447
0.631510 0.631510 0.631510
0.655883 0.655883 0.655883
0.679462 0.679462 0.679462
0.702159 0.702159 0.702159
0.723902 0.723902 0.723902
0.744635 0.744635 0.744635
0.764318 0.764318 0.764318
0.664564 0.664564 0.664564
0.687831 0.687831 0.687831
0.710189 0.710189 0.710189
0.731569 0.731569 0.731569
0.751924 0.751924 0.751924
0.771218 0.771218 0.771218
0.789431 0.789431 0.789431
0.806558 0.806558 0.806558
0.822605 0.822605 0.822605
0.739101 0.739101 0.739101
0.759072 0.759072 0.759072
0.777974 0.777974 0.777974
0.795792 0.795792 0.795792
0.812525 0.812525 0.812525
0.828182 0.828182 0.828182
0.842785 0.842785 0.842785
0.856362 0.856362 0.856362
0.868949 0.868949 0.868949
0.143884 0.143884 0.143884
0.157480 0.157480 0.157480
0.172102 0.172102 0.172102
0.187780 0.187780 0.187780
0.204533 0.204533 0.204533
0.222371 0.222371 0.222371
0.241294 0.241294 0.241294
0.261285 0.261285 0.261285
0.282316 0.282316 0.282316
0.193754 0.193754 0.193754
0.210901 0.210901 0.210901
0.229135 0.229135 0.229135
0.248449 0.248449 0.248449
0.268823 0.268823 0.268823
0.290223 0.290223 0.290223
0.312598 0.312598 0.312598
0.335882 0.335882 0.335882
0.359992 0.359992 0.359992
0.255746 0.255746 0.255746
0.276498 0.276498 0.276498
0.298259 0.298259 0.298259
0.320974 0.320974 0.320974
0.344569 0.344569 0.344569
0.368956 0.368956 0.368956
0.394031 0.394031 0.394031
0.419677 0.419677 0.419677
0.445764 0.445764 0.445764
0.329466 0.329466 0.329466
0.353361 0.353361 0.353361
0.378011 0.378011 0.378011
0.403308 0.403308 0.403308
0.429130 0.429130 0.429130
0.455344 0.455344 0.455344
0.481808 0.481808 0.481808
0.508374 0.508374 0.508374
0.534893 0.534893 0.534893
0.412655 0.412655 0.412655
0.438636 0.438636 0.438636
0.464958 0.464958 0.464958
0.491476 0.491476 0.491476
0.518042 0.518042 0.518042
0.544507 0.544507 0.544507
0.570723 0.570723 0.570723
0.596547 0.596547 0.596547
0.621848 0.621848 0.621848
0.501150 0.501150 0.501150
0.527697 0.527697 0.527697
0.554088 0.554088 0.554088
0.580177 0.580177 0.580177
0.605826 0.605826 0.605826
0.630905 0.630905 0.630905
0.655296 0.655296 0.655296
0.678895 0.678895 0.678895
0.701615 0.701615 0.701615
0.589573 0.589573 0.589573
0.615029 0.615029 0.615029
0.639870 0.639870 0.639870
0.663984 0.663984 0.663984
0.687273 0.687273 0.687273
0.709653 0.709653 0.709653
0.731059 0.731059 0.731059
0.751439 0.751439 0.751439
0.770759 0.770759 0.770759
0.672563 0.672563 0.672563
0.695530 0.695530 0.695530
0.717562 0.717562 0.717562
0.738599 0.738599 0.738599
0.758596 0.758596 0.758596
0.777525 0.777525 0.777525
0.795369 0.795369 0.795369
0.812128 0.812128 0.812128
0.827812 0.827812 0.827812
0.746002 0.746002 0.746002
0.765612 0.765612 0.765612
0.784147 0.784147 0.784147
0.801596 0.801596 0.801596
0.817962 0.817962 0.817962
0.833259 0.833259 0.833259
0.847510 0.847510 0.847510
0.860746 0.860746 0.860746
0.873006 0.873006 0.873006
0.148388 0.148388 0.148388
0.162329 0.162329 0.162329
0.177307 0.177307 0.177307
0.193348 0.193348 0.193348
0.210469 0.210469 0.210469
0.228676 0.228676 0.228676
0.247964 0.247964 0.247964
0.268313 0.268313 0.268313
0.289688 0.289688 0.289688
0.199456 0.199456 0.199456
0.216972 0.216972 0.216972
0.235574 0.235574 0.235574
0.255251 0.255251 0.255251
0.275978 0.275978 0.275978
0.297716 0.297716 0.297716
0.320407 0.320407 0.320407
0.343982 0.343982 0.343982
0.368350 0.368350 0.368350
0.262677 0.262677 0.262677
0.283778 0.283778 0.283778
0.305870 0.305870 0.305870
0.328892 0.328892 0.328892
0.352767 0.352767 0.352767
0.377400 0.377400 0.377400
0.402683 0.402683 0.402683
0.428494 0.428494 0.428494
0.454700 0.454700 0.454700
0.337490 0.337490 0.337490
0.361652 0.361652 0.361652
0.386535 0.386535 0.386535
0.412025 0.412025 0.412025
0.437996 0.437996 0.437996
0.464311 0.464311 0.464311
0.490826 0.490826 0.490826
0.517393 0.517393 0.517393
0.543862 0.543862 0.543862
0.421431 0.421431 0.421431
0.447544 0.447544 0.447544
0.473949 0.473949 0.473949
0.500500 0.500500 0.500500
0.527049 0.527049 0.527049
0.553445 0.553445 0.553445
0.579544 0.579544 0.579544
0.605205 0.605205 0.605205
0.630299 0.630299 0.630299
0.510174 0.510174 0.510174
0.536684 0.536684 0.536684
0.562989 0.562989 0.562989
0.588944 0.588944 0.588944
0.614413 0.614413 0.614413
0.639271 0.639271 0.639271
0.663404 0.663404 0.663404
0.686714 0.686714 0.686714
0.709117 0.709117 0.709117
0.598279 0.598279 0.598279
0.623540 0.623540 0.623540
0.648146 0.648146 0.648146
0.671990 0.671990 0.671990
0.694979 0.694979 0.694979
0.717035 0.717035 0.717035
0.738097 0.738097 0.738097
0.758120 0.758120 0.758120
0.777075 0.777075 0.777075
0.680463 0.680463 0.680463
0.703120 0.703120 0.703120
0.724820 0.724820 0.724820
0.745509 0.745509 0.745509
0.765146 0.765146 0.765146
0.783707 0.783707 0.783707
0.801182 0.801182 0.801182
0.817574 0.817574 0.817574
0.832897 0.832897 0.832897
0.752781 0.752781 0.752781
0.772028 0.772028 0.772028
0.790195 0.790195 0.790195
0.807275 0.807275 0.807275
0.823276 0.823276 0.823276
0.838214 0.838214 0.838214
0.852117 0.852117 0.852117
0.865017 0.865017 0.865017
0.876954 0.876954 0.876954
0.153008 0.153008 0.153008
0.167298 0.167298 0.167298
0.182634 0.182634 0.182634
0.199041 0.199041 0.199041
0.216531 0.216531 0.216531
0.235106 0.235106 0.235106
0.254757 0.254757 0.254757
0.275459 0.275459 0.275459
0.297172 0.297172 0.297172
0.205282 0.205282 0.205282
0.223168 0.223168 0.223168
0.242137 0.242137 0.242137
0.262174 0.262174 0.262174
0.283249 0.283249 0.283249
0.305318 0.305318 0.305318
0.328319 0.328319 0.328319
0.352173 0.352173 0.352173
0.376789 0.376789 0.376789
0.269729 0.269729 0.269729
0.291172 0.291172 0.291172
0.313588 0.313588 0.313588
0.336909 0.336909 0.336909
0.361052 0.361052 0.361052
0.385919 0.385919 0.385919
0.411395 0.411395 0.411395
0.437356 0.437356 0.437356
0.463664 0.463664 0.463664
0.345608 0.345608 0.345608
0.370027 0.370027 0.370027
0.395130 0.395130 0.395130
0.420798 0.420798 0.420798
0.446901 0.446901 0.446901
0.473300 0.473300 0.473300
0.499850 0.499850 0.499850
0.526400 0.526400 0.526400
0.552802 0.552802 0.552802
0.430258 0.430258 0.430258
0.456485 0.456485 0.456485
0.482957 0.482957 0.482957
0.509524 0.509524 0.509524
0.536037 0.536037 0.536037
0.562349 0.562349 0.562349
0.588314 0.588314 0.588314
0.613797 0.613797 0.613797
0.638671 0.638671 0.638671
0.519191 0.519191 0.519191
0.545648 0.545648 0.545648
0.571849 0.571849 0.571849
0.597654 0.597654 0.597654
0.622929 0.622929 0.622929
0.647553 0.647553 0.647553
0.671417 0.671417 0.671417
0.694427 0.694427 0.694427
0.716507 0.716507 0.716507
0.606924 0.606924 0.606924
0.631975 0.631975 0.631975
0.656334 0.656334 0.656334
0.679897 0.679897 0.679897
0.702577 0.702577 0.702577
0.724302 0.724302 0.724302
0.745015 0.745015 0.745015
0.764678 0.764678 0.764678
0.783266 0.783266 0.783266
0.688261 0.688261 0.688261
0.710600 0.710600 0.710600
0.731962 0.731962 0.731962
0.752297 0.752297 0.752297
0.771570 0.771570 0.771570
0.789763 0.789763 0.789763
0.806870 0.806870 0.806870
0.822897 0.822897 0.822897
0.837861 0.837861 0.837861
0.759438 0.759438 0.759438
0.778320 0.778320 0.778320
0.796117 0.796117 0.796117
0.812829 0.812829 0.812829
0.828467 0.828467 0.828467
0.843050 0.843050 0.843050
0.856608 0.856608 0.856608
0.869177 0.869177 0.869177
0.880797 0.880797 0.880797
