assets/luts/cinematic.cube
# Teal-orange cinematic grade.
# Generated procedurally by videokit gen-luts.py
TITLE "cinematic"
LUT_3D_SIZE 17
DOMAIN_MIN 0.0 0.0 0.0
DOMAIN_MAX 1.0 1.0 1.0
0.074665 0.082711 0.105986
0.083535 0.082416 0.105620
0.112963 0.081444 0.104442
0.150614 0.080183 0.102848
0.197739 0.078596 0.100813
0.255113 0.076660 0.098324
0.322643 0.074382 0.095397
0.399016 0.071804 0.092086
0.481571 0.069012 0.088486
0.566540 0.066125 0.084729
0.649681 0.063279 0.080959
0.727094 0.060598 0.077311
0.795904 0.058173 0.073887
0.854584 0.056056 0.070745
0.902880 0.054255 0.067906
0.941478 0.052751 0.065357
0.971609 0.051509 0.063072
0.073799 0.111407 0.104129
0.083400 0.110940 0.103218
0.113358 0.109801 0.101542
0.151705 0.108367 0.099488
0.199695 0.106602 0.097029
0.258065 0.104485 0.094157
0.326638 0.102026 0.090888
0.403974 0.099272 0.087280
0.487262 0.096314 0.083433
0.572613 0.093276 0.079481
0.655728 0.090296 0.075570
0.732736 0.087498 0.071831
0.800861 0.084971 0.068361
0.858702 0.082761 0.065215
0.906125 0.080877 0.062406
0.943905 0.079297 0.059920
0.973320 0.077983 0.057724
0.072760 0.147334 0.100437
0.083829 0.146631 0.099100
0.114457 0.145284 0.097068
0.153642 0.143639 0.094695
0.202619 0.141663 0.091956
0.262067 0.139337 0.088842
0.331698 0.136675 0.085373
0.409928 0.133730 0.081610
0.493796 0.130599 0.077656
0.579307 0.127409 0.073646
0.662142 0.124299 0.069726
0.738498 0.121393 0.066024
0.805727 0.118775 0.062630
0.862574 0.116490 0.059594
0.909023 0.114542 0.056923
0.945928 0.112906 0.054599
0.974606 0.111546 0.052586
0.071502 0.191390 0.095366
0.084607 0.190410 0.093733
0.115995 0.188832 0.091485
0.156096 0.186962 0.088932
0.206109 0.184765 0.086048
0.266635 0.182228 0.082825
0.337261 0.179368 0.079286
0.416249 0.176245 0.075495
0.500502 0.172959 0.071558
0.585946 0.169642 0.067610
0.668277 0.166434 0.063796
0.743794 0.163455 0.060237
0.809997 0.160787 0.057020
0.865777 0.158469 0.054187
0.911229 0.156502 0.051741
0.947272 0.154863 0.049660
0.975245 0.153514 0.047908
0.069993 0.244155 0.089378
0.085526 0.242894 0.087571
0.117708 0.241100 0.085237
0.158735 0.239023 0.082630
0.209755 0.236633 0.079723
0.271274 0.233919 0.076509
0.342751 0.230903 0.073015
0.422302 0.227650 0.069306
0.506712 0.224267 0.065492
0.591867 0.220886 0.061707
0.673513 0.217647 0.058092
0.748073 0.214666 0.054765
0.813199 0.212021 0.051806
0.867921 0.209750 0.049252
0.912428 0.207850 0.047102
0.947684 0.206298 0.045332
0.975037 0.205056 0.043907
0.068217 0.305675 0.082910
0.086385 0.304177 0.081041
0.119334 0.302224 0.078735
0.161221 0.300005 0.076183
0.213135 0.297492 0.073358
0.275482 0.294680 0.070255
0.347592 0.291596 0.066903
0.427455 0.288308 0.063372
0.511776 0.284925 0.059769
0.596437 0.281584 0.056231
0.677264 0.278421 0.052894
0.750818 0.275549 0.049872
0.814898 0.273043 0.047238
0.868651 0.270936 0.045027
0.912333 0.269227 0.043235
0.946935 0.267891 0.041839
0.973796 0.266892 0.040803
0.066184 0.375235 0.076368
0.086987 0.373595 0.074536
0.120610 0.371586 0.072354
0.163219 0.369335 0.069949
0.215830 0.366817 0.067296
0.278754 0.364031 0.064392
0.351208 0.361006 0.061267
0.431089 0.357817 0.057993
0.515064 0.354575 0.054680
0.599051 0.351413 0.051462
0.678981 0.348468 0.048472
0.751553 0.345848 0.045819
0.814694 0.343625 0.043574
0.867637 0.341832 0.041768
0.910688 0.340458 0.040393
0.944913 0.339389 0.039323
0.971601 0.338555 0.038489
0.063935 0.451212 0.070125
0.087149 0.449568 0.068418
0.121286 0.447643 0.066443
0.164396 0.445504 0.064266
0.217425 0.443130 0.061865
0.280596 0.440522 0.059237
0.353044 0.437714 0.056417
0.432615 0.434782 0.053478
0.515984 0.431837 0.050528
0.599145 0.429012 0.047702
0.678153 0.426438 0.045127
0.749889 0.424190 0.042879
0.812508 0.422233 0.040922
0.865214 0.420586 0.039275
0.908226 0.419242 0.037931
0.942451 0.418172 0.036861
0.969139 0.417338 0.036027
0.061538 0.531097 0.064533
0.086699 0.529606 0.063036
0.121118 0.527914 0.061342
0.164433 0.526039 0.059469
0.217523 0.523962 0.057397
0.280541 0.521686 0.055125
0.352576 0.519247 0.052690
0.431476 0.516721 0.050165
0.514138 0.514138 0.047582
0.596800 0.511555 0.044999
0.675583 0.509093 0.042537
0.747305 0.506852 0.040296
0.809925 0.504895 0.038339
0.862631 0.503248 0.036692
0.905643 0.501904 0.035348
0.939887 0.500852 0.034277
0.966551 0.500156 0.033439
0.059086 0.611727 0.059935
0.085476 0.610534 0.058736
0.119882 0.609201 0.057401
0.163033 0.607714 0.055913
0.215768 0.606043 0.054242
0.278388 0.604086 0.052285
0.350110 0.601845 0.050044
0.428893 0.599383 0.047582
0.511555 0.596800 0.044999
0.594217 0.594217 0.042416
0.673000 0.591755 0.039954
0.744722 0.589513 0.037712
0.807451 0.587605 0.035750
0.860450 0.586129 0.034088
0.903798 0.585076 0.032724
0.938308 0.584411 0.031632
0.963927 0.584129 0.030815
0.056675 0.689724 0.056678
0.083363 0.688887 0.055841
0.117588 0.687818 0.054771
0.160600 0.686474 0.053427
0.213306 0.684827 0.051780
0.275926 0.682870 0.049823
0.347648 0.680628 0.047582
0.426431 0.678166 0.045120
0.509106 0.675587 0.042536
0.592062 0.673087 0.039941
0.671446 0.670815 0.037453
0.743910 0.668870 0.035179
0.807234 0.667313 0.033186
0.860480 0.666164 0.031506
0.903802 0.665413 0.030132
0.938105 0.665023 0.029038
0.961398 0.665048 0.028286
0.054434 0.761443 0.054434
0.081122 0.760609 0.053600
0.115347 0.759540 0.052530
0.158359 0.758196 0.051186
0.211065 0.756549 0.049539
0.273746 0.754611 0.047579
0.345881 0.752478 0.045321
0.425501 0.750212 0.042826
0.509367 0.747910 0.040195
0.593425 0.745689 0.037555
0.673555 0.743673 0.035035
0.746347 0.741960 0.032742
0.809613 0.740613 0.030745
0.862506 0.739651 0.029070
0.905299 0.739058 0.027708
0.939003 0.738797 0.026630
0.959087 0.739001 0.025975
0.052477 0.824063 0.052477
0.079165 0.823229 0.051643
0.113479 0.822201 0.050569
0.156847 0.820982 0.049209
0.210306 0.819533 0.047532
0.274178 0.817837 0.045526
0.347673 0.815914 0.043217
0.428634 0.813825 0.040673
0.513617 0.811672 0.038001
0.598392 0.809581 0.035334
0.678749 0.807677 0.032803
0.751292 0.806061 0.030515
0.813943 0.804793 0.028535
0.866001 0.803887 0.026885
0.907879 0.803326 0.025552
0.940696 0.803068 0.024502
0.957077 0.803338 0.023965
0.051130 0.876968 0.050814
0.078299 0.876326 0.049958
0.113392 0.875501 0.048852
0.157804 0.874443 0.047454
0.212554 0.873116 0.045731
0.277887 0.871507 0.043675
0.352857 0.869641 0.041317
0.435099 0.867586 0.038730
0.520956 0.865453 0.036029
0.606054 0.863373 0.033351
0.686155 0.861473 0.030829
0.757957 0.859853 0.028565
0.819550 0.858566 0.026619
0.870414 0.857624 0.025009
0.911114 0.857006 0.023716
0.942865 0.856668 0.022703
0.955402 0.856926 0.022290
0.051168 0.920654 0.049403
0.079134 0.920104 0.048519
0.115279 0.919335 0.047378
0.160999 0.918302 0.045936
0.217263 0.916968 0.044164
0.284189 0.915328 0.042058
0.360636 0.913411 0.039654
0.444006 0.911297 0.037033
0.530438 0.909100 0.034316
0.615462 0.906959 0.031642
0.694879 0.904999 0.029143
0.765545 0.903315 0.026918
0.825760 0.901957 0.025019
0.875203 0.900931 0.023458
0.914581 0.900211 0.022211
0.945189 0.899754 0.021238
0.954057 0.899961 0.020945
0.052417 0.955577 0.048236
0.081371 0.955013 0.047321
0.118758 0.954206 0.046141
0.165952 0.953108 0.044654
0.223834 0.951689 0.042832
0.292361 0.949947 0.040678
0.370168 0.947922 0.038233
0.454420 0.945699 0.035587
0.541087 0.943403 0.032866
0.625655 0.941169 0.030210
0.704033 0.939125 0.027747
0.773282 0.937358 0.025570
0.831932 0.935913 0.023725
0.879854 0.934789 0.022215
0.917881 0.933960 0.021015
0.947364 0.933379 0.020083
0.953008 0.933521 0.019896
0.054704 0.980472 0.047359
0.084774 0.979532 0.046420
0.123513 0.978321 0.045209
0.172242 0.976798 0.043686
0.231729 0.974939 0.041827
0.301743 0.972752 0.039640
0.380685 0.970285 0.037173
0.465507 0.967634 0.034522
0.552057 0.964929 0.031817
0.635844 0.962311 0.029199
0.712932 0.959902 0.026790
0.780615 0.957787 0.024675
0.837652 0.956004 0.022892
0.884085 0.954553 0.021441
0.920843 0.953405 0.020293
0.949309 0.952515 0.019403
0.952418 0.952418 0.019306
0.073565 0.081609 0.141190
0.082472 0.081302 0.140724
0.111948 0.080320 0.139404
0.149665 0.079050 0.137631
0.196874 0.077456 0.135382
0.254349 0.075515 0.132646
0.321988 0.073232 0.129445
0.398468 0.070652 0.125835
0.481111 0.067860 0.121916
0.566138 0.064976 0.117822
0.649299 0.062135 0.113702
0.726694 0.059461 0.109693
0.795458 0.057046 0.105899
0.854074 0.054939 0.102383
0.902300 0.053150 0.099166
0.940832 0.051659 0.096240
0.970904 0.050430 0.093579
0.072717 0.110263 0.138844
0.082440 0.109786 0.137705
0.112466 0.108640 0.135773
0.150901 0.107201 0.133436
0.198994 0.105432 0.130671
0.257479 0.103313 0.127471
0.326169 0.100852 0.123858
0.403610 0.098099 0.119893
0.486975 0.095144 0.115678
0.572363 0.092113 0.111352
0.655473 0.089141 0.107063
0.732437 0.086354 0.102945
0.800490 0.083840 0.099098
0.858249 0.081645 0.095578
0.905588 0.079777 0.092402
0.943292 0.078212 0.089555
0.972644 0.076914 0.087010
0.071706 0.146149 0.134286
0.082966 0.145437 0.132633
0.113677 0.144086 0.130267
0.152962 0.142440 0.127546
0.202053 0.140463 0.124445
0.261621 0.138138 0.120958
0.331369 0.135479 0.117110
0.409694 0.132539 0.112965
0.493621 0.129415 0.108629
0.579147 0.126235 0.104240
0.661953 0.123139 0.099947
0.738242 0.120248 0.095879
0.805384 0.117647 0.092130
0.862136 0.115380 0.088749
0.908494 0.113450 0.085748
0.945321 0.111834 0.083108
0.973935 0.110493 0.080799
0.070486 0.190163 0.128099
0.083831 0.189177 0.126096
0.115309 0.187601 0.123474
0.155516 0.185733 0.120541
0.205645 0.183540 0.117273
0.266287 0.181008 0.113667
0.337019 0.178156 0.109747
0.416085 0.175043 0.105581
0.500375 0.171769 0.101278
0.585811 0.168468 0.096977
0.668092 0.165278 0.092821
0.743527 0.162319 0.088937
0.809632 0.159672 0.085412
0.865312 0.157377 0.082290
0.910674 0.155434 0.079575
0.946641 0.153818 0.077248
0.974555 0.152492 0.075274
0.069018 0.242895 0.120862
0.084822 0.241633 0.118667
0.117095 0.239845 0.115951
0.158225 0.237776 0.112965
0.209352 0.235395 0.109685
0.270976 0.232693 0.106107
0.342539 0.229691 0.102259
0.422144 0.226454 0.098211
0.506567 0.223089 0.094074
0.591691 0.219730 0.089986
0.673268 0.216515 0.086088
0.747736 0.213560 0.082501
0.812762 0.210943 0.079305
0.867388 0.208699 0.076539
0.911812 0.206829 0.074204
0.947000 0.205305 0.072279
0.974302 0.204093 0.070729
0.067284 0.304400 0.113125
0.085732 0.302907 0.110880
0.118765 0.300967 0.108213
0.160745 0.298762 0.105312
0.212750 0.296267 0.102152
0.275177 0.293473 0.098731
0.347346 0.290409 0.095080
0.427234 0.287145 0.091269
0.511540 0.283789 0.087412
0.596148 0.280477 0.083645
0.676895 0.277344 0.080105
0.750353 0.274505 0.076909
0.814338 0.272033 0.074132
0.868005 0.269962 0.071809
0.911617 0.268288 0.069940
0.946165 0.266988 0.068502
0.972987 0.266026 0.067462
0.065289 0.373975 0.105389
0.086360 0.372348 0.103222
0.120053 0.370360 0.100728
0.162733 0.368131 0.098030
0.215410 0.365638 0.095106
0.278382 0.362878 0.091953
0.350860 0.359884 0.088606
0.430733 0.356727 0.085137
0.514664 0.353519 0.081660
0.598579 0.350394 0.078309
0.678421 0.347488 0.075219
0.750901 0.344908 0.072502
0.813958 0.342727 0.070230
0.866832 0.340976 0.068436
0.909854 0.339624 0.067081
0.944079 0.338555 0.066012
0.970767 0.337721 0.065178
0.063071 0.450008 0.098118
0.086516 0.448385 0.096142
0.120700 0.446489 0.093927
0.163853 0.444381 0.091537
0.216913 0.442040 0.088950
0.280094 0.439468 0.086168
0.352524 0.436698 0.083225
0.432048 0.433806 0.080197
0.515344 0.430904 0.077196
0.598417 0.428124 0.074356
0.677332 0.425597 0.071809
0.749055 0.423356 0.069567
0.811674 0.421399 0.067610
0.864380 0.419752 0.065963
0.907392 0.418408 0.064619
0.941617 0.417338 0.063550
0.968305 0.416504 0.062716
0.060696 0.529990 0.091743
0.086024 0.528529 0.090066
0.120462 0.526874 0.088228
0.163783 0.525037 0.086244
0.216860 0.523001 0.084095
0.279840 0.520768 0.081784
0.351810 0.518376 0.079349
0.430642 0.515887 0.076854
0.513304 0.513304 0.074271
0.595966 0.510721 0.071687
0.674749 0.508259 0.069225
0.746471 0.506018 0.066984
0.809091 0.504061 0.065027
0.861797 0.502414 0.063380
0.904809 0.501070 0.062036
0.939089 0.500051 0.060908
0.965723 0.499406 0.059872
0.058254 0.610749 0.086683
0.084723 0.609593 0.085418
0.119111 0.608303 0.084057
0.162223 0.606860 0.082583
0.214934 0.605209 0.080931
0.277554 0.603252 0.078974
0.349276 0.601011 0.076733
0.428059 0.598549 0.074271
0.510721 0.595966 0.071687
0.593383 0.593383 0.069104
0.672166 0.590921 0.066642
0.743897 0.588683 0.064397
0.806719 0.586819 0.062323
0.859781 0.585391 0.060411
0.903165 0.584388 0.058666
0.937690 0.583775 0.057074
0.963144 0.583551 0.055653
0.055841 0.688887 0.083363
0.082529 0.688053 0.082529
0.116754 0.686984 0.081460
0.159766 0.685640 0.080116
0.212472 0.683993 0.078469
0.275092 0.682036 0.076512
0.346814 0.679794 0.074271
0.425597 0.677332 0.071809
0.508331 0.674769 0.069197
0.591420 0.672311 0.066436
0.670914 0.670084 0.063648
0.743452 0.668186 0.060947
0.806816 0.666677 0.058413
0.860071 0.665580 0.056085
0.903383 0.664880 0.053970
0.937668 0.664542 0.052048
0.960698 0.664627 0.050402
0.053600 0.760609 0.081122
0.080288 0.759775 0.080288
0.114513 0.758706 0.079219
0.157525 0.757362 0.077874
0.210231 0.755715 0.076227
0.273001 0.753805 0.074197
0.345271 0.751710 0.071723
0.425038 0.749484 0.068879
0.509040 0.747223 0.065776
0.593206 0.745046 0.062552
0.673404 0.743076 0.059347
0.746219 0.741412 0.056279
0.809473 0.740114 0.053426
0.862330 0.739202 0.050825
0.905077 0.738659 0.048478
0.938734 0.738447 0.046363
0.958495 0.738708 0.044640
0.051643 0.823229 0.079165
0.078339 0.822399 0.078323
0.112720 0.821405 0.077126
0.156187 0.820221 0.075503
0.209776 0.818808 0.073431
0.273801 0.817149 0.070910
0.347461 0.815264 0.067978
0.428577 0.813215 0.064711
0.513685 0.811104 0.061230
0.598539 0.809056 0.057677
0.678920 0.807198 0.054196
0.751441 0.805629 0.050902
0.814035 0.804407 0.047870
0.866020 0.803549 0.045131
0.907824 0.803033 0.042683
0.940575 0.802820 0.040499
0.956604 0.803141 0.038828
0.050403 0.876210 0.076982
0.077656 0.875602 0.075689
0.112861 0.874811 0.074029
0.157414 0.873789 0.071971
0.212332 0.872498 0.069491
0.277848 0.870926 0.066595
0.352997 0.869097 0.063323
0.435391 0.867081 0.059760
0.521352 0.864989 0.056031
0.606494 0.862950 0.052283
0.686578 0.861094 0.048660
0.758317 0.859517 0.045272
0.819818 0.858274 0.042190
0.870582 0.857375 0.039436
0.911189 0.856797 0.037002
0.942861 0.856497 0.034858
0.955050 0.856800 0.033341
0.050604 0.919995 0.073663
0.078686 0.919479 0.071993
0.114976 0.918746 0.069984
0.160868 0.917748 0.067605
0.217323 0.916450 0.064835
0.284445 0.914844 0.061681
0.361070 0.912964 0.058190
0.444576 0.910886 0.054453
0.531083 0.908728 0.050602
0.616113 0.906626 0.046784
0.695475 0.904706 0.043141
0.766045 0.903062 0.039778
0.826143 0.901743 0.036755
0.875469 0.900754 0.034090
0.914743 0.900068 0.031768
0.945268 0.899643 0.029755
0.953817 0.899886 0.028470
0.052028 0.955015 0.069559
0.081120 0.954487 0.067628
0.118673 0.953714 0.065385
0.166054 0.952650 0.062799
0.224135 0.951264 0.059852
0.292854 0.949556 0.056555
0.370823 0.947565 0.052959
0.455182 0.945376 0.049165
0.541888 0.943115 0.045305
0.626426 0.940917 0.041529
0.704717 0.938909 0.037972
0.773845 0.937177 0.034732
0.832363 0.935765 0.031862
0.880161 0.934672 0.029371
0.918083 0.933870 0.027241
0.947485 0.933313 0.025433
0.952863 0.933483 0.024440
0.054490 0.979906 0.065114
0.084711 0.978998 0.063043
0.123622 0.977818 0.060686
0.172539 0.976327 0.058011
0.232216 0.974499 0.055003
0.302402 0.972342 0.051677
0.381475 0.969907 0.048093
0.466368 0.967289 0.044353
0.552917 0.964618 0.040595
0.636639 0.962035 0.036965
0.713616 0.959660 0.033592
0.781165 0.957579 0.030566
0.838066 0.955828 0.027933
0.884379 0.954407 0.025694
0.921038 0.953284 0.023828
0.949428 0.952418 0.022296
0.952345 0.952345 0.021641
0.072188 0.080224 0.185276
0.081141 0.079906 0.184672
0.110669 0.078916 0.183171
0.148455 0.077639 0.181174
0.195753 0.076040 0.178663
0.253331 0.074095 0.175632
0.321083 0.071810 0.172104
0.397670 0.069230 0.168141
0.480403 0.066439 0.163846
0.565487 0.063560 0.159358
0.648666 0.060726 0.154829
0.726043 0.058061 0.150398
0.794759 0.055658 0.146175
0.853311 0.053564 0.142224
0.901467 0.051790 0.138568
0.939933 0.050314 0.135203
0.969949 0.049101 0.132106
0.071361 0.108842 0.182301
0.081216 0.108355 0.180887
0.111314 0.107205 0.178649
0.149838 0.105762 0.175976
0.198037 0.103991 0.172850
0.256641 0.101872 0.169266
0.325450 0.099413 0.165250
0.402996 0.096663 0.160867
0.486439 0.093714 0.156225
0.571864 0.090691 0.151464
0.654967 0.087730 0.146736
0.731886 0.084956 0.142178
0.799869 0.082458 0.137894
0.857544 0.080279 0.133941
0.904801 0.078428 0.130339
0.942431 0.076881 0.127076
0.971721 0.075601 0.124127
0.070385 0.144691 0.176707
0.081843 0.143972 0.174681
0.112639 0.142620 0.171926
0.152027 0.140974 0.168796
0.201234 0.138999 0.165273
0.260925 0.136678 0.161354
0.330790 0.134025 0.157066
0.409210 0.131092 0.152478
0.493197 0.127978 0.147699
0.578738 0.124811 0.142872
0.661513 0.121730 0.138146
0.737737 0.118856 0.133655
0.804791 0.116275 0.129494
0.861449 0.114028 0.125716
0.907718 0.112118 0.122333
0.944468 0.110523 0.119331
0.973020 0.109203 0.116680
0.069208 0.188671 0.169211
0.082800 0.187682 0.166777
0.114371 0.186109 0.163720
0.154684 0.184246 0.160346
0.204931 0.182059 0.156635
0.265691 0.179536 0.152584
0.336528 0.176694 0.148224
0.415672 0.173593 0.143625
0.499999 0.170334 0.138899
0.585426 0.167051 0.134188
0.667656 0.163881 0.129640
0.743009 0.160944 0.125381
0.809018 0.158321 0.121501
0.864600 0.156050 0.118047
0.909874 0.154131 0.115025
0.945768 0.152541 0.112418
0.973623 0.151240 0.110194
0.067788 0.241377 0.160522
0.083867 0.240116 0.157877
0.116233 0.238338 0.154718
0.157466 0.236280 0.151294
0.208702 0.233911 0.147583
0.270429 0.231222 0.143584
0.342078 0.228236 0.139329
0.421736 0.225018 0.134891
0.506171 0.221674 0.130383
0.591262 0.218339 0.125946
0.672772 0.215149 0.121724
0.747148 0.212222 0.117839
0.812076 0.209634 0.114375
0.866608 0.207420 0.111371
0.910950 0.205579 0.108831
0.946073 0.204086 0.106737
0.973325 0.202904 0.105055
0.066101 0.302876 0.151312
0.084832 0.301390 0.148634
0.117951 0.299466 0.145551
0.160021 0.297279 0.142248
0.212117 0.294802 0.138703
0.274625 0.292029 0.134916
0.346850 0.288989 0.130921
0.426761 0.285750 0.126793
0.511051 0.282422 0.122646
0.595606 0.279141 0.118620
0.676272 0.276041 0.114854
0.749636 0.273236 0.111466
0.813527 0.270799 0.108534
0.867110 0.268763 0.106095
0.910654 0.267126 0.104151
0.945149 0.265862 0.102682
0.971933 0.264936 0.101659
0.064150 0.372475 0.142198
0.085488 0.370863 0.139647
0.119251 0.368898 0.136795
0.162001 0.366695 0.133762
0.214742 0.364228 0.130528
0.277761 0.361497 0.127094
0.350260 0.358534 0.123496
0.430121 0.355410 0.119811
0.514007 0.352239 0.116153
0.597849 0.349153 0.112661
0.677602 0.346286 0.109470
0.749991 0.343747 0.106694
0.812966 0.341608 0.104409
0.865772 0.339899 0.102650
0.908784 0.338555 0.101306
0.943009 0.337485 0.100236
0.969698 0.336651 0.099402
0.061968 0.448572 0.133747
0.085639 0.446973 0.131466
0.119871 0.445107 0.128981
0.163064 0.443032 0.126351
0.216151 0.440726 0.123559
0.279338 0.438190 0.120608
0.351747 0.435460 0.117536
0.431220 0.432610 0.114420
0.514440 0.429752 0.111377
0.597422 0.427017 0.108541
0.676263 0.424528 0.106033
0.747985 0.422286 0.103792
0.810604 0.420329 0.101835
0.863310 0.418682 0.100188
0.906323 0.417338 0.098844
0.940547 0.416269 0.097774
0.967236 0.415435 0.096940
0.059619 0.528657 0.126488
0.085107 0.527228 0.124615
0.119561 0.525611 0.122621
0.162884 0.523814 0.120522
0.215943 0.521820 0.118300
0.278879 0.519632 0.115962
0.350779 0.517285 0.113549
0.429573 0.514818 0.111078
0.512235 0.512235 0.108495
0.594896 0.509651 0.105912
0.673680 0.507189 0.103450
0.745402 0.504948 0.101209
0.808021 0.502991 0.099252
0.860727 0.501344 0.097605
0.903743 0.500003 0.096257
0.938072 0.499029 0.095049
0.964656 0.498433 0.093901
0.057188 0.609550 0.120935
0.083724 0.608433 0.119610
0.118090 0.607185 0.118238
0.161159 0.605787 0.116802
0.213865 0.604140 0.115155
0.276484 0.602183 0.113198
0.348206 0.599941 0.110957
0.426990 0.597479 0.108495
0.509651 0.594896 0.105912
0.592313 0.592313 0.103329
0.671097 0.589851 0.100867
0.742872 0.587630 0.098593
0.805783 0.585811 0.096424
0.858896 0.584426 0.094384
0.902302 0.583465 0.092481
0.936828 0.582894 0.090704
0.962093 0.582716 0.089077
0.054771 0.687818 0.117588
0.081460 0.686984 0.116754
0.115685 0.685914 0.115685
0.158697 0.684570 0.114340
0.211403 0.682923 0.112693
0.274022 0.680966 0.110737
0.345744 0.678725 0.108495
0.424528 0.676263 0.106033
0.507367 0.673730 0.103361
0.590585 0.671311 0.100492
0.670177 0.669122 0.097563
0.742774 0.667262 0.094692
0.806160 0.665791 0.091962
0.859405 0.664731 0.089415
0.902688 0.664067 0.087058
0.936932 0.663763 0.084877
0.959672 0.663888 0.082962
0.052530 0.759540 0.115347
0.079219 0.758706 0.114513
0.113443 0.757636 0.113443
0.156455 0.756292 0.112099
0.209174 0.754650 0.110443
0.272058 0.752776 0.108327
0.344463 0.750715 0.105732
0.424370 0.748522 0.102734
0.508497 0.746293 0.099450
0.592756 0.744147 0.096018
0.673001 0.742208 0.092584
0.745818 0.740574 0.089267
0.809035 0.739307 0.086147
0.861832 0.738424 0.083265
0.904507 0.737909 0.080624
0.938092 0.737723 0.078205
0.957499 0.738017 0.076179
0.050573 0.822159 0.113390
0.077295 0.821346 0.112513
0.111746 0.820384 0.111219
0.155312 0.819229 0.109463
0.209025 0.817844 0.107228
0.273197 0.816212 0.104515
0.347009 0.814352 0.101364
0.428266 0.812327 0.097857
0.513479 0.810239 0.094117
0.598387 0.808215 0.090289
0.678767 0.806381 0.086520
0.751238 0.804836 0.082927
0.813749 0.803638 0.079588
0.865634 0.802802 0.076536
0.907336 0.802307 0.073770
0.939993 0.802111 0.071265
0.955643 0.802458 0.069283
0.049446 0.875218 0.110891
0.076776 0.874634 0.109425
0.112085 0.873867 0.107565
0.156769 0.872866 0.105281
0.211841 0.871594 0.102553
0.277522 0.870040 0.099389
0.352831 0.868229 0.095833
0.435355 0.866230 0.091973
0.521395 0.864155 0.087938
0.606552 0.862134 0.083878
0.686591 0.860296 0.079937
0.758237 0.858738 0.076230
0.819617 0.857512 0.072828
0.870254 0.856629 0.069756
0.910740 0.856065 0.067006
0.942307 0.855778 0.064551
0.954124 0.856100 0.062739
0.049768 0.919060 0.106894
0.077952 0.918562 0.104970
0.114370 0.917845 0.102689
0.160415 0.916861 0.100020
0.217041 0.915576 0.096948
0.284336 0.913983 0.093481
0.361114 0.912114 0.089671
0.444728 0.910048 0.085611
0.531281 0.907902 0.081435
0.616288 0.905813 0.077295
0.695566 0.903907 0.073332
0.766010 0.902277 0.069655
0.825964 0.900971 0.066325
0.875147 0.899993 0.063361
0.914293 0.899317 0.060750
0.944711 0.898899 0.058458
0.952923 0.899155 0.056917
0.051301 0.954112 0.101877
0.080512 0.953596 0.099641
0.118207 0.952834 0.097084
0.165752 0.951780 0.094176
0.224007 0.950403 0.090902
0.292891 0.948702 0.087276
0.370993 0.946718 0.083354
0.455431 0.944538 0.079236
0.542146 0.942286 0.075060
0.626625 0.940098 0.070977
0.704801 0.938101 0.067123
0.773783 0.936380 0.063599
0.832145 0.934977 0.060457
0.879798 0.933891 0.057709
0.917594 0.933095 0.055337
0.946894 0.932541 0.053306
0.951995 0.932718 0.052114
0.053858 0.978917 0.096389
0.084204 0.978016 0.093991
0.123262 0.976842 0.091306
0.172341 0.975356 0.088304
0.232181 0.973533 0.084972
0.302510 0.971382 0.081328
0.381686 0.968954 0.077434
0.466620 0.966344 0.073397
0.553142 0.963683 0.069354
0.636773 0.961111 0.065456
0.713614 0.958750 0.061831
0.781008 0.956681 0.058571
0.837755 0.954942 0.055722
0.883930 0.953531 0.053289
0.920475 0.952418 0.051249
0.948777 0.951559 0.049566
0.951497 0.951497 0.048791
0.070507 0.078531 0.239067
0.079517 0.078204 0.238289
0.109100 0.077206 0.236567
0.146959 0.075924 0.234308
0.194347 0.074321 0.231496
0.252033 0.072374 0.228130
0.319898 0.070089 0.224236
0.396595 0.067509 0.219879
0.479417 0.064723 0.215168
0.564557 0.061849 0.210245
0.647754 0.059024 0.205265
0.725110 0.056371 0.200372
0.793778 0.053981 0.195677
0.852264 0.051902 0.191247
0.900350 0.050144 0.187111
0.938751 0.048685 0.183266
