assets/luts/cinematic.cube
# Teal-orange cinematic grade.
# Generated procedurally by videokit gen-luts.py
TITLE "cinematic"
LUT_3D_SIZE 9
DOMAIN_MIN 0.0 0.0 0.0
DOMAIN_MAX 1.0 1.0 1.0
0.074665 0.082711 0.105986
0.112963 0.081444 0.104442
0.197739 0.078596 0.100813
0.322643 0.074382 0.095397
0.481571 0.069012 0.088486
0.649681 0.063279 0.080959
0.795904 0.058173 0.073887
0.902880 0.054255 0.067906
0.971609 0.051509 0.063072
0.072760 0.147334 0.100437
0.114457 0.145284 0.097068
0.202619 0.141663 0.091956
0.331698 0.136675 0.085373
0.493796 0.130599 0.077656
0.662142 0.124299 0.069726
0.805727 0.118775 0.062630
0.909023 0.114542 0.056923
0.974606 0.111546 0.052586
0.069993 0.244155 0.089378
0.117708 0.241100 0.085237
0.209755 0.236633 0.079723
0.342751 0.230903 0.073015
0.506712 0.224267 0.065492
0.673513 0.217647 0.058092
0.813199 0.212021 0.051806
0.912428 0.207850 0.047102
0.975037 0.205056 0.043907
0.066184 0.375235 0.076368
0.120610 0.371586 0.072354
0.215830 0.366817 0.067296
0.351208 0.361006 0.061267
0.515064 0.354575 0.054680
0.678981 0.348468 0.048472
0.814694 0.343625 0.043574
0.910688 0.340458 0.040393
0.971601 0.338555 0.038489
0.061538 0.531097 0.064533
0.121118 0.527914 0.061342
0.217523 0.523962 0.057397
0.352576 0.519247 0.052690
0.514138 0.514138 0.047582
0.675583 0.509093 0.042537
0.809925 0.504895 0.038339
0.905643 0.501904 0.035348
0.966551 0.500156 0.033439
0.056675 0.689724 0.056678
0.117588 0.687818 0.054771
0.213306 0.684827 0.051780
0.347648 0.680628 0.047582
0.509106 0.675587 0.042536
0.671446 0.670815 0.037453
0.807234 0.667313 0.033186
0.903802 0.665413 0.030132
0.961398 0.665048 0.028286
0.052477 0.824063 0.052477
0.113479 0.822201 0.050569
0.210306 0.819533 0.047532
0.347673 0.815914 0.043217
0.513617 0.811672 0.038001
0.678749 0.807677 0.032803
0.813943 0.804793 0.028535
0.907879 0.803326 0.025552
0.957077 0.803338 0.023965
0.051168 0.920654 0.049403
0.115279 0.919335 0.047378
0.217263 0.916968 0.044164
0.360636 0.913411 0.039654
0.530438 0.909100 0.034316
0.694879 0.904999 0.029143
0.825760 0.901957 0.025019
0.914581 0.900211 0.022211
0.954057 0.899961 0.020945
0.054704 0.980472 0.047359
0.123513 0.978321 0.045209
0.231729 0.974939 0.041827
0.380685 0.970285 0.037173
0.552057 0.964929 0.031817
0.712932 0.959902 0.026790
0.837652 0.956004 0.022892
0.920843 0.953405 0.020293
0.952418 0.952418 0.019306
0.072188 0.080224 0.185276
0.110669 0.078916 0.183171
0.195753 0.076040 0.178663
0.321083 0.071810 0.172104
0.480403 0.066439 0.163846
0.648666 0.060726 0.154829
0.794759 0.055658 0.146175
0.901467 0.051790 0.138568
0.969949 0.049101 0.132106
0.070385 0.144691 0.176707
0.112639 0.142620 0.171926
0.201234 0.138999 0.165273
0.330790 0.134025 0.157066
0.493197 0.127978 0.147699
0.661513 0.121730 0.138146
0.804791 0.116275 0.129494
0.907718 0.112118 0.122333
0.973020 0.109203 0.116680
0.067788 0.241377 0.160522
0.116233 0.238338 0.154718
0.208702 0.233911 0.147583
0.342078 0.228236 0.139329
0.506171 0.221674 0.130383
0.672772 0.215149 0.121724
0.812076 0.209634 0.114375
0.910950 0.205579 0.108831
0.973325 0.202904 0.105055
0.064150 0.372475 0.142198
0.119251 0.368898 0.136795
0.214742 0.364228 0.130528
0.350260 0.358534 0.123496
0.514007 0.352239 0.116153
0.677602 0.346286 0.109470
0.812966 0.341608 0.104409
0.908784 0.338555 0.101306
0.969698 0.336651 0.099402
0.059619 0.528657 0.126488
0.119561 0.525611 0.122621
0.215943 0.521820 0.118300
0.350779 0.517285 0.113549
0.512235 0.512235 0.108495
0.673680 0.507189 0.103450
0.808021 0.502991 0.099252
0.903743 0.500003 0.096257
0.964656 0.498433 0.093901
0.054771 0.687818 0.117588
0.115685 0.685914 0.115685
0.211403 0.682923 0.112693
0.345744 0.678725 0.108495
0.507367 0.673730 0.103361
0.670177 0.669122 0.097563
0.806160 0.665791 0.091962
0.902688 0.664067 0.087058
0.959672 0.663888 0.082962
0.050573 0.822159 0.113390
0.111746 0.820384 0.111219
0.209025 0.817844 0.107228
0.347009 0.814352 0.101364
0.513479 0.810239 0.094117
0.678767 0.806381 0.086520
0.813749 0.803638 0.079588
0.907336 0.802307 0.073770
0.955643 0.802458 0.069283
0.049768 0.919060 0.106894
0.114370 0.917845 0.102689
0.217041 0.915576 0.096948
0.361114 0.912114 0.089671
0.531281 0.907902 0.081435
0.695566 0.903907 0.073332
0.825964 0.900971 0.066325
0.914293 0.899317 0.060750
0.952923 0.899155 0.056917
0.053858 0.978917 0.096389
0.123262 0.976842 0.091306
0.232181 0.973533 0.084972
0.381686 0.968954 0.077434
0.553142 0.963683 0.069354
0.713614 0.958750 0.061831
0.837755 0.954942 0.055722
0.920475 0.952418 0.051249
0.951497 0.951497 0.048791
0.068520 0.076527 0.302660
0.107236 0.075188 0.299709
0.192653 0.072295 0.294034
0.318428 0.068061 0.286042
0.478144 0.062702 0.276144
0.646550 0.057019 0.265337
0.792500 0.052002 0.254800
0.898934 0.048197 0.245262
0.967171 0.045577 0.236872
0.066850 0.140869 0.290105
0.109697 0.138792 0.283614
0.198738 0.135184 0.275119
0.328775 0.130235 0.264985
0.491488 0.124232 0.253665
0.659765 0.118049 0.242190
0.802733 0.112675 0.231699
0.905298 0.108608 0.222827
0.970328 0.105783 0.215639
0.064454 0.237464 0.267781
0.113644 0.234455 0.260012
0.206538 0.230083 0.250961
0.340283 0.224478 0.240887
0.504495 0.218004 0.230274
0.670891 0.211586 0.220154
0.809817 0.206190 0.211596
0.908350 0.202258 0.205142
0.970502 0.199706 0.200799
0.061016 0.368632 0.243178
0.116782 0.365141 0.236156
0.212528 0.360583 0.228497
0.348163 0.355016 0.220343
0.511778 0.348866 0.212203
0.675043 0.343073 0.205096
0.810064 0.338561 0.200033
0.905793 0.335564 0.197024
0.966706 0.333660 0.195121
0.056616 0.525176 0.223034
0.116878 0.522276 0.218483
0.213200 0.518653 0.213876
0.347798 0.514288 0.209259
0.509243 0.509243 0.204213
0.670689 0.504198 0.199168
0.805030 0.500000 0.194970
0.900823 0.497063 0.191865
0.961680 0.495686 0.188928
0.051780 0.684827 0.213306
0.112693 0.682923 0.211403
0.208412 0.679932 0.208412
0.342753 0.675734 0.204213
0.504728 0.670842 0.198785
0.667968 0.666392 0.192281
0.804083 0.663215 0.185716
0.900507 0.661639 0.179638
0.956802 0.661611 0.174216
0.047589 0.819174 0.209092
0.109014 0.817523 0.206428
0.206765 0.815102 0.201628
0.345364 0.811716 0.194702
0.512322 0.807703 0.186195
0.677700 0.803946 0.177198
0.812396 0.801304 0.168773
0.905570 0.800063 0.161404
0.952936 0.800307 0.155368
0.047297 0.916375 0.199829
0.112377 0.915233 0.194304
0.215711 0.913025 0.187102
0.360439 0.909615 0.178275
0.530905 0.905459 0.168456
0.694962 0.901526 0.158788
0.824817 0.898649 0.150268
0.912609 0.897044 0.143264
0.950375 0.896926 0.138139
0.051811 0.976142 0.184477
0.121767 0.974100 0.177799
0.231334 0.970821 0.169882
0.381320 0.966275 0.160826
0.552788 0.961050 0.151341
0.712805 0.956171 0.142567
0.836334 0.952418 0.135390
0.918566 0.949937 0.130061
0.949052 0.949052 0.127003
0.063786 0.071745 0.454206
0.102780 0.070377 0.450360
0.188541 0.067467 0.443608
0.314761 0.063225 0.434382
0.474859 0.057870 0.423122
0.643379 0.052211 0.410860
0.789152 0.047236 0.398804
0.895287 0.043486 0.387714
0.963261 0.040925 0.377769
0.062238 0.135954 0.438000
0.105690 0.133863 0.430101
0.195170 0.130261 0.420112
0.325673 0.125331 0.408421
0.488664 0.119364 0.395524
0.656873 0.113238 0.382499
0.799509 0.107938 0.370527
0.901701 0.103953 0.360284
0.966453 0.101212 0.351881
0.060006 0.232432 0.410695
0.109933 0.229447 0.401336
0.203229 0.225124 0.390737
0.337316 0.219583 0.379194
0.501616 0.213193 0.367247
0.667783 0.206877 0.355983
0.806326 0.201595 0.346523
0.904518 0.197783 0.339457
0.966451 0.195349 0.334849
0.056730 0.363653 0.381029
0.113130 0.360245 0.372714
0.209098 0.355797 0.363977
0.344811 0.350356 0.355005
0.508260 0.344350 0.346368
0.671181 0.338713 0.339140
0.805877 0.334357 0.334357
0.901595 0.331365 0.331365
0.962508 0.329462 0.329462
0.052428 0.520554 0.357501
0.112952 0.517799 0.352568
0.209172 0.514343 0.347982
0.343600 0.510090 0.343600
0.505045 0.505045 0.338555
0.666490 0.500000 0.333510
0.800832 0.495802 0.329311
0.896786 0.492982 0.325861
0.957507 0.491798 0.322157
0.047582 0.680628 0.347648
0.108495 0.678725 0.345744
0.204213 0.675734 0.342753
0.338571 0.671541 0.338539
0.501064 0.666803 0.332519
0.664702 0.662510 0.325141
0.800902 0.659487 0.317488
0.897184 0.658057 0.310145
0.952747 0.658177 0.303331
0.043448 0.815023 0.343255
0.105162 0.813504 0.339885
0.203415 0.811199 0.334122
0.342644 0.807916 0.326021
0.510078 0.804001 0.316173
0.675512 0.800344 0.305717
0.809889 0.797799 0.295751
0.902629 0.796646 0.286795
0.949049 0.796978 0.279176
0.043674 0.912519 0.330715
0.109248 0.911449 0.323797
0.213253 0.909299 0.315079
0.358628 0.905941 0.304658
0.529369 0.901839 0.293221
0.693172 0.897965 0.281956
0.822469 0.895147 0.271898
0.909724 0.893586 0.263449
0.946650 0.893508 0.257029
0.048599 0.972185 0.310332
0.119108 0.970179 0.302023
0.229309 0.966932 0.292494
0.379749 0.962420 0.281897
0.551201 0.957241 0.270996
0.710747 0.952418 0.260977
0.833670 0.948718 0.252763
0.915427 0.946278 0.246643
0.945425 0.945425 0.243095
0.058645 0.066538 0.618774
0.097945 0.065131 0.614426
0.184042 0.062186 0.607241
0.310689 0.057911 0.597628
0.471129 0.052532 0.586013
0.639708 0.046865 0.573417
0.785247 0.041898 0.561038
0.891031 0.038166 0.549624
0.958699 0.035629 0.539353
0.057149 0.130547 0.601154
0.101196 0.128413 0.592899
0.191080 0.124785 0.582566
0.322004 0.119839 0.570530
0.485220 0.113875 0.557291
0.653305 0.107771 0.543937
0.795565 0.102513 0.531660
0.897348 0.098579 0.521153
0.961796 0.095893 0.512550
0.054961 0.226799 0.572731
0.105587 0.223805 0.563015
0.199238 0.219499 0.552076
0.333611 0.213992 0.540219
0.497943 0.207657 0.528013
0.663840 0.201419 0.516581
0.801975 0.196231 0.507070
0.899817 0.192519 0.500103
0.961527 0.190192 0.495781
0.051721 0.357970 0.541999
0.108700 0.354621 0.533434
0.204837 0.350261 0.524550
0.340573 0.344929 0.515564
0.503811 0.339052 0.507086
0.666366 0.333564 0.500225
0.800832 0.329311 0.495802
0.896550 0.326320 0.492811
0.957463 0.324417 0.490907
0.047421 0.515160 0.518119
0.108141 0.512541 0.513402
0.204208 0.509247 0.509257
0.338555 0.505045 0.505045
0.500000 0.500000 0.500000
0.661445 0.494955 0.494955
0.795795 0.490761 0.490745
0.891987 0.488116 0.486740
0.952490 0.487117 0.482383
0.042537 0.675583 0.509093
0.103450 0.673680 0.507189
0.199168 0.670689 0.504198
0.333688 0.666549 0.499802
0.496725 0.661970 0.493152
0.660718 0.657822 0.485079
0.796942 0.654936 0.476682
0.893028 0.653630 0.468546
0.947803 0.653875 0.460911
0.038515 0.810071 0.504305
0.100541 0.808676 0.500287
0.199311 0.806474 0.493803
0.339167 0.803277 0.484918
0.507045 0.799438 0.474240
0.672482 0.795857 0.462923
0.806486 0.793385 0.452075
0.898753 0.792293 0.442218
0.944203 0.792687 0.433715
0.039216 0.907811 0.489356
0.105278 0.906791 0.481590
0.209941 0.904676 0.471977
0.355931 0.901346 0.460634
0.526899 0.897273 0.448272
0.690398 0.893435 0.436106
0.819104 0.890651 0.425190
0.905802 0.889111 0.415947
0.941896 0.889050 0.408839
0.044468 0.967296 0.466030
0.115504 0.965303 0.456788
0.226303 0.962066 0.446339
0.377147 0.957570 0.434871
0.548533 0.952418 0.423191
0.707578 0.947632 0.412517
0.829887 0.943967 0.403804
0.911171 0.941553 0.397374
0.940717 0.940717 0.393749
0.054012 0.061822 0.767134
0.093634 0.060357 0.762923
0.180054 0.057351 0.756158
0.307100 0.053013 0.747193
0.467838 0.047576 0.736410
0.636416 0.041864 0.724786
0.781658 0.036864 0.713472
0.887034 0.033107 0.703171
0.954347 0.030551 0.694024
0.052475 0.125541 0.751045
0.097098 0.123328 0.743666
0.187345 0.119637 0.734330
0.318638 0.114636 0.723359
0.482017 0.108631 0.711224
0.649917 0.102511 0.698984
0.791748 0.097253 0.687804
0.893083 0.093332 0.678349
0.957196 0.090667 0.670739
0.050189 0.221438 0.726012
0.101468 0.218395 0.717388
0.195417 0.214068 0.707541
0.330012 0.208558 0.696745
0.494315 0.202245 0.685559
0.659896 0.196054 0.675095
0.797598 0.190933 0.666489
0.895080 0.187305 0.660351
0.956568 0.185073 0.656774
0.046837 0.352434 0.698947
0.104331 0.349112 0.691364
0.200578 0.344815 0.683410
0.336277 0.339571 0.675290
0.499259 0.333813 0.667608
0.661434 0.328469 0.661463
0.795787 0.324266 0.657247
0.891505 0.321275 0.654256
0.952418 0.319372 0.652352
0.042430 0.509833 0.678164
0.103277 0.507342 0.674201
0.199168 0.504198 0.670689
0.333510 0.500000 0.666490
0.494955 0.494955 0.661445
0.656400 0.489910 0.656400
0.790864 0.485770 0.652040
0.887262 0.483303 0.647644
0.947455 0.482469 0.643099
0.037492 0.670538 0.670538
0.098405 0.668635 0.668635
0.194123 0.665643 0.665643
0.328972 0.661611 0.660927
0.492538 0.657174 0.653948
0.656832 0.653148 0.645730
0.793010 0.650370 0.637345
0.888832 0.649155 0.629346
0.942750 0.649484 0.621952
0.033633 0.805161 0.665301
0.095979 0.803870 0.661029
0.195269 0.801745 0.654451
0.335733 0.798602 0.645605
0.504007 0.794805 0.635078
0.669377 0.791261 0.624004
0.802941 0.788821 0.613461
0.894678 0.787746 0.603946
0.939120 0.788157 0.595814
0.034722 0.903050 0.650129
0.101251 0.902043 0.642544
0.206539 0.899925 0.633174
0.353094 0.896580 0.622120
0.524221 0.892495 0.610084
0.687353 0.888651 0.598274
0.815418 0.885860 0.587727
0.901526 0.884302 0.578854
0.936785 0.884221 0.572133
0.040163 0.962220 0.627692
0.111682 0.960201 0.618772
0.223021 0.956936 0.608652
0.374201 0.952418 0.597523
0.545455 0.947259 0.586201
0.703956 0.942478 0.575908
0.825633 0.938821 0.567599
0.906440 0.936408 0.561600
0.935570 0.935570 0.558448
0.050485 0.058196 0.880101
0.090451 0.056660 0.876482
0.177188 0.053580 0.870658
0.304619 0.049163 0.862925
0.465626 0.043651 0.853614
0.634163 0.037873 0.843653
0.779066 0.032821 0.834141
0.884000 0.029019 0.825720
0.950931 0.026421 0.818472
0.048852 0.121573 0.867331
0.094048 0.119265 0.861488
0.184635 0.115491 0.853857
0.316265 0.110415 0.844700
0.479765 0.104352 0.834440
0.647439 0.098193 0.824091
0.788811 0.092916 0.814763
0.889680 0.088989 0.807068
0.953445 0.086330 0.801074
0.046393 0.217054 0.848084
0.098297 0.213943 0.841326
0.192505 0.209575 0.833344
0.327278 0.204045 0.824351
0.491509 0.197738 0.814867
0.656745 0.191581 0.805956
0.794006 0.186520 0.798705
0.891135 0.182970 0.793676
0.952413 0.180837 0.790911
0.042847 0.347817 0.827231
0.100808 0.344511 0.821279
0.197123 0.340266 0.814797
0.332739 0.335107 0.807937
0.495435 0.329468 0.801260
0.657247 0.324266 0.795787
0.791588 0.320068 0.791588
0.887307 0.317077 0.788597
0.948220 0.315173 0.786694
0.038280 0.505399 0.811226
0.099197 0.503042 0.808149
0.194970 0.500000 0.805030
0.329311 0.495802 0.800832
0.490757 0.490757 0.795787
0.652202 0.485712 0.790741
0.786906 0.481685 0.786169
0.883445 0.479378 0.781745
0.943241 0.478689 0.777526
0.033294 0.666340 0.804879
0.094207 0.664436 0.802976
0.189940 0.661452 0.799969
0.325259 0.657566 0.794998
0.489334 0.653251 0.788108
0.653874 0.649324 0.780309
0.789937 0.646627 0.772625
0.885436 0.645471 0.765559
0.938437 0.645852 0.759294
0.029637 0.801127 0.799381
0.092311 0.799921 0.795327
0.192121 0.797848 0.789264
0.333175 0.794731 0.781185
0.501800 0.790944 0.771641
0.667043 0.787404 0.761725
0.800106 0.784961 0.752468
0.891267 0.783867 0.744313
0.934672 0.784258 0.737590
0.031033 0.899076 0.786090
0.098010 0.898052 0.779548
0.203895 0.895897 0.771362
0.350969 0.892504 0.761592
0.522196 0.888372 0.750913
0.684903 0.884488 0.740495
0.812288 0.881654 0.731332
0.897779 0.880044 0.723792
0.932208 0.879911 0.718331
0.036544 0.957820 0.767713
0.108505 0.955743 0.760150
0.220333 0.952418 0.751391
0.371784 0.947848 0.741601
0.542849 0.942654 0.731572
0.700772 0.937852 0.722496
0.821806 0.934180 0.715289
0.902140 0.931751 0.710247
0.930900 0.930900 0.707882
0.048130 0.055727 0.955575
0.088472 0.054118 0.952654
0.175533 0.050964 0.947820
0.303353 0.046471 0.941324
0.464619 0.040887 0.933460
0.633096 0.035049 0.925119
0.777646 0.029948 0.917352
0.882132 0.026105 0.910749
0.948680 0.023470 0.905340
0.046396 0.118762 0.946280
0.092181 0.116362 0.941938
0.183108 0.112511 0.935962
0.315066 0.107366 0.928560
0.478673 0.101249 0.920115
0.646107 0.095059 0.911595
0.787017 0.089768 0.904053
0.887425 0.085841 0.898042
0.950853 0.083193 0.893573
0.043768 0.213844 0.932653
0.096294 0.210673 0.927701
0.190749 0.206272 0.921520
0.325679 0.200729 0.914263
0.489818 0.194436 0.906400
0.654702 0.188323 0.898942
0.791533 0.183329 0.892914
0.888330 0.179869 0.888813
0.949427 0.177841 0.886610
0.040036 0.344405 0.917791
0.098435 0.341124 0.913386
0.194793 0.336943 0.908266
0.330298 0.331881 0.902518
0.492688 0.326375 0.896647
0.654256 0.321275 0.891505
0.788597 0.317077 0.887307
0.884315 0.314086 0.884315
0.945229 0.312182 0.882412
0.035321 0.502210 0.906153
0.096258 0.500003 0.903744
0.191979 0.497009 0.900748
0.326320 0.492811 0.896550
0.487765 0.487765 0.891505
0.649225 0.482725 0.886452
0.784272 0.478859 0.881751
0.880892 0.476699 0.877561
0.940213 0.476140 0.873928
0.030302 0.663349 0.900598
0.091216 0.661445 0.898694
0.187078 0.658515 0.895601
0.322898 0.654768 0.890617
0.487466 0.650560 0.884076
0.652207 0.646719 0.876951
0.788102 0.644089 0.870228
0.883236 0.642978 0.864356
0.935284 0.643396 0.859489
0.026884 0.798328 0.895107
0.089897 0.797191 0.891528
0.190237 0.795157 0.886235
0.331878 0.792051 0.879182
0.500827 0.788262 0.870884
0.665899 0.784713 0.862398
0.798425 0.782253 0.854709
0.888988 0.781127 0.848204
0.931355 0.781483 0.843180
0.028542 0.896284 0.884564
0.095966 0.895231 0.879332
0.202439 0.893027 0.872603
0.350007 0.889575 0.864403
0.521296 0.885384 0.855372
0.683546 0.881447 0.846636
0.810236 0.878560 0.839137
0.895109 0.876887 0.833186
0.928735 0.876691 0.829203
0.034074 0.954562 0.871178
0.106461 0.952418 0.865263
0.218745 0.949025 0.858153
0.370426 0.944396 0.849977
0.541265 0.939159 0.841485
0.698596 0.934331 0.833825
0.818998 0.930640 0.827854
0.898878 0.928193 0.823814
0.927328 0.927328 0.822173
0.047356 0.054825 0.980468
0.088075 0.053114 0.979209
0.175436 0.049853 0.976496
0.303605 0.045246 0.972511
0.465077 0.039549 0.967486
0.633429 0.033607 0.962247
0.777560 0.028413 0.957765
0.881541 0.024483 0.954537
0.947659 0.021766 0.952492
0.045400 0.117401 0.978512
0.091743 0.114868 0.977099
0.182960 0.110897 0.974285
0.315187 0.105638 0.970189
0.478833 0.099424 0.965110
0.645965 0.093159 0.959921
0.786365 0.087815 0.955565
0.886279 0.083852 0.952469
0.949348 0.081186 0.950521
0.042446 0.211940 0.975558
0.095536 0.208666 0.973951
0.190177 0.204193 0.971042
0.325198 0.198601 0.966867
0.489185 0.192292 0.961781
0.653681 0.186200 0.956671
0.790073 0.181260 0.952431
0.886548 0.177888 0.949427
0.947523 0.175937 0.947523
0.038376 0.342174 0.971488
0.097146 0.338892 0.969698
0.193494 0.334758 0.966723
0.328840 0.329787 0.962518
0.490898 0.324421 0.957463
0.652352 0.319372 0.952418
0.786694 0.315173 0.948220
0.882412 0.312182 0.945229
0.943325 0.310282 0.943322
0.033439 0.500156 0.966551
0.094357 0.498096 0.964652
0.190075 0.495105 0.961661
0.324417 0.490907 0.957463
0.485862 0.485862 0.952418
0.647477 0.480875 0.947313
0.782834 0.477170 0.942636
0.879483 0.475147 0.938760
0.938267 0.474713 0.935706
0.028399 0.661445 0.961511
0.089312 0.659542 0.959607
0.185426 0.656716 0.956438
0.321764 0.653097 0.951577
0.486813 0.648987 0.945430
0.651720 0.645227 0.938944
0.787408 0.642661 0.933076
0.882151 0.641595 0.928238
0.933228 0.642050 0.924565
0.025255 0.796643 0.956205
0.088627 0.795570 0.953114
0.189515 0.793570 0.948527
0.331748 0.790475 0.942371
0.501004 0.786683 0.935140
0.665881 0.783129 0.927868
0.797853 0.780656 0.921500
0.887815 0.779501 0.916379
0.929164 0.779825 0.912777
0.027166 0.894591 0.948172
0.095050 0.893512 0.944054
0.202115 0.891263 0.938554
0.350166 0.887756 0.931669
0.521496 0.883513 0.924015
0.683277 0.879529 0.916684
0.809276 0.876594 0.910566
0.893547 0.874863 0.905924
0.926417 0.874609 0.903142
0.032723 0.952418 0.939001
0.105532 0.950216 0.934460
0.218259 0.946765 0.928719
0.370143 0.942086 0.921875
0.540735 0.936816 0.914644
0.697478 0.931970 0.908125
0.817272 0.928267 0.903123
0.896730 0.925810 0.899826
0.924938 0.924938 0.898657
