assets/luts/cinematic.cube
# Teal-orange cinematic grade.
# Generated procedurally by videokit gen-luts.py
TITLE "cinematic"
LUT_3D_SIZE 5
DOMAIN_MIN 0.0 0.0 0.0
DOMAIN_MAX 1.0 1.0 1.0
0.074665 0.082711 0.105986
0.197739 0.078596 0.100813
0.481571 0.069012 0.088486
0.795904 0.058173 0.073887
0.971609 0.051509 0.063072
0.069993 0.244155 0.089378
0.209755 0.236633 0.079723
0.506712 0.224267 0.065492
0.813199 0.212021 0.051806
0.975037 0.205056 0.043907
0.061538 0.531097 0.064533
0.217523 0.523962 0.057397
0.514138 0.514138 0.047582
0.809925 0.504895 0.038339
0.966551 0.500156 0.033439
0.052477 0.824063 0.052477
0.210306 0.819533 0.047532
0.513617 0.811672 0.038001
0.813943 0.804793 0.028535
0.957077 0.803338 0.023965
0.054704 0.980472 0.047359
0.231729 0.974939 0.041827
0.552057 0.964929 0.031817
0.837652 0.956004 0.022892
0.952418 0.952418 0.019306
0.068520 0.076527 0.302660
0.192653 0.072295 0.294034
0.478144 0.062702 0.276144
0.792500 0.052002 0.254800
0.967171 0.045577 0.236872
0.064454 0.237464 0.267781
0.206538 0.230083 0.250961
0.504495 0.218004 0.230274
0.809817 0.206190 0.211596
0.970502 0.199706 0.200799
0.056616 0.525176 0.223034
0.213200 0.518653 0.213876
0.509243 0.509243 0.204213
0.805030 0.500000 0.194970
0.961680 0.495686 0.188928
0.047589 0.819174 0.209092
0.206765 0.815102 0.201628
0.512322 0.807703 0.186195
0.812396 0.801304 0.168773
0.952936 0.800307 0.155368
0.051811 0.976142 0.184477
0.231334 0.970821 0.169882
0.552788 0.961050 0.151341
0.836334 0.952418 0.135390
0.949052 0.949052 0.127003
0.058645 0.066538 0.618774
0.184042 0.062186 0.607241
0.471129 0.052532 0.586013
0.785247 0.041898 0.561038
0.958699 0.035629 0.539353
0.054961 0.226799 0.572731
0.199238 0.219499 0.552076
0.497943 0.207657 0.528013
0.801975 0.196231 0.507070
0.961527 0.190192 0.495781
0.047421 0.515160 0.518119
0.204208 0.509247 0.509257
0.500000 0.500000 0.500000
0.795795 0.490761 0.490745
0.952490 0.487117 0.482383
0.038515 0.810071 0.504305
0.199311 0.806474 0.493803
0.507045 0.799438 0.474240
0.806486 0.793385 0.452075
0.944203 0.792687 0.433715
0.044468 0.967296 0.466030
0.226303 0.962066 0.446339
0.548533 0.952418 0.423191
0.829887 0.943967 0.403804
0.940717 0.940717 0.393749
0.050485 0.058196 0.880101
0.177188 0.053580 0.870658
0.465626 0.043651 0.853614
0.779066 0.032821 0.834141
0.950931 0.026421 0.818472
0.046393 0.217054 0.848084
0.192505 0.209575 0.833344
0.491509 0.197738 0.814867
0.794006 0.186520 0.798705
0.952413 0.180837 0.790911
0.038280 0.505399 0.811226
0.194970 0.500000 0.805030
0.490757 0.490757 0.795787
0.786906 0.481685 0.786169
0.943241 0.478689 0.777526
0.029637 0.801127 0.799381
0.192121 0.797848 0.789264
0.501800 0.790944 0.771641
0.800106 0.784961 0.752468
0.934672 0.784258 0.737590
0.036544 0.957820 0.767713
0.220333 0.952418 0.751391
0.542849 0.942654 0.731572
0.821806 0.934180 0.715289
0.930900 0.930900 0.707882
0.047356 0.054825 0.980468
0.175436 0.049853 0.976496
0.465077 0.039549 0.967486
0.777560 0.028413 0.957765
0.947659 0.021766 0.952492
0.042446 0.211940 0.975558
0.190177 0.204193 0.971042
0.489185 0.192292 0.961781
0.790073 0.181260 0.952431
0.947523 0.175937 0.947523
0.033439 0.500156 0.966551
0.190075 0.495105 0.961661
0.485862 0.485862 0.952418
0.782834 0.477170 0.942636
0.938267 0.474713 0.935706
0.025255 0.796643 0.956205
0.189515 0.793570 0.948527
0.501004 0.786683 0.935140
0.797853 0.780656 0.921500
0.929164 0.779825 0.912777
0.032723 0.952418 0.939001
0.218259 0.946765 0.928719
0.540735 0.936816 0.914644
0.817272 0.928267 0.903123
0.924938 0.924938 0.898657
