assets/luts/cool.cube
# Cool look: tech, winter, modern.
# Generated procedurally by videokit gen-luts.py
TITLE "cool"
LUT_3D_SIZE 17
DOMAIN_MIN 0.0 0.0 0.0
DOMAIN_MAX 1.0 1.0 1.0
0.000000 0.000000 0.040000
0.037500 0.000000 0.040000
0.095000 0.000000 0.040000
0.152500 0.000000 0.040000
0.210000 0.000000 0.040000
0.267500 0.000000 0.040000
0.325000 0.000000 0.040000
0.382500 0.000000 0.040000
0.440000 0.000000 0.040000
0.497500 0.000000 0.040000
0.555000 0.000000 0.040000
0.612500 0.000000 0.040000
0.670000 0.000000 0.040000
0.727500 0.000000 0.040000
0.785000 0.000000 0.040000
0.842500 0.000000 0.040000
0.900000 0.000000 0.040000
0.000000 0.062500 0.040000
0.037500 0.062500 0.040000
0.095000 0.062500 0.040000
0.152500 0.062500 0.040000
0.210000 0.062500 0.040000
0.267500 0.062500 0.040000
0.325000 0.062500 0.040000
0.382500 0.062500 0.040000
0.440000 0.062500 0.040000
0.497500 0.062500 0.040000
0.555000 0.062500 0.040000
0.612500 0.062500 0.040000
0.670000 0.062500 0.040000
0.727500 0.062500 0.040000
0.785000 0.062500 0.040000
0.842500 0.062500 0.040000
0.900000 0.062500 0.040000
0.000000 0.125000 0.040000
0.037500 0.125000 0.040000
0.095000 0.125000 0.040000
0.152500 0.125000 0.040000
0.210000 0.125000 0.040000
0.267500 0.125000 0.040000
0.325000 0.125000 0.040000
0.382500 0.125000 0.040000
0.440000 0.125000 0.040000
0.497500 0.125000 0.040000
0.555000 0.125000 0.040000
0.612500 0.125000 0.040000
0.670000 0.125000 0.040000
0.727500 0.125000 0.040000
0.785000 0.125000 0.040000
0.842500 0.125000 0.040000
0.900000 0.125000 0.040000
0.000000 0.187500 0.040000
0.037500 0.187500 0.040000
0.095000 0.187500 0.040000
0.152500 0.187500 0.040000
0.210000 0.187500 0.040000
0.267500 0.187500 0.040000
0.325000 0.187500 0.040000
0.382500 0.187500 0.040000
0.440000 0.187500 0.040000
0.497500 0.187500 0.040000
0.555000 0.187500 0.040000
0.612500 0.187500 0.040000
0.670000 0.187500 0.040000
0.727500 0.187500 0.040000
0.785000 0.187500 0.040000
0.842500 0.187500 0.040000
0.900000 0.187500 0.040000
0.000000 0.250000 0.040000
0.037500 0.250000 0.040000
0.095000 0.250000 0.040000
0.152500 0.250000 0.040000
0.210000 0.250000 0.040000
0.267500 0.250000 0.040000
0.325000 0.250000 0.040000
0.382500 0.250000 0.040000
0.440000 0.250000 0.040000
0.497500 0.250000 0.040000
0.555000 0.250000 0.040000
0.612500 0.250000 0.040000
0.670000 0.250000 0.040000
0.727500 0.250000 0.040000
0.785000 0.250000 0.040000
0.842500 0.250000 0.040000
0.900000 0.250000 0.040000
0.000000 0.312500 0.040000
0.037500 0.312500 0.040000
0.095000 0.312500 0.040000
0.152500 0.312500 0.040000
0.210000 0.312500 0.040000
0.267500 0.312500 0.040000
0.325000 0.312500 0.040000
0.382500 0.312500 0.040000
0.440000 0.312500 0.040000
0.497500 0.312500 0.040000
0.555000 0.312500 0.040000
0.612500 0.312500 0.040000
0.670000 0.312500 0.040000
0.727500 0.312500 0.040000
0.785000 0.312500 0.040000
0.842500 0.312500 0.040000
0.900000 0.312500 0.040000
0.000000 0.375000 0.040000
0.037500 0.375000 0.040000
0.095000 0.375000 0.040000
0.152500 0.375000 0.040000
0.210000 0.375000 0.040000
0.267500 0.375000 0.040000
0.325000 0.375000 0.040000
0.382500 0.375000 0.040000
0.440000 0.375000 0.040000
0.497500 0.375000 0.040000
0.555000 0.375000 0.040000
0.612500 0.375000 0.040000
0.670000 0.375000 0.040000
0.727500 0.375000 0.040000
0.785000 0.375000 0.040000
0.842500 0.375000 0.040000
0.900000 0.375000 0.040000
0.000000 0.437500 0.040000
0.037500 0.437500 0.040000
0.095000 0.437500 0.040000
0.152500 0.437500 0.040000
0.210000 0.437500 0.040000
0.267500 0.437500 0.040000
0.325000 0.437500 0.040000
0.382500 0.437500 0.040000
0.440000 0.437500 0.040000
0.497500 0.437500 0.040000
0.555000 0.437500 0.040000
0.612500 0.437500 0.040000
0.670000 0.437500 0.040000
0.727500 0.437500 0.040000
0.785000 0.437500 0.040000
0.842500 0.437500 0.040000
0.900000 0.437500 0.040000
0.000000 0.500000 0.040000
0.037500 0.500000 0.040000
0.095000 0.500000 0.040000
0.152500 0.500000 0.040000
0.210000 0.500000 0.040000
0.267500 0.500000 0.040000
0.325000 0.500000 0.040000
0.382500 0.500000 0.040000
0.440000 0.500000 0.040000
0.497500 0.500000 0.040000
0.555000 0.500000 0.040000
0.612500 0.500000 0.040000
0.670000 0.500000 0.040000
0.727500 0.500000 0.040000
0.785000 0.500000 0.040000
0.842500 0.500000 0.040000
0.900000 0.500000 0.040000
0.000000 0.562500 0.040000
0.037500 0.562500 0.040000
0.095000 0.562500 0.040000
0.152500 0.562500 0.040000
0.210000 0.562500 0.040000
0.267500 0.562500 0.040000
0.325000 0.562500 0.040000
0.382500 0.562500 0.040000
0.440000 0.562500 0.040000
0.497500 0.562500 0.040000
0.555000 0.562500 0.040000
0.612500 0.562500 0.040000
0.670000 0.562500 0.040000
0.727500 0.562500 0.040000
0.785000 0.562500 0.040000
0.842500 0.562500 0.040000
0.900000 0.562500 0.040000
0.000000 0.625000 0.040000
0.037500 0.625000 0.040000
0.095000 0.625000 0.040000
0.152500 0.625000 0.040000
0.210000 0.625000 0.040000
0.267500 0.625000 0.040000
0.325000 0.625000 0.040000
0.382500 0.625000 0.040000
0.440000 0.625000 0.040000
0.497500 0.625000 0.040000
0.555000 0.625000 0.040000
0.612500 0.625000 0.040000
0.670000 0.625000 0.040000
0.727500 0.625000 0.040000
0.785000 0.625000 0.040000
0.842500 0.625000 0.040000
0.900000 0.625000 0.040000
0.000000 0.687500 0.040000
0.037500 0.687500 0.040000
0.095000 0.687500 0.040000
0.152500 0.687500 0.040000
0.210000 0.687500 0.040000
0.267500 0.687500 0.040000
0.325000 0.687500 0.040000
0.382500 0.687500 0.040000
0.440000 0.687500 0.040000
0.497500 0.687500 0.040000
0.555000 0.687500 0.040000
0.612500 0.687500 0.040000
0.670000 0.687500 0.040000
0.727500 0.687500 0.040000
0.785000 0.687500 0.040000
0.842500 0.687500 0.040000
0.900000 0.687500 0.040000
0.000000 0.750000 0.040000
0.037500 0.750000 0.040000
0.095000 0.750000 0.040000
0.152500 0.750000 0.040000
0.210000 0.750000 0.040000
0.267500 0.750000 0.040000
0.325000 0.750000 0.040000
0.382500 0.750000 0.040000
0.440000 0.750000 0.040000
0.497500 0.750000 0.040000
0.555000 0.750000 0.040000
0.612500 0.750000 0.040000
0.670000 0.750000 0.040000
0.727500 0.750000 0.040000
0.785000 0.750000 0.040000
0.842500 0.750000 0.040000
0.900000 0.750000 0.040000
0.000000 0.812500 0.040000
0.037500 0.812500 0.040000
0.095000 0.812500 0.040000
0.152500 0.812500 0.040000
0.210000 0.812500 0.040000
0.267500 0.812500 0.040000
0.325000 0.812500 0.040000
0.382500 0.812500 0.040000
0.440000 0.812500 0.040000
0.497500 0.812500 0.040000
0.555000 0.812500 0.040000
0.612500 0.812500 0.040000
0.670000 0.812500 0.040000
0.727500 0.812500 0.040000
0.785000 0.812500 0.040000
0.842500 0.812500 0.040000
0.900000 0.812500 0.040000
0.000000 0.875000 0.040000
0.037500 0.875000 0.040000
0.095000 0.875000 0.040000
0.152500 0.875000 0.040000
0.210000 0.875000 0.040000
0.267500 0.875000 0.040000
0.325000 0.875000 0.040000
0.382500 0.875000 0.040000
0.440000 0.875000 0.040000
0.497500 0.875000 0.040000
0.555000 0.875000 0.040000
0.612500 0.875000 0.040000
0.670000 0.875000 0.040000
0.727500 0.875000 0.040000
0.785000 0.875000 0.040000
0.842500 0.875000 0.040000
0.900000 0.875000 0.040000
0.000000 0.937500 0.040000
0.037500 0.937500 0.040000
0.095000 0.937500 0.040000
0.152500 0.937500 0.040000
0.210000 0.937500 0.040000
0.267500 0.937500 0.040000
0.325000 0.937500 0.040000
0.382500 0.937500 0.040000
0.440000 0.937500 0.040000
0.497500 0.937500 0.040000
0.555000 0.937500 0.040000
0.612500 0.937500 0.040000
0.670000 0.937500 0.040000
0.727500 0.937500 0.040000
0.785000 0.937500 0.040000
0.842500 0.937500 0.040000
0.900000 0.937500 0.040000
0.000000 1.000000 0.040000
0.037500 1.000000 0.040000
0.095000 1.000000 0.040000
0.152500 1.000000 0.040000
0.210000 1.000000 0.040000
0.267500 1.000000 0.040000
0.325000 1.000000 0.040000
0.382500 1.000000 0.040000
0.440000 1.000000 0.040000
0.497500 1.000000 0.040000
0.555000 1.000000 0.040000
0.612500 1.000000 0.040000
0.670000 1.000000 0.040000
0.727500 1.000000 0.040000
0.785000 1.000000 0.040000
0.842500 1.000000 0.040000
0.900000 1.000000 0.040000
0.000000 0.000000 0.108750
0.037500 0.000000 0.108750
0.095000 0.000000 0.108750
0.152500 0.000000 0.108750
0.210000 0.000000 0.108750
0.267500 0.000000 0.108750
0.325000 0.000000 0.108750
0.382500 0.000000 0.108750
0.440000 0.000000 0.108750
0.497500 0.000000 0.108750
0.555000 0.000000 0.108750
0.612500 0.000000 0.108750
0.670000 0.000000 0.108750
0.727500 0.000000 0.108750
0.785000 0.000000 0.108750
0.842500 0.000000 0.108750
0.900000 0.000000 0.108750
0.000000 0.062500 0.108750
0.037500 0.062500 0.108750
0.095000 0.062500 0.108750
0.152500 0.062500 0.108750
0.210000 0.062500 0.108750
0.267500 0.062500 0.108750
0.325000 0.062500 0.108750
0.382500 0.062500 0.108750
0.440000 0.062500 0.108750
0.497500 0.062500 0.108750
0.555000 0.062500 0.108750
0.612500 0.062500 0.108750
0.670000 0.062500 0.108750
0.727500 0.062500 0.108750
0.785000 0.062500 0.108750
0.842500 0.062500 0.108750
0.900000 0.062500 0.108750
0.000000 0.125000 0.108750
0.037500 0.125000 0.108750
0.095000 0.125000 0.108750
0.152500 0.125000 0.108750
0.210000 0.125000 0.108750
0.267500 0.125000 0.108750
0.325000 0.125000 0.108750
0.382500 0.125000 0.108750
0.440000 0.125000 0.108750
0.497500 0.125000 0.108750
0.555000 0.125000 0.108750
0.612500 0.125000 0.108750
0.670000 0.125000 0.108750
0.727500 0.125000 0.108750
0.785000 0.125000 0.108750
0.842500 0.125000 0.108750
0.900000 0.125000 0.108750
0.000000 0.187500 0.108750
0.037500 0.187500 0.108750
0.095000 0.187500 0.108750
0.152500 0.187500 0.108750
0.210000 0.187500 0.108750
0.267500 0.187500 0.108750
0.325000 0.187500 0.108750
0.382500 0.187500 0.108750
0.440000 0.187500 0.108750
0.497500 0.187500 0.108750
0.555000 0.187500 0.108750
0.612500 0.187500 0.108750
0.670000 0.187500 0.108750
0.727500 0.187500 0.108750
0.785000 0.187500 0.108750
0.842500 0.187500 0.108750
0.900000 0.187500 0.108750
0.000000 0.250000 0.108750
0.037500 0.250000 0.108750
0.095000 0.250000 0.108750
0.152500 0.250000 0.108750
0.210000 0.250000 0.108750
0.267500 0.250000 0.108750
0.325000 0.250000 0.108750
0.382500 0.250000 0.108750
0.440000 0.250000 0.108750
0.497500 0.250000 0.108750
0.555000 0.250000 0.108750
0.612500 0.250000 0.108750
0.670000 0.250000 0.108750
0.727500 0.250000 0.108750
0.785000 0.250000 0.108750
0.842500 0.250000 0.108750
0.900000 0.250000 0.108750
0.000000 0.312500 0.108750
0.037500 0.312500 0.108750
0.095000 0.312500 0.108750
0.152500 0.312500 0.108750
0.210000 0.312500 0.108750
0.267500 0.312500 0.108750
0.325000 0.312500 0.108750
0.382500 0.312500 0.108750
0.440000 0.312500 0.108750
0.497500 0.312500 0.108750
0.555000 0.312500 0.108750
0.612500 0.312500 0.108750
0.670000 0.312500 0.108750
0.727500 0.312500 0.108750
0.785000 0.312500 0.108750
0.842500 0.312500 0.108750
0.900000 0.312500 0.108750
0.000000 0.375000 0.108750
0.037500 0.375000 0.108750
0.095000 0.375000 0.108750
0.152500 0.375000 0.108750
0.210000 0.375000 0.108750
0.267500 0.375000 0.108750
0.325000 0.375000 0.108750
0.382500 0.375000 0.108750
0.440000 0.375000 0.108750
0.497500 0.375000 0.108750
0.555000 0.375000 0.108750
0.612500 0.375000 0.108750
0.670000 0.375000 0.108750
0.727500 0.375000 0.108750
0.785000 0.375000 0.108750
0.842500 0.375000 0.108750
0.900000 0.375000 0.108750
0.000000 0.437500 0.108750
0.037500 0.437500 0.108750
0.095000 0.437500 0.108750
0.152500 0.437500 0.108750
0.210000 0.437500 0.108750
0.267500 0.437500 0.108750
0.325000 0.437500 0.108750
0.382500 0.437500 0.108750
0.440000 0.437500 0.108750
0.497500 0.437500 0.108750
0.555000 0.437500 0.108750
0.612500 0.437500 0.108750
0.670000 0.437500 0.108750
0.727500 0.437500 0.108750
0.785000 0.437500 0.108750
0.842500 0.437500 0.108750
0.900000 0.437500 0.108750
0.000000 0.500000 0.108750
0.037500 0.500000 0.108750
0.095000 0.500000 0.108750
0.152500 0.500000 0.108750
0.210000 0.500000 0.108750
0.267500 0.500000 0.108750
0.325000 0.500000 0.108750
0.382500 0.500000 0.108750
0.440000 0.500000 0.108750
0.497500 0.500000 0.108750
0.555000 0.500000 0.108750
0.612500 0.500000 0.108750
0.670000 0.500000 0.108750
0.727500 0.500000 0.108750
0.785000 0.500000 0.108750
0.842500 0.500000 0.108750
0.900000 0.500000 0.108750
0.000000 0.562500 0.108750
0.037500 0.562500 0.108750
0.095000 0.562500 0.108750
0.152500 0.562500 0.108750
0.210000 0.562500 0.108750
0.267500 0.562500 0.108750
0.325000 0.562500 0.108750
0.382500 0.562500 0.108750
0.440000 0.562500 0.108750
0.497500 0.562500 0.108750
0.555000 0.562500 0.108750
0.612500 0.562500 0.108750
0.670000 0.562500 0.108750
0.727500 0.562500 0.108750
0.785000 0.562500 0.108750
0.842500 0.562500 0.108750
0.900000 0.562500 0.108750
0.000000 0.625000 0.108750
0.037500 0.625000 0.108750
0.095000 0.625000 0.108750
0.152500 0.625000 0.108750
0.210000 0.625000 0.108750
0.267500 0.625000 0.108750
0.325000 0.625000 0.108750
0.382500 0.625000 0.108750
0.440000 0.625000 0.108750
0.497500 0.625000 0.108750
0.555000 0.625000 0.108750
0.612500 0.625000 0.108750
0.670000 0.625000 0.108750
0.727500 0.625000 0.108750
0.785000 0.625000 0.108750
0.842500 0.625000 0.108750
0.900000 0.625000 0.108750
0.000000 0.687500 0.108750
0.037500 0.687500 0.108750
0.095000 0.687500 0.108750
0.152500 0.687500 0.108750
0.210000 0.687500 0.108750
0.267500 0.687500 0.108750
0.325000 0.687500 0.108750
0.382500 0.687500 0.108750
0.440000 0.687500 0.108750
0.497500 0.687500 0.108750
0.555000 0.687500 0.108750
0.612500 0.687500 0.108750
0.670000 0.687500 0.108750
0.727500 0.687500 0.108750
0.785000 0.687500 0.108750
0.842500 0.687500 0.108750
0.900000 0.687500 0.108750
0.000000 0.750000 0.108750
0.037500 0.750000 0.108750
0.095000 0.750000 0.108750
0.152500 0.750000 0.108750
0.210000 0.750000 0.108750
0.267500 0.750000 0.108750
0.325000 0.750000 0.108750
0.382500 0.750000 0.108750
0.440000 0.750000 0.108750
0.497500 0.750000 0.108750
0.555000 0.750000 0.108750
0.612500 0.750000 0.108750
0.670000 0.750000 0.108750
0.727500 0.750000 0.108750
0.785000 0.750000 0.108750
0.842500 0.750000 0.108750
0.900000 0.750000 0.108750
0.000000 0.812500 0.108750
0.037500 0.812500 0.108750
0.095000 0.812500 0.108750
0.152500 0.812500 0.108750
0.210000 0.812500 0.108750
0.267500 0.812500 0.108750
0.325000 0.812500 0.108750
0.382500 0.812500 0.108750
0.440000 0.812500 0.108750
0.497500 0.812500 0.108750
0.555000 0.812500 0.108750
0.612500 0.812500 0.108750
0.670000 0.812500 0.108750
0.727500 0.812500 0.108750
0.785000 0.812500 0.108750
0.842500 0.812500 0.108750
0.900000 0.812500 0.108750
0.000000 0.875000 0.108750
0.037500 0.875000 0.108750
0.095000 0.875000 0.108750
0.152500 0.875000 0.108750
0.210000 0.875000 0.108750
0.267500 0.875000 0.108750
0.325000 0.875000 0.108750
0.382500 0.875000 0.108750
0.440000 0.875000 0.108750
0.497500 0.875000 0.108750
0.555000 0.875000 0.108750
0.612500 0.875000 0.108750
0.670000 0.875000 0.108750
0.727500 0.875000 0.108750
0.785000 0.875000 0.108750
0.842500 0.875000 0.108750
0.900000 0.875000 0.108750
0.000000 0.937500 0.108750
0.037500 0.937500 0.108750
0.095000 0.937500 0.108750
0.152500 0.937500 0.108750
0.210000 0.937500 0.108750
0.267500 0.937500 0.108750
0.325000 0.937500 0.108750
0.382500 0.937500 0.108750
0.440000 0.937500 0.108750
0.497500 0.937500 0.108750
0.555000 0.937500 0.108750
0.612500 0.937500 0.108750
0.670000 0.937500 0.108750
0.727500 0.937500 0.108750
0.785000 0.937500 0.108750
0.842500 0.937500 0.108750
0.900000 0.937500 0.108750
0.000000 1.000000 0.108750
0.037500 1.000000 0.108750
0.095000 1.000000 0.108750
0.152500 1.000000 0.108750
0.210000 1.000000 0.108750
0.267500 1.000000 0.108750
0.325000 1.000000 0.108750
0.382500 1.000000 0.108750
0.440000 1.000000 0.108750
0.497500 1.000000 0.108750
0.555000 1.000000 0.108750
0.612500 1.000000 0.108750
0.670000 1.000000 0.108750
0.727500 1.000000 0.108750
0.785000 1.000000 0.108750
0.842500 1.000000 0.108750
0.900000 1.000000 0.108750
0.000000 0.000000 0.177500
0.037500 0.000000 0.177500
0.095000 0.000000 0.177500
0.152500 0.000000 0.177500
0.210000 0.000000 0.177500
0.267500 0.000000 0.177500
0.325000 0.000000 0.177500
0.382500 0.000000 0.177500
0.440000 0.000000 0.177500
0.497500 0.000000 0.177500
0.555000 0.000000 0.177500
0.612500 0.000000 0.177500
0.670000 0.000000 0.177500
0.727500 0.000000 0.177500
0.785000 0.000000 0.177500
0.842500 0.000000 0.177500
0.900000 0.000000 0.177500
0.000000 0.062500 0.177500
0.037500 0.062500 0.177500
0.095000 0.062500 0.177500
0.152500 0.062500 0.177500
0.210000 0.062500 0.177500
0.267500 0.062500 0.177500
0.325000 0.062500 0.177500
0.382500 0.062500 0.177500
0.440000 0.062500 0.177500
0.497500 0.062500 0.177500
0.555000 0.062500 0.177500
0.612500 0.062500 0.177500
0.670000 0.062500 0.177500
0.727500 0.062500 0.177500
0.785000 0.062500 0.177500
0.842500 0.062500 0.177500
0.900000 0.062500 0.177500
0.000000 0.125000 0.177500
0.037500 0.125000 0.177500
0.095000 0.125000 0.177500
0.152500 0.125000 0.177500
0.210000 0.125000 0.177500
0.267500 0.125000 0.177500
0.325000 0.125000 0.177500
0.382500 0.125000 0.177500
0.440000 0.125000 0.177500
0.497500 0.125000 0.177500
0.555000 0.125000 0.177500
0.612500 0.125000 0.177500
0.670000 0.125000 0.177500
0.727500 0.125000 0.177500
0.785000 0.125000 0.177500
0.842500 0.125000 0.177500
0.900000 0.125000 0.177500
0.000000 0.187500 0.177500
0.037500 0.187500 0.177500
0.095000 0.187500 0.177500
0.152500 0.187500 0.177500
0.210000 0.187500 0.177500
0.267500 0.187500 0.177500
0.325000 0.187500 0.177500
0.382500 0.187500 0.177500
0.440000 0.187500 0.177500
0.497500 0.187500 0.177500
0.555000 0.187500 0.177500
0.612500 0.187500 0.177500
0.670000 0.187500 0.177500
0.727500 0.187500 0.177500
0.785000 0.187500 0.177500
0.842500 0.187500 0.177500
0.900000 0.187500 0.177500
0.000000 0.250000 0.177500
0.037500 0.250000 0.177500
0.095000 0.250000 0.177500
0.152500 0.250000 0.177500
0.210000 0.250000 0.177500
0.267500 0.250000 0.177500
0.325000 0.250000 0.177500
0.382500 0.250000 0.177500
0.440000 0.250000 0.177500
0.497500 0.250000 0.177500
0.555000 0.250000 0.177500
0.612500 0.250000 0.177500
0.670000 0.250000 0.177500
0.727500 0.250000 0.177500
0.785000 0.250000 0.177500
0.842500 0.250000 0.177500
0.900000 0.250000 0.177500
0.000000 0.312500 0.177500
0.037500 0.312500 0.177500
0.095000 0.312500 0.177500
0.152500 0.312500 0.177500
0.210000 0.312500 0.177500
0.267500 0.312500 0.177500
0.325000 0.312500 0.177500
0.382500 0.312500 0.177500
0.440000 0.312500 0.177500
0.497500 0.312500 0.177500
0.555000 0.312500 0.177500
0.612500 0.312500 0.177500
0.670000 0.312500 0.177500
0.727500 0.312500 0.177500
0.785000 0.312500 0.177500
0.842500 0.312500 0.177500
0.900000 0.312500 0.177500
0.000000 0.375000 0.177500
0.037500 0.375000 0.177500
0.095000 0.375000 0.177500
0.152500 0.375000 0.177500
0.210000 0.375000 0.177500
0.267500 0.375000 0.177500
0.325000 0.375000 0.177500
0.382500 0.375000 0.177500
0.440000 0.375000 0.177500
0.497500 0.375000 0.177500
0.555000 0.375000 0.177500
0.612500 0.375000 0.177500
0.670000 0.375000 0.177500
0.727500 0.375000 0.177500
0.785000 0.375000 0.177500
0.842500 0.375000 0.177500
0.900000 0.375000 0.177500
0.000000 0.437500 0.177500
0.037500 0.437500 0.177500
0.095000 0.437500 0.177500
0.152500 0.437500 0.177500
0.210000 0.437500 0.177500
0.267500 0.437500 0.177500
0.325000 0.437500 0.177500
0.382500 0.437500 0.177500
0.440000 0.437500 0.177500
0.497500 0.437500 0.177500
0.555000 0.437500 0.177500
0.612500 0.437500 0.177500
0.670000 0.437500 0.177500
0.727500 0.437500 0.177500
0.785000 0.437500 0.177500
0.842500 0.437500 0.177500
0.900000 0.437500 0.177500
0.000000 0.500000 0.177500
0.037500 0.500000 0.177500
0.095000 0.500000 0.177500
0.152500 0.500000 0.177500
0.210000 0.500000 0.177500
0.267500 0.500000 0.177500
0.325000 0.500000 0.177500
0.382500 0.500000 0.177500
0.440000 0.500000 0.177500
0.497500 0.500000 0.177500
0.555000 0.500000 0.177500
0.612500 0.500000 0.177500
0.670000 0.500000 0.177500
0.727500 0.500000 0.177500
0.785000 0.500000 0.177500
0.842500 0.500000 0.177500
0.900000 0.500000 0.177500
0.000000 0.562500 0.177500
0.037500 0.562500 0.177500
0.095000 0.562500 0.177500
0.152500 0.562500 0.177500
0.210000 0.562500 0.177500
0.267500 0.562500 0.177500
0.325000 0.562500 0.177500
0.382500 0.562500 0.177500
0.440000 0.562500 0.177500
0.497500 0.562500 0.177500
0.555000 0.562500 0.177500
0.612500 0.562500 0.177500
0.670000 0.562500 0.177500
0.727500 0.562500 0.177500
0.785000 0.562500 0.177500
0.842500 0.562500 0.177500
0.900000 0.562500 0.177500
0.000000 0.625000 0.177500
0.037500 0.625000 0.177500
0.095000 0.625000 0.177500
0.152500 0.625000 0.177500
0.210000 0.625000 0.177500
0.267500 0.625000 0.177500
0.325000 0.625000 0.177500
0.382500 0.625000 0.177500
0.440000 0.625000 0.177500
0.497500 0.625000 0.177500
0.555000 0.625000 0.177500
0.612500 0.625000 0.177500
0.670000 0.625000 0.177500
0.727500 0.625000 0.177500
0.785000 0.625000 0.177500
0.842500 0.625000 0.177500
0.900000 0.625000 0.177500
0.000000 0.687500 0.177500
0.037500 0.687500 0.177500
0.095000 0.687500 0.177500
0.152500 0.687500 0.177500
0.210000 0.687500 0.177500
0.267500 0.687500 0.177500
0.325000 0.687500 0.177500
0.382500 0.687500 0.177500
0.440000 0.687500 0.177500
0.497500 0.687500 0.177500
0.555000 0.687500 0.177500
0.612500 0.687500 0.177500
0.670000 0.687500 0.177500
0.727500 0.687500 0.177500
0.785000 0.687500 0.177500
0.842500 0.687500 0.177500
0.900000 0.687500 0.177500
0.000000 0.750000 0.177500
0.037500 0.750000 0.177500
0.095000 0.750000 0.177500
0.152500 0.750000 0.177500
0.210000 0.750000 0.177500
0.267500 0.750000 0.177500
0.325000 0.750000 0.177500
0.382500 0.750000 0.177500
0.440000 0.750000 0.177500
0.497500 0.750000 0.177500
0.555000 0.750000 0.177500
0.612500 0.750000 0.177500
0.670000 0.750000 0.177500
0.727500 0.750000 0.177500
0.785000 0.750000 0.177500
0.842500 0.750000 0.177500
0.900000 0.750000 0.177500
0.000000 0.812500 0.177500
0.037500 0.812500 0.177500
0.095000 0.812500 0.177500
0.152500 0.812500 0.177500
0.210000 0.812500 0.177500
0.267500 0.812500 0.177500
0.325000 0.812500 0.177500
0.382500 0.812500 0.177500
0.440000 0.812500 0.177500
0.497500 0.812500 0.177500
0.555000 0.812500 0.177500
0.612500 0.812500 0.177500
0.670000 0.812500 0.177500
0.727500 0.812500 0.177500
0.785000 0.812500 0.177500
0.842500 0.812500 0.177500
0.900000 0.812500 0.177500
0.000000 0.875000 0.177500
0.037500 0.875000 0.177500
0.095000 0.875000 0.177500
0.152500 0.875000 0.177500
0.210000 0.875000 0.177500
0.267500 0.875000 0.177500
0.325000 0.875000 0.177500
0.382500 0.875000 0.177500
0.440000 0.875000 0.177500
0.497500 0.875000 0.177500
0.555000 0.875000 0.177500
0.612500 0.875000 0.177500
0.670000 0.875000 0.177500
0.727500 0.875000 0.177500
0.785000 0.875000 0.177500
0.842500 0.875000 0.177500
0.900000 0.875000 0.177500
0.000000 0.937500 0.177500
0.037500 0.937500 0.177500
0.095000 0.937500 0.177500
0.152500 0.937500 0.177500
0.210000 0.937500 0.177500
0.267500 0.937500 0.177500
0.325000 0.937500 0.177500
0.382500 0.937500 0.177500
0.440000 0.937500 0.177500
0.497500 0.937500 0.177500
0.555000 0.937500 0.177500
0.612500 0.937500 0.177500
0.670000 0.937500 0.177500
0.727500 0.937500 0.177500
0.785000 0.937500 0.177500
0.842500 0.937500 0.177500
0.900000 0.937500 0.177500
0.000000 1.000000 0.177500
0.037500 1.000000 0.177500
0.095000 1.000000 0.177500
0.152500 1.000000 0.177500
0.210000 1.000000 0.177500
0.267500 1.000000 0.177500
0.325000 1.000000 0.177500
0.382500 1.000000 0.177500
0.440000 1.000000 0.177500
0.497500 1.000000 0.177500
0.555000 1.000000 0.177500
0.612500 1.000000 0.177500
0.670000 1.000000 0.177500
0.727500 1.000000 0.177500
0.785000 1.000000 0.177500
0.842500 1.000000 0.177500
0.900000 1.000000 0.177500
0.000000 0.000000 0.246250
0.037500 0.000000 0.246250
0.095000 0.000000 0.246250
0.152500 0.000000 0.246250
0.210000 0.000000 0.246250
0.267500 0.000000 0.246250
0.325000 0.000000 0.246250
0.382500 0.000000 0.246250
0.440000 0.000000 0.246250
0.497500 0.000000 0.246250
0.555000 0.000000 0.246250
0.612500 0.000000 0.246250
0.670000 0.000000 0.246250
0.727500 0.000000 0.246250
0.785000 0.000000 0.246250
0.842500 0.000000 0.246250
