assets/luts/cool.cube
# Cool look: tech, winter, modern.
# Generated procedurally by videokit gen-luts.py
TITLE "cool"
LUT_3D_SIZE 5
DOMAIN_MIN 0.0 0.0 0.0
DOMAIN_MAX 1.0 1.0 1.0
0.000000 0.000000 0.040000
0.210000 0.000000 0.040000
0.440000 0.000000 0.040000
0.670000 0.000000 0.040000
0.900000 0.000000 0.040000
0.000000 0.250000 0.040000
0.210000 0.250000 0.040000
0.440000 0.250000 0.040000
0.670000 0.250000 0.040000
0.900000 0.250000 0.040000
0.000000 0.500000 0.040000
0.210000 0.500000 0.040000
0.440000 0.500000 0.040000
0.670000 0.500000 0.040000
0.900000 0.500000 0.040000
0.000000 0.750000 0.040000
0.210000 0.750000 0.040000
0.440000 0.750000 0.040000
0.670000 0.750000 0.040000
0.900000 0.750000 0.040000
0.000000 1.000000 0.040000
0.210000 1.000000 0.040000
0.440000 1.000000 0.040000
0.670000 1.000000 0.040000
0.900000 1.000000 0.040000
0.000000 0.000000 0.315000
0.210000 0.000000 0.315000
0.440000 0.000000 0.315000
0.670000 0.000000 0.315000
0.900000 0.000000 0.315000
0.000000 0.250000 0.315000
0.210000 0.250000 0.315000
0.440000 0.250000 0.315000
0.670000 0.250000 0.315000
0.900000 0.250000 0.315000
0.000000 0.500000 0.315000
0.210000 0.500000 0.315000
0.440000 0.500000 0.315000
0.670000 0.500000 0.315000
0.900000 0.500000 0.315000
0.000000 0.750000 0.315000
0.210000 0.750000 0.315000
0.440000 0.750000 0.315000
0.670000 0.750000 0.315000
0.900000 0.750000 0.315000
0.000000 1.000000 0.315000
0.210000 1.000000 0.315000
0.440000 1.000000 0.315000
0.670000 1.000000 0.315000
0.900000 1.000000 0.315000
0.000000 0.000000 0.590000
0.210000 0.000000 0.590000
0.440000 0.000000 0.590000
0.670000 0.000000 0.590000
0.900000 0.000000 0.590000
0.000000 0.250000 0.590000
0.210000 0.250000 0.590000
0.440000 0.250000 0.590000
0.670000 0.250000 0.590000
0.900000 0.250000 0.590000
0.000000 0.500000 0.590000
0.210000 0.500000 0.590000
0.440000 0.500000 0.590000
0.670000 0.500000 0.590000
0.900000 0.500000 0.590000
0.000000 0.750000 0.590000
0.210000 0.750000 0.590000
0.440000 0.750000 0.590000
0.670000 0.750000 0.590000
0.900000 0.750000 0.590000
0.000000 1.000000 0.590000
0.210000 1.000000 0.590000
0.440000 1.000000 0.590000
0.670000 1.000000 0.590000
0.900000 1.000000 0.590000
0.000000 0.000000 0.865000
0.210000 0.000000 0.865000
0.440000 0.000000 0.865000
0.670000 0.000000 0.865000
0.900000 0.000000 0.865000
0.000000 0.250000 0.865000
0.210000 0.250000 0.865000
0.440000 0.250000 0.865000
0.670000 0.250000 0.865000
0.900000 0.250000 0.865000
0.000000 0.500000 0.865000
0.210000 0.500000 0.865000
0.440000 0.500000 0.865000
0.670000 0.500000 0.865000
0.900000 0.500000 0.865000
0.000000 0.750000 0.865000
0.210000 0.750000 0.865000
0.440000 0.750000 0.865000
0.670000 0.750000 0.865000
0.900000 0.750000 0.865000
0.000000 1.000000 0.865000
0.210000 1.000000 0.865000
0.440000 1.000000 0.865000
0.670000 1.000000 0.865000
0.900000 1.000000 0.865000
0.000000 0.000000 1.000000
0.210000 0.000000 1.000000
0.440000 0.000000 1.000000
0.670000 0.000000 1.000000
0.900000 0.000000 1.000000
0.000000 0.250000 1.000000
0.210000 0.250000 1.000000
0.440000 0.250000 1.000000
0.670000 0.250000 1.000000
0.900000 0.250000 1.000000
0.000000 0.500000 1.000000
0.210000 0.500000 1.000000
0.440000 0.500000 1.000000
0.670000 0.500000 1.000000
0.900000 0.500000 1.000000
0.000000 0.750000 1.000000
0.210000 0.750000 1.000000
0.440000 0.750000 1.000000
0.670000 0.750000 1.000000
0.900000 0.750000 1.000000
0.000000 1.000000 1.000000
0.210000 1.000000 1.000000
0.440000 1.000000 1.000000
0.670000 1.000000 1.000000
0.900000 1.000000 1.000000
