assets/luts/faded.cube
# Faded: lifted blacks, desaturated, Instagram classic.
# Generated procedurally by videokit gen-luts.py
TITLE "faded"
LUT_3D_SIZE 9
DOMAIN_MIN 0.0 0.0 0.0
DOMAIN_MAX 1.0 1.0 1.0
0.100000 0.100000 0.100000
0.188542 0.108854 0.108854
0.277083 0.117708 0.117708
0.365625 0.126562 0.126562
0.454167 0.135417 0.135417
0.542708 0.144271 0.144271
0.631250 0.153125 0.153125
0.719792 0.161979 0.161979
0.808333 0.170833 0.170833
0.108854 0.188542 0.108854
0.197396 0.197396 0.117708
0.285938 0.206250 0.126563
0.374479 0.215104 0.135417
0.463021 0.223958 0.144271
0.551562 0.232812 0.153125
0.640104 0.241667 0.161979
0.728646 0.250521 0.170833
0.817187 0.259375 0.179688
0.117708 0.277083 0.117708
0.206250 0.285938 0.126563
0.294792 0.294792 0.135417
0.383333 0.303646 0.144271
0.471875 0.312500 0.153125
0.560417 0.321354 0.161979
0.648958 0.330208 0.170833
0.737500 0.339062 0.179688
0.826042 0.347917 0.188542
0.126562 0.365625 0.126562
0.215104 0.374479 0.135417
0.303646 0.383333 0.144271
0.392187 0.392187 0.153125
0.480729 0.401042 0.161979
0.569271 0.409896 0.170833
0.657812 0.418750 0.179688
0.746354 0.427604 0.188542
0.834896 0.436458 0.197396
0.135417 0.454167 0.135417
0.223958 0.463021 0.144271
0.312500 0.471875 0.153125
0.401042 0.480729 0.161979
0.489583 0.489583 0.170833
0.578125 0.498438 0.179688
0.666667 0.507292 0.188542
0.755208 0.516146 0.197396
0.843750 0.525000 0.206250
0.144271 0.542708 0.144271
0.232812 0.551562 0.153125
0.321354 0.560417 0.161979
0.409896 0.569271 0.170833
0.498438 0.578125 0.179688
0.586979 0.586979 0.188542
0.675521 0.595833 0.197396
0.764062 0.604688 0.206250
0.852604 0.613542 0.215104
0.153125 0.631250 0.153125
0.241667 0.640104 0.161979
0.330208 0.648958 0.170833
0.418750 0.657812 0.179688
0.507292 0.666667 0.188542
0.595833 0.675521 0.197396
0.684375 0.684375 0.206250
0.772917 0.693229 0.215104
0.861458 0.702083 0.223958
0.161979 0.719792 0.161979
0.250521 0.728646 0.170833
0.339062 0.737500 0.179688
0.427604 0.746354 0.188542
0.516146 0.755208 0.197396
0.604688 0.764062 0.206250
0.693229 0.772917 0.215104
0.781771 0.781771 0.223958
0.870312 0.790625 0.232812
0.170833 0.808333 0.170833
0.259375 0.817187 0.179688
0.347917 0.826042 0.188542
0.436458 0.834896 0.197396
0.525000 0.843750 0.206250
0.613542 0.852604 0.215104
0.702083 0.861458 0.223958
0.790625 0.870312 0.232812
0.879167 0.879167 0.241667
0.109167 0.109167 0.191667
0.197708 0.118021 0.200521
0.286250 0.126875 0.209375
0.374792 0.135729 0.218229
0.463333 0.144583 0.227083
0.551875 0.153438 0.235938
0.640417 0.162292 0.244792
0.728958 0.171146 0.253646
0.817500 0.180000 0.262500
0.118021 0.197708 0.200521
0.206562 0.206562 0.209375
0.295104 0.215417 0.218229
0.383646 0.224271 0.227083
0.472187 0.233125 0.235938
0.560729 0.241979 0.244792
0.649271 0.250833 0.253646
0.737812 0.259687 0.262500
0.826354 0.268542 0.271354
0.126875 0.286250 0.209375
0.215417 0.295104 0.218229
0.303958 0.303958 0.227083
0.392500 0.312812 0.235938
0.481042 0.321667 0.244792
0.569583 0.330521 0.253646
0.658125 0.339375 0.262500
0.746667 0.348229 0.271354
0.835208 0.357083 0.280208
0.135729 0.374792 0.218229
0.224271 0.383646 0.227083
0.312812 0.392500 0.235938
0.401354 0.401354 0.244792
0.489896 0.410208 0.253646
0.578437 0.419062 0.262500
0.666979 0.427917 0.271354
0.755521 0.436771 0.280208
0.844062 0.445625 0.289062
0.144583 0.463333 0.227083
0.233125 0.472187 0.235938
0.321667 0.481042 0.244792
0.410208 0.489896 0.253646
0.498750 0.498750 0.262500
0.587292 0.507604 0.271354
0.675833 0.516458 0.280208
0.764375 0.525313 0.289062
0.852917 0.534167 0.297917
0.153438 0.551875 0.235938
0.241979 0.560729 0.244792
0.330521 0.569583 0.253646
0.419062 0.578437 0.262500
0.507604 0.587292 0.271354
0.596146 0.596146 0.280208
0.684687 0.605000 0.289062
0.773229 0.613854 0.297917
0.861771 0.622708 0.306771
0.162292 0.640417 0.244792
0.250833 0.649271 0.253646
0.339375 0.658125 0.262500
0.427917 0.666979 0.271354
0.516458 0.675833 0.280208
0.605000 0.684687 0.289062
0.693542 0.693542 0.297917
0.782083 0.702396 0.306771
0.870625 0.711250 0.315625
0.171146 0.728958 0.253646
0.259687 0.737812 0.262500
0.348229 0.746667 0.271354
0.436771 0.755521 0.280208
0.525313 0.764375 0.289062
0.613854 0.773229 0.297917
0.702396 0.782083 0.306771
0.790937 0.790937 0.315625
0.879479 0.799792 0.324479
0.180000 0.817500 0.262500
0.268542 0.826354 0.271354
0.357083 0.835208 0.280208
0.445625 0.844062 0.289062
0.534167 0.852917 0.297917
0.622708 0.861771 0.306771
0.711250 0.870625 0.315625
0.799792 0.879479 0.324479
0.888333 0.888333 0.333333
0.118333 0.118333 0.283333
0.206875 0.127188 0.292187
0.295417 0.136042 0.301042
0.383958 0.144896 0.309896
0.472500 0.153750 0.318750
0.561042 0.162604 0.327604
0.649583 0.171458 0.336458
0.738125 0.180313 0.345313
0.826667 0.189167 0.354167
0.127188 0.206875 0.292187
0.215729 0.215729 0.301042
0.304271 0.224583 0.309896
0.392812 0.233437 0.318750
0.481354 0.242292 0.327604
0.569896 0.251146 0.336458
0.658438 0.260000 0.345313
0.746979 0.268854 0.354167
0.835521 0.277708 0.363021
0.136042 0.295417 0.301042
0.224583 0.304271 0.309896
0.313125 0.313125 0.318750
0.401667 0.321979 0.327604
0.490208 0.330833 0.336458
0.578750 0.339687 0.345313
0.667292 0.348542 0.354167
0.755833 0.357396 0.363021
0.844375 0.366250 0.371875
0.144896 0.383958 0.309896
0.233437 0.392812 0.318750
0.321979 0.401667 0.327604
0.410521 0.410521 0.336458
0.499063 0.419375 0.345313
0.587604 0.428229 0.354167
0.676146 0.437083 0.363021
0.764687 0.445937 0.371875
0.853229 0.454792 0.380729
0.153750 0.472500 0.318750
0.242292 0.481354 0.327604
0.330833 0.490208 0.336458
0.419375 0.499063 0.345313
0.507917 0.507917 0.354167
0.596458 0.516771 0.363021
0.685000 0.525625 0.371875
0.773542 0.534479 0.380729
0.862083 0.543333 0.389583
0.162604 0.561042 0.327604
0.251146 0.569896 0.336458
0.339687 0.578750 0.345313
0.428229 0.587604 0.354167
0.516771 0.596458 0.363021
0.605312 0.605312 0.371875
0.693854 0.614167 0.380729
0.782396 0.623021 0.389583
0.870937 0.631875 0.398438
0.171458 0.649583 0.336458
0.260000 0.658438 0.345313
0.348542 0.667292 0.354167
0.437083 0.676146 0.363021
0.525625 0.685000 0.371875
0.614167 0.693854 0.380729
0.702708 0.702708 0.389583
0.791250 0.711562 0.398438
0.879792 0.720417 0.407292
0.180313 0.738125 0.345313
0.268854 0.746979 0.354167
0.357396 0.755833 0.363021
0.445937 0.764687 0.371875
0.534479 0.773542 0.380729
0.623021 0.782396 0.389583
0.711562 0.791250 0.398438
0.800104 0.800104 0.407292
0.888646 0.808958 0.416146
0.189167 0.826667 0.354167
0.277708 0.835521 0.363021
0.366250 0.844375 0.371875
0.454792 0.853229 0.380729
0.543333 0.862083 0.389583
0.631875 0.870937 0.398438
0.720417 0.879792 0.407292
0.808958 0.888646 0.416146
0.897500 0.897500 0.425000
0.127500 0.127500 0.375000
0.216042 0.136354 0.383854
0.304583 0.145208 0.392708
0.393125 0.154062 0.401563
0.481667 0.162917 0.410417
0.570208 0.171771 0.419271
0.658750 0.180625 0.428125
0.747292 0.189479 0.436979
0.835833 0.198333 0.445833
0.136354 0.216042 0.383854
0.224896 0.224896 0.392708
0.313438 0.233750 0.401563
0.401979 0.242604 0.410417
0.490521 0.251458 0.419271
0.579063 0.260313 0.428125
0.667604 0.269167 0.436979
0.756146 0.278021 0.445833
0.844688 0.286875 0.454688
0.145208 0.304583 0.392708
0.233750 0.313438 0.401563
0.322292 0.322292 0.410417
0.410833 0.331146 0.419271
0.499375 0.340000 0.428125
0.587917 0.348854 0.436979
0.676458 0.357708 0.445833
0.765000 0.366563 0.454688
0.853542 0.375417 0.463542
0.154062 0.393125 0.401563
0.242604 0.401979 0.410417
0.331146 0.410833 0.419271
0.419687 0.419687 0.428125
0.508229 0.428542 0.436979
0.596771 0.437396 0.445833
0.685312 0.446250 0.454688
0.773854 0.455104 0.463542
0.862396 0.463958 0.472396
0.162917 0.481667 0.410417
0.251458 0.490521 0.419271
0.340000 0.499375 0.428125
0.428542 0.508229 0.436979
0.517083 0.517083 0.445833
0.605625 0.525938 0.454688
0.694167 0.534792 0.463542
0.782708 0.543646 0.472396
0.871250 0.552500 0.481250
0.171771 0.570208 0.419271
0.260313 0.579063 0.428125
0.348854 0.587917 0.436979
0.437396 0.596771 0.445833
0.525938 0.605625 0.454688
0.614479 0.614479 0.463542
0.703021 0.623333 0.472396
0.791563 0.632188 0.481250
0.880104 0.641042 0.490104
0.180625 0.658750 0.428125
0.269167 0.667604 0.436979
0.357708 0.676458 0.445833
0.446250 0.685312 0.454688
0.534792 0.694167 0.463542
0.623333 0.703021 0.472396
0.711875 0.711875 0.481250
0.800417 0.720729 0.490104
0.888958 0.729583 0.498958
0.189479 0.747292 0.436979
0.278021 0.756146 0.445833
0.366563 0.765000 0.454688
0.455104 0.773854 0.463542
0.543646 0.782708 0.472396
0.632188 0.791563 0.481250
0.720729 0.800417 0.490104
0.809271 0.809271 0.498958
0.897812 0.818125 0.507812
0.198333 0.835833 0.445833
0.286875 0.844688 0.454688
0.375417 0.853542 0.463542
0.463958 0.862396 0.472396
0.552500 0.871250 0.481250
0.641042 0.880104 0.490104
0.729583 0.888958 0.498958
0.818125 0.897812 0.507812
0.906667 0.906667 0.516667
0.136667 0.136667 0.466667
0.225208 0.145521 0.475521
0.313750 0.154375 0.484375
0.402292 0.163229 0.493229
0.490833 0.172083 0.502083
0.579375 0.180938 0.510938
0.667917 0.189792 0.519792
0.756458 0.198646 0.528646
0.845000 0.207500 0.537500
0.145521 0.225208 0.475521
0.234063 0.234063 0.484375
0.322604 0.242917 0.493229
0.411146 0.251771 0.502083
0.499688 0.260625 0.510938
0.588229 0.269479 0.519792
0.676771 0.278333 0.528646
0.765313 0.287187 0.537500
0.853854 0.296042 0.546354
0.154375 0.313750 0.484375
0.242917 0.322604 0.493229
0.331458 0.331458 0.502083
0.420000 0.340313 0.510938
0.508542 0.349167 0.519792
0.597083 0.358021 0.528646
0.685625 0.366875 0.537500
0.774167 0.375729 0.546354
0.862708 0.384583 0.555208
0.163229 0.402292 0.493229
0.251771 0.411146 0.502083
0.340313 0.420000 0.510938
0.428854 0.428854 0.519792
0.517396 0.437708 0.528646
0.605938 0.446562 0.537500
0.694479 0.455417 0.546354
0.783021 0.464271 0.555208
0.871563 0.473125 0.564063
0.172083 0.490833 0.502083
0.260625 0.499688 0.510938
0.349167 0.508542 0.519792
0.437708 0.517396 0.528646
0.526250 0.526250 0.537500
0.614792 0.535104 0.546354
0.703333 0.543958 0.555208
0.791875 0.552813 0.564063
0.880417 0.561667 0.572917
0.180938 0.579375 0.510938
0.269479 0.588229 0.519792
0.358021 0.597083 0.528646
0.446562 0.605938 0.537500
0.535104 0.614792 0.546354
0.623646 0.623646 0.555208
0.712187 0.632500 0.564063
0.800729 0.641354 0.572917
0.889271 0.650208 0.581771
0.189792 0.667917 0.519792
0.278333 0.676771 0.528646
0.366875 0.685625 0.537500
0.455417 0.694479 0.546354
0.543958 0.703333 0.555208
0.632500 0.712187 0.564063
0.721042 0.721042 0.572917
0.809583 0.729896 0.581771
0.898125 0.738750 0.590625
0.198646 0.756458 0.528646
0.287187 0.765313 0.537500
0.375729 0.774167 0.546354
0.464271 0.783021 0.555208
0.552813 0.791875 0.564063
0.641354 0.800729 0.572917
0.729896 0.809583 0.581771
0.818438 0.818438 0.590625
0.906979 0.827292 0.599479
0.207500 0.845000 0.537500
0.296042 0.853854 0.546354
0.384583 0.862708 0.555208
0.473125 0.871563 0.564063
0.561667 0.880417 0.572917
0.650208 0.889271 0.581771
0.738750 0.898125 0.590625
0.827292 0.906979 0.599479
0.915833 0.915833 0.608333
0.145833 0.145833 0.558333
0.234375 0.154688 0.567187
0.322917 0.163542 0.576042
0.411458 0.172396 0.584896
0.500000 0.181250 0.593750
0.588542 0.190104 0.602604
0.677083 0.198958 0.611458
0.765625 0.207812 0.620313
0.854167 0.216667 0.629167
0.154688 0.234375 0.567187
0.243229 0.243229 0.576042
0.331771 0.252083 0.584896
0.420312 0.260937 0.593750
0.508854 0.269792 0.602604
0.597396 0.278646 0.611458
0.685937 0.287500 0.620313
0.774479 0.296354 0.629167
0.863021 0.305208 0.638021
0.163542 0.322917 0.576042
0.252083 0.331771 0.584896
0.340625 0.340625 0.593750
0.429167 0.349479 0.602604
0.517708 0.358333 0.611458
0.606250 0.367188 0.620313
0.694792 0.376042 0.629167
0.783333 0.384896 0.638021
0.871875 0.393750 0.646875
0.172396 0.411458 0.584896
0.260937 0.420312 0.593750
0.349479 0.429167 0.602604
0.438021 0.438021 0.611458
0.526563 0.446875 0.620313
0.615104 0.455729 0.629167
0.703646 0.464583 0.638021
0.792188 0.473437 0.646875
0.880729 0.482292 0.655729
0.181250 0.500000 0.593750
0.269792 0.508854 0.602604
0.358333 0.517708 0.611458
0.446875 0.526563 0.620313
0.535417 0.535417 0.629167
0.623958 0.544271 0.638021
0.712500 0.553125 0.646875
0.801042 0.561979 0.655729
0.889583 0.570833 0.664583
0.190104 0.588542 0.602604
0.278646 0.597396 0.611458
0.367188 0.606250 0.620313
0.455729 0.615104 0.629167
0.544271 0.623958 0.638021
0.632812 0.632812 0.646875
0.721354 0.641667 0.655729
0.809896 0.650521 0.664583
0.898438 0.659375 0.673438
0.198958 0.677083 0.611458
0.287500 0.685937 0.620313
0.376042 0.694792 0.629167
0.464583 0.703646 0.638021
0.553125 0.712500 0.646875
0.641667 0.721354 0.655729
0.730208 0.730208 0.664583
0.818750 0.739062 0.673438
0.907292 0.747917 0.682292
0.207812 0.765625 0.620313
0.296354 0.774479 0.629167
0.384896 0.783333 0.638021
0.473437 0.792188 0.646875
0.561979 0.801042 0.655729
0.650521 0.809896 0.664583
0.739062 0.818750 0.673438
0.827604 0.827604 0.682292
0.916146 0.836458 0.691146
0.216667 0.854167 0.629167
0.305208 0.863021 0.638021
0.393750 0.871875 0.646875
0.482292 0.880729 0.655729
0.570833 0.889583 0.664583
0.659375 0.898438 0.673438
0.747917 0.907292 0.682292
0.836458 0.916146 0.691146
0.925000 0.925000 0.700000
0.155000 0.155000 0.650000
0.243542 0.163854 0.658854
0.332083 0.172708 0.667708
0.420625 0.181562 0.676562
0.509167 0.190417 0.685417
0.597708 0.199271 0.694271
0.686250 0.208125 0.703125
0.774792 0.216979 0.711979
0.863333 0.225833 0.720833
0.163854 0.243542 0.658854
0.252396 0.252396 0.667708
0.340938 0.261250 0.676562
0.429479 0.270104 0.685417
0.518021 0.278958 0.694271
0.606563 0.287812 0.703125
0.695104 0.296667 0.711979
0.783646 0.305521 0.720833
0.872188 0.314375 0.729688
0.172708 0.332083 0.667708
0.261250 0.340938 0.676562
0.349792 0.349792 0.685417
0.438333 0.358646 0.694271
0.526875 0.367500 0.703125
0.615417 0.376354 0.711979
0.703958 0.385208 0.720833
0.792500 0.394062 0.729688
0.881042 0.402917 0.738542
0.181562 0.420625 0.676562
0.270104 0.429479 0.685417
0.358646 0.438333 0.694271
0.447187 0.447187 0.703125
0.535729 0.456042 0.711979
0.624271 0.464896 0.720833
0.712812 0.473750 0.729688
0.801354 0.482604 0.738542
0.889896 0.491458 0.747396
0.190417 0.509167 0.685417
0.278958 0.518021 0.694271
0.367500 0.526875 0.703125
0.456042 0.535729 0.711979
0.544583 0.544583 0.720833
0.633125 0.553438 0.729688
0.721667 0.562292 0.738542
0.810208 0.571146 0.747396
0.898750 0.580000 0.756250
0.199271 0.597708 0.694271
0.287812 0.606563 0.703125
0.376354 0.615417 0.711979
0.464896 0.624271 0.720833
0.553438 0.633125 0.729688
0.641979 0.641979 0.738542
0.730521 0.650833 0.747396
0.819063 0.659687 0.756250
0.907604 0.668542 0.765104
0.208125 0.686250 0.703125
0.296667 0.695104 0.711979
0.385208 0.703958 0.720833
0.473750 0.712812 0.729688
0.562292 0.721667 0.738542
0.650833 0.730521 0.747396
0.739375 0.739375 0.756250
0.827917 0.748229 0.765104
0.916458 0.757083 0.773958
0.216979 0.774792 0.711979
0.305521 0.783646 0.720833
0.394062 0.792500 0.729688
0.482604 0.801354 0.738542
0.571146 0.810208 0.747396
0.659687 0.819063 0.756250
0.748229 0.827917 0.765104
0.836771 0.836771 0.773958
0.925312 0.845625 0.782813
0.225833 0.863333 0.720833
0.314375 0.872188 0.729688
0.402917 0.881042 0.738542
0.491458 0.889896 0.747396
0.580000 0.898750 0.756250
0.668542 0.907604 0.765104
0.757083 0.916458 0.773958
0.845625 0.925312 0.782813
0.934167 0.934167 0.791667
0.164167 0.164167 0.741667
0.252708 0.173021 0.750521
0.341250 0.181875 0.759375
0.429792 0.190729 0.768229
0.518333 0.199583 0.777083
0.606875 0.208437 0.785937
0.695417 0.217292 0.794792
0.783958 0.226146 0.803646
0.872500 0.235000 0.812500
0.173021 0.252708 0.750521
0.261562 0.261562 0.759375
0.350104 0.270417 0.768229
0.438646 0.279271 0.777083
0.527188 0.288125 0.785937
0.615729 0.296979 0.794792
0.704271 0.305833 0.803646
0.792813 0.314688 0.812500
0.881354 0.323542 0.821354
0.181875 0.341250 0.759375
0.270417 0.350104 0.768229
0.358958 0.358958 0.777083
0.447500 0.367812 0.785937
0.536042 0.376667 0.794792
0.624583 0.385521 0.803646
0.713125 0.394375 0.812500
0.801667 0.403229 0.821354
0.890208 0.412083 0.830208
0.190729 0.429792 0.768229
0.279271 0.438646 0.777083
0.367812 0.447500 0.785937
0.456354 0.456354 0.794792
0.544896 0.465208 0.803646
0.633437 0.474062 0.812500
0.721979 0.482917 0.821354
0.810521 0.491771 0.830208
0.899062 0.500625 0.839063
0.199583 0.518333 0.777083
0.288125 0.527188 0.785937
0.376667 0.536042 0.794792
0.465208 0.544896 0.803646
0.553750 0.553750 0.812500
0.642292 0.562604 0.821354
0.730833 0.571458 0.830208
0.819375 0.580313 0.839063
0.907917 0.589167 0.847917
0.208437 0.606875 0.785937
0.296979 0.615729 0.794792
0.385521 0.624583 0.803646
0.474062 0.633437 0.812500
0.562604 0.642292 0.821354
0.651146 0.651146 0.830208
0.739687 0.660000 0.839063
0.828229 0.668854 0.847917
0.916771 0.677708 0.856771
0.217292 0.695417 0.794792
0.305833 0.704271 0.803646
0.394375 0.713125 0.812500
0.482917 0.721979 0.821354
0.571458 0.730833 0.830208
0.660000 0.739687 0.839063
0.748542 0.748542 0.847917
0.837083 0.757396 0.856771
0.925625 0.766250 0.865625
0.226146 0.783958 0.803646
0.314688 0.792813 0.812500
0.403229 0.801667 0.821354
0.491771 0.810521 0.830208
0.580313 0.819375 0.839063
0.668854 0.828229 0.847917
0.757396 0.837083 0.856771
0.845938 0.845938 0.865625
0.934479 0.854792 0.874479
0.235000 0.872500 0.812500
0.323542 0.881354 0.821354
0.412083 0.890208 0.830208
0.500625 0.899062 0.839063
0.589167 0.907917 0.847917
0.677708 0.916771 0.856771
0.766250 0.925625 0.865625
0.854792 0.934479 0.874479
0.943333 0.943333 0.883333
0.173333 0.173333 0.833333
0.261875 0.182187 0.842187
0.350417 0.191042 0.851042
0.438958 0.199896 0.859896
0.527500 0.208750 0.868750
0.616042 0.217604 0.877604
0.704583 0.226458 0.886458
0.793125 0.235312 0.895312
0.881667 0.244167 0.904167
0.182187 0.261875 0.842187
0.270729 0.270729 0.851042
0.359271 0.279583 0.859896
0.447812 0.288438 0.868750
0.536354 0.297292 0.877604
0.624896 0.306146 0.886458
0.713437 0.315000 0.895312
0.801979 0.323854 0.904167
0.890521 0.332708 0.913021
0.191042 0.350417 0.851042
0.279583 0.359271 0.859896
0.368125 0.368125 0.868750
0.456667 0.376979 0.877604
0.545208 0.385833 0.886458
0.633750 0.394687 0.895312
0.722292 0.403542 0.904167
0.810833 0.412396 0.913021
0.899375 0.421250 0.921875
0.199896 0.438958 0.859896
0.288438 0.447812 0.868750
0.376979 0.456667 0.877604
0.465521 0.465521 0.886458
0.554063 0.474375 0.895312
0.642604 0.483229 0.904167
0.731146 0.492083 0.913021
0.819688 0.500937 0.921875
0.908229 0.509792 0.930729
0.208750 0.527500 0.868750
0.297292 0.536354 0.877604
0.385833 0.545208 0.886458
0.474375 0.554063 0.895312
0.562917 0.562917 0.904167
0.651458 0.571771 0.913021
0.740000 0.580625 0.921875
0.828542 0.589479 0.930729
0.917083 0.598333 0.939583
0.217604 0.616042 0.877604
0.306146 0.624896 0.886458
0.394687 0.633750 0.895312
0.483229 0.642604 0.904167
0.571771 0.651458 0.913021
0.660312 0.660312 0.921875
0.748854 0.669167 0.930729
0.837396 0.678021 0.939583
0.925937 0.686875 0.948437
0.226458 0.704583 0.886458
0.315000 0.713437 0.895312
0.403542 0.722292 0.904167
0.492083 0.731146 0.913021
0.580625 0.740000 0.921875
0.669167 0.748854 0.930729
0.757708 0.757708 0.939583
0.846250 0.766562 0.948437
0.934792 0.775417 0.957292
0.235312 0.793125 0.895312
0.323854 0.801979 0.904167
0.412396 0.810833 0.913021
0.500937 0.819688 0.921875
0.589479 0.828542 0.930729
0.678021 0.837396 0.939583
0.766562 0.846250 0.948437
0.855104 0.855104 0.957292
0.943646 0.863958 0.966146
0.244167 0.881667 0.904167
0.332708 0.890521 0.913021
0.421250 0.899375 0.921875
0.509792 0.908229 0.930729
0.598333 0.917083 0.939583
0.686875 0.925937 0.948437
0.775417 0.934792 0.957292
0.863958 0.943646 0.966146
0.952500 0.952500 0.975000
