assets/luts/faded.cube
# Faded: lifted blacks, desaturated, Instagram classic.
# Generated procedurally by videokit gen-luts.py
TITLE "faded"
LUT_3D_SIZE 17
DOMAIN_MIN 0.0 0.0 0.0
DOMAIN_MAX 1.0 1.0 1.0
0.100000 0.100000 0.100000
0.144271 0.104427 0.104427
0.188542 0.108854 0.108854
0.232813 0.113281 0.113281
0.277083 0.117708 0.117708
0.321354 0.122135 0.122135
0.365625 0.126562 0.126562
0.409896 0.130990 0.130990
0.454167 0.135417 0.135417
0.498437 0.139844 0.139844
0.542708 0.144271 0.144271
0.586979 0.148698 0.148698
0.631250 0.153125 0.153125
0.675521 0.157552 0.157552
0.719792 0.161979 0.161979
0.764063 0.166406 0.166406
0.808333 0.170833 0.170833
0.104427 0.144271 0.104427
0.148698 0.148698 0.108854
0.192969 0.153125 0.113281
0.237240 0.157552 0.117708
0.281510 0.161979 0.122135
0.325781 0.166406 0.126563
0.370052 0.170833 0.130990
0.414323 0.175260 0.135417
0.458594 0.179688 0.139844
0.502865 0.184115 0.144271
0.547135 0.188542 0.148698
0.591406 0.192969 0.153125
0.635677 0.197396 0.157552
0.679948 0.201823 0.161979
0.724219 0.206250 0.166406
0.768490 0.210677 0.170833
0.812760 0.215104 0.175260
0.108854 0.188542 0.108854
0.153125 0.192969 0.113281
0.197396 0.197396 0.117708
0.241667 0.201823 0.122135
0.285938 0.206250 0.126563
0.330208 0.210677 0.130990
0.374479 0.215104 0.135417
0.418750 0.219531 0.139844
0.463021 0.223958 0.144271
0.507292 0.228385 0.148698
0.551562 0.232812 0.153125
0.595833 0.237240 0.157552
0.640104 0.241667 0.161979
0.684375 0.246094 0.166406
0.728646 0.250521 0.170833
0.772917 0.254948 0.175260
0.817187 0.259375 0.179688
0.113281 0.232813 0.113281
0.157552 0.237240 0.117708
0.201823 0.241667 0.122135
0.246094 0.246094 0.126563
0.290365 0.250521 0.130990
0.334635 0.254948 0.135417
0.378906 0.259375 0.139844
0.423177 0.263802 0.144271
0.467448 0.268229 0.148698
0.511719 0.272656 0.153125
0.555990 0.277083 0.157552
0.600260 0.281510 0.161979
0.644531 0.285938 0.166406
0.688802 0.290365 0.170833
0.733073 0.294792 0.175260
0.777344 0.299219 0.179688
0.821615 0.303646 0.184115
0.117708 0.277083 0.117708
0.161979 0.281510 0.122135
0.206250 0.285938 0.126563
0.250521 0.290365 0.130990
0.294792 0.294792 0.135417
0.339062 0.299219 0.139844
0.383333 0.303646 0.144271
0.427604 0.308073 0.148698
0.471875 0.312500 0.153125
0.516146 0.316927 0.157552
0.560417 0.321354 0.161979
0.604688 0.325781 0.166406
0.648958 0.330208 0.170833
0.693229 0.334635 0.175260
0.737500 0.339062 0.179688
0.781771 0.343490 0.184115
0.826042 0.347917 0.188542
0.122135 0.321354 0.122135
0.166406 0.325781 0.126563
0.210677 0.330208 0.130990
0.254948 0.334635 0.135417
0.299219 0.339062 0.139844
0.343490 0.343490 0.144271
0.387760 0.347917 0.148698
0.432031 0.352344 0.153125
0.476302 0.356771 0.157552
0.520573 0.361198 0.161979
0.564844 0.365625 0.166406
0.609115 0.370052 0.170833
0.653385 0.374479 0.175260
0.697656 0.378906 0.179688
0.741927 0.383333 0.184115
0.786198 0.387760 0.188542
0.830469 0.392187 0.192969
0.126562 0.365625 0.126562
0.170833 0.370052 0.130990
0.215104 0.374479 0.135417
0.259375 0.378906 0.139844
0.303646 0.383333 0.144271
0.347917 0.387760 0.148698
0.392187 0.392187 0.153125
0.436458 0.396615 0.157552
0.480729 0.401042 0.161979
0.525000 0.405469 0.166406
0.569271 0.409896 0.170833
0.613542 0.414323 0.175260
0.657812 0.418750 0.179688
0.702083 0.423177 0.184115
0.746354 0.427604 0.188542
0.790625 0.432031 0.192969
0.834896 0.436458 0.197396
0.130990 0.409896 0.130990
0.175260 0.414323 0.135417
0.219531 0.418750 0.139844
0.263802 0.423177 0.144271
0.308073 0.427604 0.148698
0.352344 0.432031 0.153125
0.396615 0.436458 0.157552
0.440885 0.440885 0.161979
0.485156 0.445313 0.166406
0.529427 0.449740 0.170833
0.573698 0.454167 0.175260
0.617969 0.458594 0.179688
0.662240 0.463021 0.184115
0.706510 0.467448 0.188542
0.750781 0.471875 0.192969
0.795052 0.476302 0.197396
0.839323 0.480729 0.201823
0.135417 0.454167 0.135417
0.179688 0.458594 0.139844
0.223958 0.463021 0.144271
0.268229 0.467448 0.148698
0.312500 0.471875 0.153125
0.356771 0.476302 0.157552
0.401042 0.480729 0.161979
0.445313 0.485156 0.166406
0.489583 0.489583 0.170833
0.533854 0.494010 0.175260
0.578125 0.498438 0.179688
0.622396 0.502865 0.184115
0.666667 0.507292 0.188542
0.710938 0.511719 0.192969
0.755208 0.516146 0.197396
0.799479 0.520573 0.201823
0.843750 0.525000 0.206250
0.139844 0.498437 0.139844
0.184115 0.502865 0.144271
0.228385 0.507292 0.148698
0.272656 0.511719 0.153125
0.316927 0.516146 0.157552
0.361198 0.520573 0.161979
0.405469 0.525000 0.166406
0.449740 0.529427 0.170833
0.494010 0.533854 0.175260
0.538281 0.538281 0.179688
0.582552 0.542708 0.184115
0.626823 0.547135 0.188542
0.671094 0.551562 0.192969
0.715365 0.555990 0.197396
0.759635 0.560417 0.201823
0.803906 0.564844 0.206250
0.848177 0.569271 0.210677
0.144271 0.542708 0.144271
0.188542 0.547135 0.148698
0.232812 0.551562 0.153125
0.277083 0.555990 0.157552
0.321354 0.560417 0.161979
0.365625 0.564844 0.166406
0.409896 0.569271 0.170833
0.454167 0.573698 0.175260
0.498438 0.578125 0.179688
0.542708 0.582552 0.184115
0.586979 0.586979 0.188542
0.631250 0.591406 0.192969
0.675521 0.595833 0.197396
0.719792 0.600260 0.201823
0.764062 0.604688 0.206250
0.808333 0.609115 0.210677
0.852604 0.613542 0.215104
0.148698 0.586979 0.148698
0.192969 0.591406 0.153125
0.237240 0.595833 0.157552
0.281510 0.600260 0.161979
0.325781 0.604688 0.166406
0.370052 0.609115 0.170833
0.414323 0.613542 0.175260
0.458594 0.617969 0.179688
0.502865 0.622396 0.184115
0.547135 0.626823 0.188542
0.591406 0.631250 0.192969
0.635677 0.635677 0.197396
0.679948 0.640104 0.201823
0.724219 0.644531 0.206250
0.768490 0.648958 0.210677
0.812760 0.653385 0.215104
0.857031 0.657812 0.219531
0.153125 0.631250 0.153125
0.197396 0.635677 0.157552
0.241667 0.640104 0.161979
0.285938 0.644531 0.166406
0.330208 0.648958 0.170833
0.374479 0.653385 0.175260
0.418750 0.657812 0.179688
0.463021 0.662240 0.184115
0.507292 0.666667 0.188542
0.551562 0.671094 0.192969
0.595833 0.675521 0.197396
0.640104 0.679948 0.201823
0.684375 0.684375 0.206250
0.728646 0.688802 0.210677
0.772917 0.693229 0.215104
0.817187 0.697656 0.219531
0.861458 0.702083 0.223958
0.157552 0.675521 0.157552
0.201823 0.679948 0.161979
0.246094 0.684375 0.166406
0.290365 0.688802 0.170833
0.334635 0.693229 0.175260
0.378906 0.697656 0.179688
0.423177 0.702083 0.184115
0.467448 0.706510 0.188542
0.511719 0.710938 0.192969
0.555990 0.715365 0.197396
0.600260 0.719792 0.201823
0.644531 0.724219 0.206250
0.688802 0.728646 0.210677
0.733073 0.733073 0.215104
0.777344 0.737500 0.219531
0.821615 0.741927 0.223958
0.865885 0.746354 0.228385
0.161979 0.719792 0.161979
0.206250 0.724219 0.166406
0.250521 0.728646 0.170833
0.294792 0.733073 0.175260
0.339062 0.737500 0.179688
0.383333 0.741927 0.184115
0.427604 0.746354 0.188542
0.471875 0.750781 0.192969
0.516146 0.755208 0.197396
0.560417 0.759635 0.201823
0.604688 0.764062 0.206250
0.648958 0.768490 0.210677
0.693229 0.772917 0.215104
0.737500 0.777344 0.219531
0.781771 0.781771 0.223958
0.826042 0.786198 0.228385
0.870312 0.790625 0.232812
0.166406 0.764063 0.166406
0.210677 0.768490 0.170833
0.254948 0.772917 0.175260
0.299219 0.777344 0.179688
0.343490 0.781771 0.184115
0.387760 0.786198 0.188542
0.432031 0.790625 0.192969
0.476302 0.795052 0.197396
0.520573 0.799479 0.201823
0.564844 0.803906 0.206250
0.609115 0.808333 0.210677
0.653385 0.812760 0.215104
0.697656 0.817187 0.219531
0.741927 0.821615 0.223958
0.786198 0.826042 0.228385
0.830469 0.830469 0.232812
0.874740 0.834896 0.237240
0.170833 0.808333 0.170833
0.215104 0.812760 0.175260
0.259375 0.817187 0.179688
0.303646 0.821615 0.184115
0.347917 0.826042 0.188542
0.392187 0.830469 0.192969
0.436458 0.834896 0.197396
0.480729 0.839323 0.201823
0.525000 0.843750 0.206250
0.569271 0.848177 0.210677
0.613542 0.852604 0.215104
0.657812 0.857031 0.219531
0.702083 0.861458 0.223958
0.746354 0.865885 0.228385
0.790625 0.870312 0.232812
0.834896 0.874740 0.237240
0.879167 0.879167 0.241667
0.104583 0.104583 0.145833
0.148854 0.109010 0.150260
0.193125 0.113438 0.154688
0.237396 0.117865 0.159115
0.281667 0.122292 0.163542
0.325937 0.126719 0.167969
0.370208 0.131146 0.172396
0.414479 0.135573 0.176823
0.458750 0.140000 0.181250
0.503021 0.144427 0.185677
0.547292 0.148854 0.190104
0.591562 0.153281 0.194531
0.635833 0.157708 0.198958
0.680104 0.162135 0.203385
0.724375 0.166562 0.207812
0.768646 0.170990 0.212240
0.812917 0.175417 0.216667
0.109010 0.148854 0.150260
0.153281 0.153281 0.154688
0.197552 0.157708 0.159115
0.241823 0.162135 0.163542
0.286094 0.166563 0.167969
0.330365 0.170990 0.172396
0.374635 0.175417 0.176823
0.418906 0.179844 0.181250
0.463177 0.184271 0.185677
0.507448 0.188698 0.190104
0.551719 0.193125 0.194531
0.595990 0.197552 0.198958
0.640260 0.201979 0.203385
0.684531 0.206406 0.207812
0.728802 0.210833 0.212240
0.773073 0.215260 0.216667
0.817344 0.219688 0.221094
0.113438 0.193125 0.154688
0.157708 0.197552 0.159115
0.201979 0.201979 0.163542
0.246250 0.206406 0.167969
0.290521 0.210833 0.172396
0.334792 0.215260 0.176823
0.379062 0.219687 0.181250
0.423333 0.224115 0.185677
0.467604 0.228542 0.190104
0.511875 0.232969 0.194531
0.556146 0.237396 0.198958
0.600417 0.241823 0.203385
0.644687 0.246250 0.207812
0.688958 0.250677 0.212240
0.733229 0.255104 0.216667
0.777500 0.259531 0.221094
0.821771 0.263958 0.225521
0.117865 0.237396 0.159115
0.162135 0.241823 0.163542
0.206406 0.246250 0.167969
0.250677 0.250677 0.172396
0.294948 0.255104 0.176823
0.339219 0.259531 0.181250
0.383490 0.263958 0.185677
0.427760 0.268385 0.190104
0.472031 0.272813 0.194531
0.516302 0.277240 0.198958
0.560573 0.281667 0.203385
0.604844 0.286094 0.207812
0.649115 0.290521 0.212240
0.693385 0.294948 0.216667
0.737656 0.299375 0.221094
0.781927 0.303802 0.225521
0.826198 0.308229 0.229948
0.122292 0.281667 0.163542
0.166563 0.286094 0.167969
0.210833 0.290521 0.172396
0.255104 0.294948 0.176823
0.299375 0.299375 0.181250
0.343646 0.303802 0.185677
0.387917 0.308229 0.190104
0.432188 0.312656 0.194531
0.476458 0.317083 0.198958
0.520729 0.321510 0.203385
0.565000 0.325937 0.207812
0.609271 0.330365 0.212240
0.653542 0.334792 0.216667
0.697812 0.339219 0.221094
0.742083 0.343646 0.225521
0.786354 0.348073 0.229948
0.830625 0.352500 0.234375
0.126719 0.325937 0.167969
0.170990 0.330365 0.172396
0.215260 0.334792 0.176823
0.259531 0.339219 0.181250
0.303802 0.343646 0.185677
0.348073 0.348073 0.190104
0.392344 0.352500 0.194531
0.436615 0.356927 0.198958
0.480885 0.361354 0.203385
0.525156 0.365781 0.207812
0.569427 0.370208 0.212240
0.613698 0.374635 0.216667
0.657969 0.379062 0.221094
0.702240 0.383490 0.225521
0.746510 0.387917 0.229948
0.790781 0.392344 0.234375
0.835052 0.396771 0.238802
0.131146 0.370208 0.172396
0.175417 0.374635 0.176823
0.219687 0.379062 0.181250
0.263958 0.383490 0.185677
0.308229 0.387917 0.190104
0.352500 0.392344 0.194531
0.396771 0.396771 0.198958
0.441042 0.401198 0.203385
0.485313 0.405625 0.207812
0.529583 0.410052 0.212240
0.573854 0.414479 0.216667
0.618125 0.418906 0.221094
0.662396 0.423333 0.225521
0.706667 0.427760 0.229948
0.750938 0.432187 0.234375
0.795208 0.436615 0.238802
0.839479 0.441042 0.243229
0.135573 0.414479 0.176823
0.179844 0.418906 0.181250
0.224115 0.423333 0.185677
0.268385 0.427760 0.190104
0.312656 0.432188 0.194531
0.356927 0.436615 0.198958
0.401198 0.441042 0.203385
0.445469 0.445469 0.207813
0.489740 0.449896 0.212240
0.534010 0.454323 0.216667
0.578281 0.458750 0.221094
0.622552 0.463177 0.225521
0.666823 0.467604 0.229948
0.711094 0.472031 0.234375
0.755365 0.476458 0.238802
0.799635 0.480885 0.243229
0.843906 0.485313 0.247656
0.140000 0.458750 0.181250
0.184271 0.463177 0.185677
0.228542 0.467604 0.190104
0.272813 0.472031 0.194531
0.317083 0.476458 0.198958
0.361354 0.480885 0.203385
0.405625 0.485313 0.207812
0.449896 0.489740 0.212240
0.494167 0.494167 0.216667
0.538438 0.498594 0.221094
0.582708 0.503021 0.225521
0.626979 0.507448 0.229948
0.671250 0.511875 0.234375
0.715521 0.516302 0.238802
0.759792 0.520729 0.243229
0.804063 0.525156 0.247656
0.848333 0.529583 0.252083
0.144427 0.503021 0.185677
0.188698 0.507448 0.190104
0.232969 0.511875 0.194531
0.277240 0.516302 0.198958
0.321510 0.520729 0.203385
0.365781 0.525156 0.207812
0.410052 0.529583 0.212240
0.454323 0.534010 0.216667
0.498594 0.538438 0.221094
0.542865 0.542865 0.225521
0.587135 0.547292 0.229948
0.631406 0.551719 0.234375
0.675677 0.556146 0.238802
0.719948 0.560573 0.243229
0.764219 0.565000 0.247656
0.808490 0.569427 0.252083
0.852760 0.573854 0.256510
0.148854 0.547292 0.190104
0.193125 0.551719 0.194531
0.237396 0.556146 0.198958
0.281667 0.560573 0.203385
0.325937 0.565000 0.207812
0.370208 0.569427 0.212240
0.414479 0.573854 0.216667
0.458750 0.578281 0.221094
0.503021 0.582708 0.225521
0.547292 0.587135 0.229948
0.591562 0.591562 0.234375
0.635833 0.595990 0.238802
0.680104 0.600417 0.243229
0.724375 0.604844 0.247656
0.768646 0.609271 0.252083
0.812917 0.613698 0.256510
0.857187 0.618125 0.260938
0.153281 0.591562 0.194531
0.197552 0.595990 0.198958
0.241823 0.600417 0.203385
0.286094 0.604844 0.207812
0.330365 0.609271 0.212240
0.374635 0.613698 0.216667
0.418906 0.618125 0.221094
0.463177 0.622552 0.225521
0.507448 0.626979 0.229948
0.551719 0.631406 0.234375
0.595990 0.635833 0.238802
0.640260 0.640260 0.243229
0.684531 0.644687 0.247656
0.728802 0.649115 0.252083
0.773073 0.653542 0.256510
0.817344 0.657969 0.260938
0.861615 0.662396 0.265365
0.157708 0.635833 0.198958
0.201979 0.640260 0.203385
0.246250 0.644687 0.207812
0.290521 0.649115 0.212240
0.334792 0.653542 0.216667
0.379062 0.657969 0.221094
0.423333 0.662396 0.225521
0.467604 0.666823 0.229948
0.511875 0.671250 0.234375
0.556146 0.675677 0.238802
0.600417 0.680104 0.243229
0.644687 0.684531 0.247656
0.688958 0.688958 0.252083
0.733229 0.693385 0.256510
0.777500 0.697812 0.260938
0.821771 0.702240 0.265365
0.866042 0.706667 0.269792
0.162135 0.680104 0.203385
0.206406 0.684531 0.207812
0.250677 0.688958 0.212240
0.294948 0.693385 0.216667
0.339219 0.697812 0.221094
0.383490 0.702240 0.225521
0.427760 0.706667 0.229948
0.472031 0.711094 0.234375
0.516302 0.715521 0.238802
0.560573 0.719948 0.243229
0.604844 0.724375 0.247656
0.649115 0.728802 0.252083
0.693385 0.733229 0.256510
0.737656 0.737656 0.260938
0.781927 0.742083 0.265365
0.826198 0.746510 0.269792
0.870469 0.750937 0.274219
0.166562 0.724375 0.207812
0.210833 0.728802 0.212240
0.255104 0.733229 0.216667
0.299375 0.737656 0.221094
0.343646 0.742083 0.225521
0.387917 0.746510 0.229948
0.432187 0.750938 0.234375
0.476458 0.755365 0.238802
0.520729 0.759792 0.243229
0.565000 0.764219 0.247656
0.609271 0.768646 0.252083
0.653542 0.773073 0.256510
0.697812 0.777500 0.260938
0.742083 0.781927 0.265365
0.786354 0.786354 0.269792
0.830625 0.790781 0.274219
0.874896 0.795208 0.278646
0.170990 0.768646 0.212240
0.215260 0.773073 0.216667
0.259531 0.777500 0.221094
0.303802 0.781927 0.225521
0.348073 0.786354 0.229948
0.392344 0.790781 0.234375
0.436615 0.795208 0.238802
0.480885 0.799635 0.243229
0.525156 0.804063 0.247656
0.569427 0.808490 0.252083
0.613698 0.812917 0.256510
0.657969 0.817344 0.260938
0.702240 0.821771 0.265365
0.746510 0.826198 0.269792
0.790781 0.830625 0.274219
0.835052 0.835052 0.278646
0.879323 0.839479 0.283073
0.175417 0.812917 0.216667
0.219688 0.817344 0.221094
0.263958 0.821771 0.225521
0.308229 0.826198 0.229948
0.352500 0.830625 0.234375
0.396771 0.835052 0.238802
0.441042 0.839479 0.243229
0.485313 0.843906 0.247656
0.529583 0.848333 0.252083
0.573854 0.852760 0.256510
0.618125 0.857187 0.260938
0.662396 0.861615 0.265365
0.706667 0.866042 0.269792
0.750937 0.870469 0.274219
0.795208 0.874896 0.278646
0.839479 0.879323 0.283073
0.883750 0.883750 0.287500
0.109167 0.109167 0.191667
0.153438 0.113594 0.196094
0.197708 0.118021 0.200521
0.241979 0.122448 0.204948
0.286250 0.126875 0.209375
0.330521 0.131302 0.213802
0.374792 0.135729 0.218229
0.419063 0.140156 0.222656
0.463333 0.144583 0.227083
0.507604 0.149010 0.231510
0.551875 0.153438 0.235938
0.596146 0.157865 0.240365
0.640417 0.162292 0.244792
0.684687 0.166719 0.249219
0.728958 0.171146 0.253646
0.773229 0.175573 0.258073
0.817500 0.180000 0.262500
0.113594 0.153438 0.196094
0.157865 0.157865 0.200521
0.202135 0.162292 0.204948
0.246406 0.166719 0.209375
0.290677 0.171146 0.213802
0.334948 0.175573 0.218229
0.379219 0.180000 0.222656
0.423490 0.184427 0.227083
0.467760 0.188854 0.231510
0.512031 0.193281 0.235938
0.556302 0.197708 0.240365
0.600573 0.202135 0.244792
0.644844 0.206563 0.249219
0.689115 0.210990 0.253646
0.733385 0.215417 0.258073
0.777656 0.219844 0.262500
0.821927 0.224271 0.266927
0.118021 0.197708 0.200521
0.162292 0.202135 0.204948
0.206562 0.206562 0.209375
0.250833 0.210990 0.213802
0.295104 0.215417 0.218229
0.339375 0.219844 0.222656
0.383646 0.224271 0.227083
0.427917 0.228698 0.231510
0.472187 0.233125 0.235938
0.516458 0.237552 0.240365
0.560729 0.241979 0.244792
0.605000 0.246406 0.249219
0.649271 0.250833 0.253646
0.693542 0.255260 0.258073
0.737812 0.259687 0.262500
0.782083 0.264115 0.266927
0.826354 0.268542 0.271354
0.122448 0.241979 0.204948
0.166719 0.246406 0.209375
0.210990 0.250833 0.213802
0.255260 0.255260 0.218229
0.299531 0.259688 0.222656
0.343802 0.264115 0.227083
0.388073 0.268542 0.231510
0.432344 0.272969 0.235938
0.476615 0.277396 0.240365
0.520885 0.281823 0.244792
0.565156 0.286250 0.249219
0.609427 0.290677 0.253646
0.653698 0.295104 0.258073
0.697969 0.299531 0.262500
0.742240 0.303958 0.266927
0.786510 0.308385 0.271354
0.830781 0.312813 0.275781
0.126875 0.286250 0.209375
0.171146 0.290677 0.213802
0.215417 0.295104 0.218229
0.259688 0.299531 0.222656
0.303958 0.303958 0.227083
0.348229 0.308385 0.231510
0.392500 0.312812 0.235938
0.436771 0.317240 0.240365
0.481042 0.321667 0.244792
0.525313 0.326094 0.249219
0.569583 0.330521 0.253646
0.613854 0.334948 0.258073
0.658125 0.339375 0.262500
0.702396 0.343802 0.266927
0.746667 0.348229 0.271354
0.790937 0.352656 0.275781
0.835208 0.357083 0.280208
0.131302 0.330521 0.213802
0.175573 0.334948 0.218229
0.219844 0.339375 0.222656
0.264115 0.343802 0.227083
0.308385 0.348229 0.231510
0.352656 0.352656 0.235938
0.396927 0.357083 0.240365
0.441198 0.361510 0.244792
0.485469 0.365937 0.249219
0.529740 0.370365 0.253646
0.574010 0.374792 0.258073
0.618281 0.379219 0.262500
0.662552 0.383646 0.266927
0.706823 0.388073 0.271354
0.751094 0.392500 0.275781
0.795365 0.396927 0.280208
0.839635 0.401354 0.284635
0.135729 0.374792 0.218229
0.180000 0.379219 0.222656
0.224271 0.383646 0.227083
0.268542 0.388073 0.231510
0.312812 0.392500 0.235938
0.357083 0.396927 0.240365
0.401354 0.401354 0.244792
0.445625 0.405781 0.249219
0.489896 0.410208 0.253646
0.534167 0.414635 0.258073
0.578437 0.419062 0.262500
0.622708 0.423490 0.266927
0.666979 0.427917 0.271354
0.711250 0.432344 0.275781
0.755521 0.436771 0.280208
0.799792 0.441198 0.284635
0.844062 0.445625 0.289062
0.140156 0.419063 0.222656
0.184427 0.423490 0.227083
0.228698 0.427917 0.231510
0.272969 0.432344 0.235938
0.317240 0.436771 0.240365
0.361510 0.441198 0.244792
0.405781 0.445625 0.249219
0.450052 0.450052 0.253646
0.494323 0.454479 0.258073
0.538594 0.458906 0.262500
0.582865 0.463333 0.266927
0.627135 0.467760 0.271354
0.671406 0.472188 0.275781
0.715677 0.476615 0.280208
0.759948 0.481042 0.284635
0.804219 0.485469 0.289062
0.848490 0.489896 0.293490
0.144583 0.463333 0.227083
0.188854 0.467760 0.231510
0.233125 0.472187 0.235938
0.277396 0.476615 0.240365
0.321667 0.481042 0.244792
0.365937 0.485469 0.249219
0.410208 0.489896 0.253646
0.454479 0.494323 0.258073
0.498750 0.498750 0.262500
0.543021 0.503177 0.266927
0.587292 0.507604 0.271354
0.631563 0.512031 0.275781
0.675833 0.516458 0.280208
0.720104 0.520885 0.284635
0.764375 0.525313 0.289062
0.808646 0.529740 0.293490
0.852917 0.534167 0.297917
0.149010 0.507604 0.231510
0.193281 0.512031 0.235938
0.237552 0.516458 0.240365
0.281823 0.520885 0.244792
0.326094 0.525313 0.249219
0.370365 0.529740 0.253646
0.414635 0.534167 0.258073
0.458906 0.538594 0.262500
0.503177 0.543021 0.266927
0.547448 0.547448 0.271354
0.591719 0.551875 0.275781
0.635990 0.556302 0.280208
0.680260 0.560729 0.284635
0.724531 0.565156 0.289062
0.768802 0.569583 0.293490
0.813073 0.574010 0.297917
0.857344 0.578437 0.302344
0.153438 0.551875 0.235938
0.197708 0.556302 0.240365
0.241979 0.560729 0.244792
0.286250 0.565156 0.249219
0.330521 0.569583 0.253646
0.374792 0.574010 0.258073
0.419062 0.578437 0.262500
0.463333 0.582865 0.266927
0.507604 0.587292 0.271354
0.551875 0.591719 0.275781
0.596146 0.596146 0.280208
0.640417 0.600573 0.284635
0.684687 0.605000 0.289062
0.728958 0.609427 0.293490
0.773229 0.613854 0.297917
0.817500 0.618281 0.302344
0.861771 0.622708 0.306771
0.157865 0.596146 0.240365
0.202135 0.600573 0.244792
0.246406 0.605000 0.249219
0.290677 0.609427 0.253646
0.334948 0.613854 0.258073
0.379219 0.618281 0.262500
0.423490 0.622708 0.266927
0.467760 0.627135 0.271354
0.512031 0.631563 0.275781
0.556302 0.635990 0.280208
0.600573 0.640417 0.284635
0.644844 0.644844 0.289062
0.689115 0.649271 0.293490
0.733385 0.653698 0.297917
0.777656 0.658125 0.302344
0.821927 0.662552 0.306771
0.866198 0.666979 0.311198
0.162292 0.640417 0.244792
0.206563 0.644844 0.249219
0.250833 0.649271 0.253646
0.295104 0.653698 0.258073
0.339375 0.658125 0.262500
0.383646 0.662552 0.266927
0.427917 0.666979 0.271354
0.472188 0.671406 0.275781
0.516458 0.675833 0.280208
0.560729 0.680260 0.284635
0.605000 0.684687 0.289062
0.649271 0.689115 0.293490
0.693542 0.693542 0.297917
0.737812 0.697969 0.302344
0.782083 0.702396 0.306771
0.826354 0.706823 0.311198
0.870625 0.711250 0.315625
0.166719 0.684687 0.249219
0.210990 0.689115 0.253646
0.255260 0.693542 0.258073
0.299531 0.697969 0.262500
0.343802 0.702396 0.266927
0.388073 0.706823 0.271354
0.432344 0.711250 0.275781
0.476615 0.715677 0.280208
0.520885 0.720104 0.284635
0.565156 0.724531 0.289062
0.609427 0.728958 0.293490
0.653698 0.733385 0.297917
0.697969 0.737812 0.302344
0.742240 0.742240 0.306771
0.786510 0.746667 0.311198
0.830781 0.751094 0.315625
0.875052 0.755521 0.320052
0.171146 0.728958 0.253646
0.215417 0.733385 0.258073
0.259687 0.737812 0.262500
0.303958 0.742240 0.266927
0.348229 0.746667 0.271354
0.392500 0.751094 0.275781
0.436771 0.755521 0.280208
0.481042 0.759948 0.284635
0.525313 0.764375 0.289062
0.569583 0.768802 0.293490
0.613854 0.773229 0.297917
0.658125 0.777656 0.302344
0.702396 0.782083 0.306771
0.746667 0.786510 0.311198
0.790937 0.790937 0.315625
0.835208 0.795365 0.320052
0.879479 0.799792 0.324479
0.175573 0.773229 0.258073
0.219844 0.777656 0.262500
0.264115 0.782083 0.266927
0.308385 0.786510 0.271354
0.352656 0.790937 0.275781
0.396927 0.795365 0.280208
0.441198 0.799792 0.284635
0.485469 0.804219 0.289062
0.529740 0.808646 0.293490
0.574010 0.813073 0.297917
0.618281 0.817500 0.302344
0.662552 0.821927 0.306771
0.706823 0.826354 0.311198
0.751094 0.830781 0.315625
0.795365 0.835208 0.320052
0.839635 0.839635 0.324479
0.883906 0.844062 0.328906
0.180000 0.817500 0.262500
0.224271 0.821927 0.266927
0.268542 0.826354 0.271354
0.312813 0.830781 0.275781
0.357083 0.835208 0.280208
0.401354 0.839635 0.284635
0.445625 0.844062 0.289062
0.489896 0.848490 0.293490
0.534167 0.852917 0.297917
0.578437 0.857344 0.302344
0.622708 0.861771 0.306771
0.666979 0.866198 0.311198
0.711250 0.870625 0.315625
0.755521 0.875052 0.320052
0.799792 0.879479 0.324479
0.844062 0.883906 0.328906
0.888333 0.888333 0.333333
0.113750 0.113750 0.237500
0.158021 0.118177 0.241927
0.202292 0.122604 0.246354
0.246563 0.127031 0.250781
0.290833 0.131458 0.255208
0.335104 0.135885 0.259635
0.379375 0.140313 0.264062
0.423646 0.144740 0.268490
0.467917 0.149167 0.272917
0.512188 0.153594 0.277344
0.556458 0.158021 0.281771
0.600729 0.162448 0.286198
0.645000 0.166875 0.290625
0.689271 0.171302 0.295052
0.733542 0.175729 0.299479
