assets/luts/faded.cube
# Faded: lifted blacks, desaturated, Instagram classic.
# Generated procedurally by videokit gen-luts.py
TITLE "faded"
LUT_3D_SIZE 5
DOMAIN_MIN 0.0 0.0 0.0
DOMAIN_MAX 1.0 1.0 1.0
0.100000 0.100000 0.100000
0.277083 0.117708 0.117708
0.454167 0.135417 0.135417
0.631250 0.153125 0.153125
0.808333 0.170833 0.170833
0.117708 0.277083 0.117708
0.294792 0.294792 0.135417
0.471875 0.312500 0.153125
0.648958 0.330208 0.170833
0.826042 0.347917 0.188542
0.135417 0.454167 0.135417
0.312500 0.471875 0.153125
0.489583 0.489583 0.170833
0.666667 0.507292 0.188542
0.843750 0.525000 0.206250
0.153125 0.631250 0.153125
0.330208 0.648958 0.170833
0.507292 0.666667 0.188542
0.684375 0.684375 0.206250
0.861458 0.702083 0.223958
0.170833 0.808333 0.170833
0.347917 0.826042 0.188542
0.525000 0.843750 0.206250
0.702083 0.861458 0.223958
0.879167 0.879167 0.241667
0.118333 0.118333 0.283333
0.295417 0.136042 0.301042
0.472500 0.153750 0.318750
0.649583 0.171458 0.336458
0.826667 0.189167 0.354167
0.136042 0.295417 0.301042
0.313125 0.313125 0.318750
0.490208 0.330833 0.336458
0.667292 0.348542 0.354167
0.844375 0.366250 0.371875
0.153750 0.472500 0.318750
0.330833 0.490208 0.336458
0.507917 0.507917 0.354167
0.685000 0.525625 0.371875
0.862083 0.543333 0.389583
0.171458 0.649583 0.336458
0.348542 0.667292 0.354167
0.525625 0.685000 0.371875
0.702708 0.702708 0.389583
0.879792 0.720417 0.407292
0.189167 0.826667 0.354167
0.366250 0.844375 0.371875
0.543333 0.862083 0.389583
0.720417 0.879792 0.407292
0.897500 0.897500 0.425000
0.136667 0.136667 0.466667
0.313750 0.154375 0.484375
0.490833 0.172083 0.502083
0.667917 0.189792 0.519792
0.845000 0.207500 0.537500
0.154375 0.313750 0.484375
0.331458 0.331458 0.502083
0.508542 0.349167 0.519792
0.685625 0.366875 0.537500
0.862708 0.384583 0.555208
0.172083 0.490833 0.502083
0.349167 0.508542 0.519792
0.526250 0.526250 0.537500
0.703333 0.543958 0.555208
0.880417 0.561667 0.572917
0.189792 0.667917 0.519792
0.366875 0.685625 0.537500
0.543958 0.703333 0.555208
0.721042 0.721042 0.572917
0.898125 0.738750 0.590625
0.207500 0.845000 0.537500
0.384583 0.862708 0.555208
0.561667 0.880417 0.572917
0.738750 0.898125 0.590625
0.915833 0.915833 0.608333
0.155000 0.155000 0.650000
0.332083 0.172708 0.667708
0.509167 0.190417 0.685417
0.686250 0.208125 0.703125
0.863333 0.225833 0.720833
0.172708 0.332083 0.667708
0.349792 0.349792 0.685417
0.526875 0.367500 0.703125
0.703958 0.385208 0.720833
0.881042 0.402917 0.738542
0.190417 0.509167 0.685417
0.367500 0.526875 0.703125
0.544583 0.544583 0.720833
0.721667 0.562292 0.738542
0.898750 0.580000 0.756250
0.208125 0.686250 0.703125
0.385208 0.703958 0.720833
0.562292 0.721667 0.738542
0.739375 0.739375 0.756250
0.916458 0.757083 0.773958
0.225833 0.863333 0.720833
0.402917 0.881042 0.738542
0.580000 0.898750 0.756250
0.757083 0.916458 0.773958
0.934167 0.934167 0.791667
0.173333 0.173333 0.833333
0.350417 0.191042 0.851042
0.527500 0.208750 0.868750
0.704583 0.226458 0.886458
0.881667 0.244167 0.904167
0.191042 0.350417 0.851042
0.368125 0.368125 0.868750
0.545208 0.385833 0.886458
0.722292 0.403542 0.904167
0.899375 0.421250 0.921875
0.208750 0.527500 0.868750
0.385833 0.545208 0.886458
0.562917 0.562917 0.904167
0.740000 0.580625 0.921875
0.917083 0.598333 0.939583
0.226458 0.704583 0.886458
0.403542 0.722292 0.904167
0.580625 0.740000 0.921875
0.757708 0.757708 0.939583
0.934792 0.775417 0.957292
0.244167 0.881667 0.904167
0.421250 0.899375 0.921875
0.598333 0.917083 0.939583
0.775417 0.934792 0.957292
0.952500 0.952500 0.975000
