assets/luts/golden-hour.cube
# Golden hour: warm intense tones, magic hour.
# Generated procedurally by videokit gen-luts.py
TITLE "golden-hour"
LUT_3D_SIZE 17
DOMAIN_MIN 0.0 0.0 0.0
DOMAIN_MAX 1.0 1.0 1.0
0.046000 0.000000 0.000000
0.114654 0.000000 0.000000
0.183124 0.000000 0.000000
0.251419 0.000000 0.000000
0.319551 0.000000 0.000000
0.387529 0.000000 0.000000
0.455364 0.000000 0.000000
0.523067 0.000000 0.000000
0.590647 0.000000 0.000000
0.658114 0.000000 0.000000
0.725481 0.000000 0.000000
0.792756 0.000000 0.000000
0.859949 0.000000 0.000000
0.927073 0.000000 0.000000
0.994136 0.000000 0.000000
1.000000 0.000000 0.000000
1.000000 0.000000 0.000000
0.041838 0.057509 0.000000
0.109912 0.054553 0.000000
0.177837 0.051634 0.000000
0.245623 0.048751 0.000000
0.313279 0.045899 0.000000
0.380817 0.043077 0.000000
0.448247 0.040282 0.000000
0.515579 0.037512 0.000000
0.582823 0.034763 0.000000
0.649990 0.032034 0.000000
0.717090 0.029321 0.000000
0.784134 0.026623 0.000000
0.851131 0.023936 0.000000
0.918093 0.021258 0.000000
0.985030 0.018586 0.000000
1.000000 0.015918 0.000000
1.000000 0.013252 0.000000
0.035864 0.126971 0.000000
0.103476 0.124131 0.000000
0.170974 0.121319 0.000000
0.238366 0.118533 0.000000
0.305665 0.115771 0.000000
0.372880 0.113030 0.000000
0.440021 0.110307 0.000000
0.507100 0.107600 0.000000
0.574126 0.104906 0.000000
0.641109 0.102223 0.000000
0.708060 0.099547 0.000000
0.774990 0.096877 0.000000
0.841909 0.094210 0.000000
0.908826 0.091543 0.000000
0.975753 0.088874 0.000000
1.000000 0.086200 0.000000
1.000000 0.083518 0.000000
0.028473 0.196788 0.000000
0.095740 0.194034 0.000000
0.162927 0.191299 0.000000
0.230045 0.188583 0.000000
0.297103 0.185881 0.000000
0.364112 0.183191 0.000000
0.431082 0.180511 0.000000
0.498025 0.177838 0.000000
0.564949 0.175169 0.000000
0.631866 0.172502 0.000000
0.698786 0.169835 0.000000
0.765719 0.167164 0.000000
0.832676 0.164487 0.000000
0.899667 0.161802 0.000000
0.966702 0.159106 0.000000
1.000000 0.156396 0.000000
1.000000 0.153670 0.000000
0.020060 0.266860 0.000000
0.087099 0.264163 0.000000
0.154093 0.261477 0.000000
0.221052 0.258800 0.000000
0.287987 0.256128 0.000000
0.354907 0.253461 0.000000
0.421824 0.250794 0.000000
0.488748 0.248126 0.000000
0.555688 0.245453 0.000000
0.622656 0.242774 0.000000
0.689662 0.240085 0.000000
0.756715 0.237384 0.000000
0.823827 0.234668 0.000000
0.891008 0.231935 0.000000
0.958268 0.229183 0.000000
1.000000 0.226408 0.000000
1.000000 0.223608 0.000000
0.011018 0.337089 0.000000
0.077947 0.334420 0.000000
0.144865 0.331753 0.000000
0.211783 0.329086 0.000000
0.278711 0.326416 0.000000
0.345661 0.323741 0.000000
0.412641 0.321059 0.000000
0.479663 0.318366 0.000000
0.546737 0.315660 0.000000
0.613873 0.312938 0.000000
0.681081 0.310198 0.000000
0.748373 0.307438 0.000000
0.815757 0.304654 0.000000
0.883246 0.301845 0.000000
0.950848 0.299007 0.000000
1.000000 0.296137 0.000000
1.000000 0.293235 0.000000
0.001743 0.407377 0.000000
0.068678 0.404706 0.000000
0.135637 0.402028 0.000000
0.202631 0.399342 0.000000
0.269671 0.396645 0.000000
0.336766 0.393933 0.000000
0.403927 0.391206 0.000000
0.471165 0.388459 0.000000
0.538489 0.385690 0.000000
0.605911 0.382897 0.000000
0.673439 0.380078 0.000000
0.741086 0.377228 0.000000
0.808861 0.374347 0.000000
0.876774 0.371432 0.000000
0.944836 0.368478 0.000000
1.000000 0.365486 0.000000
1.000000 0.362450 0.000000
0.000000 0.477624 0.000000
0.059687 0.474922 0.000000
0.126805 0.472205 0.000000
0.193992 0.469471 0.000000
0.261260 0.466716 0.000000
0.328619 0.463939 0.000000
0.396078 0.461137 0.000000
0.463649 0.458307 0.000000
0.531341 0.455446 0.000000
0.599165 0.452553 0.000000
0.667131 0.449624 0.000000
0.735250 0.446656 0.000000
0.803531 0.443648 0.000000
0.871987 0.440597 0.000000
0.940626 0.437500 0.000000
1.000000 0.434472 0.000000
1.000000 0.431665 0.000000
0.000000 0.547733 0.000000
0.051368 0.544971 0.000000
0.118762 0.542185 0.000000
0.186260 0.539372 0.000000
0.253874 0.536532 0.000000
0.321613 0.533659 0.000000
0.389487 0.530753 0.000000
0.457508 0.527811 0.000000
0.525685 0.524829 0.000000
0.594029 0.521805 0.000000
0.662549 0.518738 0.000000
0.731265 0.515634 0.000000
0.800305 0.512688 0.000000
0.869698 0.509958 0.000000
0.939425 0.507433 0.000000
1.000000 0.505101 0.000000
1.000000 0.502948 0.000000
0.000000 0.617604 0.000000
0.044116 0.614752 0.000000
0.111903 0.611868 0.000000
0.179829 0.608949 0.000000
0.247905 0.605992 0.000000
0.316142 0.602996 0.000000
0.384549 0.599956 0.000000
0.453137 0.596872 0.000000
0.521954 0.593798 0.000000
0.591124 0.590932 0.000000
0.660642 0.588278 0.000000
0.730484 0.585825 0.000000
0.800633 0.583559 0.000000
0.871067 0.581469 0.000000
0.941767 0.579542 0.000000
1.000000 0.577766 0.000000
1.000000 0.576128 0.000000
0.000000 0.687140 0.000000
0.038324 0.684169 0.000000
0.106622 0.681157 0.000000
0.175094 0.678102 0.000000
0.243750 0.675000 0.000000
0.312690 0.671992 0.000000
0.381990 0.669205 0.000000
0.451628 0.666625 0.000000
0.521584 0.664242 0.000000
0.591839 0.662042 0.000000
0.662372 0.660012 0.000000
0.733164 0.658142 0.000000
0.804193 0.656417 0.000000
0.875440 0.654827 0.000000
0.946884 0.653358 0.000000
1.000000 0.651998 0.000000
1.000000 0.650734 0.000000
0.000000 0.756241 0.000000
0.034402 0.753141 0.000000
0.103475 0.750215 0.000000
0.172900 0.747505 0.000000
0.242656 0.744998 0.000000
0.312724 0.742683 0.000000
0.383082 0.740546 0.000000
0.453712 0.738576 0.000000
0.524592 0.736760 0.000000
0.595703 0.735086 0.000000
0.667024 0.733541 0.000000
0.738535 0.732113 0.000000
0.810217 0.730790 0.000000
0.882048 0.729558 0.000000
0.954010 0.728407 0.000000
1.000000 0.727323 0.000000
1.000000 0.726293 0.000000
0.000000 0.825832 0.000000
0.033726 0.823396 0.000000
0.103902 0.821148 0.000000
0.174361 0.819073 0.000000
0.245084 0.817161 0.000000
0.316051 0.815398 0.000000
0.387240 0.813772 0.000000
0.458633 0.812271 0.000000
0.530209 0.810883 0.000000
0.601948 0.809594 0.000000
0.673829 0.808393 0.000000
0.745832 0.807268 0.000000
0.817938 0.806205 0.000000
0.890126 0.805193 0.000000
0.962376 0.804219 0.000000
1.000000 0.803270 0.000000
1.000000 0.802335 0.000000
0.000000 0.897622 0.000000
0.036489 0.895765 0.000000
0.107539 0.894053 0.000000
0.178805 0.892475 0.000000
0.250267 0.891016 0.000000
0.321904 0.889665 0.000000
0.393697 0.888410 0.000000
0.465625 0.887238 0.000000
0.537668 0.886137 0.000000
0.609806 0.885094 0.000000
0.682019 0.884097 0.000000
0.754287 0.883134 0.000000
0.826589 0.882191 0.000000
0.898905 0.881258 0.000000
0.971216 0.880321 0.000000
1.000000 0.879368 0.000000
1.000000 0.878387 0.000000
0.000000 0.971193 0.000000
0.041924 0.969775 0.000000
0.113620 0.968461 0.000000
0.185464 0.967237 0.000000
0.257437 0.966092 0.000000
0.329517 0.965014 0.000000
0.401684 0.963989 0.000000
0.473920 0.963006 0.000000
0.546202 0.962052 0.000000
0.618512 0.961114 0.000000
0.690828 0.960181 0.000000
0.763132 0.959239 0.000000
0.835402 0.958278 0.000000
0.907619 0.957283 0.000000
0.979762 0.956243 0.000000
1.000000 0.955146 0.000000
1.000000 0.953978 0.000000
0.000000 1.000000 0.000000
0.049263 1.000000 0.000000
0.121377 1.000000 0.000000
0.193572 1.000000 0.000000
0.265826 1.000000 0.000000
0.338121 1.000000 0.000000
0.410435 1.000000 0.000000
0.482750 1.000000 0.000000
0.555043 1.000000 0.000000
0.627296 1.000000 0.000000
0.699488 1.000000 0.000000
0.771600 1.000000 0.000000
0.843610 1.000000 0.000000
0.915499 1.000000 0.000000
0.987246 1.000000 0.000000
1.000000 1.000000 0.000000
1.000000 1.000000 0.000000
0.000000 1.000000 0.000000
0.057738 1.000000 0.000000
0.130042 1.000000 0.000000
0.202359 1.000000 0.000000
0.274668 1.000000 0.000000
0.346949 1.000000 0.000000
0.419183 1.000000 0.000000
0.491348 1.000000 0.000000
0.563424 1.000000 0.000000
0.635393 1.000000 0.000000
0.707232 1.000000 0.000000
0.778923 1.000000 0.000000
0.850445 1.000000 0.000000
0.921778 1.000000 0.000000
0.992902 1.000000 0.000000
1.000000 1.000000 0.000000
1.000000 1.000000 0.000000
0.042864 0.000000 0.034258
0.111454 0.000000 0.031253
0.179864 0.000000 0.028384
0.248102 0.000000 0.025642
0.316181 0.000000 0.023021
0.384109 0.000000 0.020512
0.451898 0.000000 0.018108
0.519558 0.000000 0.015801
0.587098 0.000000 0.013583
0.654530 0.000000 0.011446
0.721864 0.000000 0.009383
0.789111 0.000000 0.007386
0.856279 0.000000 0.005447
0.923381 0.000000 0.003558
0.990426 0.000000 0.001712
1.000000 0.000000 0.000000
1.000000 0.000000 0.000000
0.038501 0.054437 0.032062
0.106523 0.051494 0.029482
0.174400 0.048588 0.027013
0.242140 0.045715 0.024645
0.309756 0.042874 0.022371
0.377255 0.040061 0.020183
0.444651 0.037275 0.018074
0.511952 0.034512 0.016036
0.579168 0.031770 0.014061
0.646312 0.029047 0.012141
0.713391 0.026340 0.010269
0.780418 0.023645 0.008436
0.847403 0.020962 0.006636
0.914355 0.018286 0.004859
0.981285 0.015616 0.003099
1.000000 0.012949 0.001347
1.000000 0.010282 0.000000
0.032366 0.123940 0.031194
0.099938 0.121109 0.028953
0.167399 0.118307 0.026795
0.234759 0.115529 0.024712
0.302028 0.112774 0.022698
0.369216 0.110040 0.020744
0.436335 0.107322 0.018842
0.503395 0.104620 0.016985
0.570405 0.101930 0.015165
0.637376 0.099250 0.013374
0.704319 0.096576 0.011604
0.771244 0.093908 0.009848
0.838161 0.091241 0.008098
0.905081 0.088574 0.006346
0.972013 0.085903 0.004584
1.000000 0.083226 0.002804
1.000000 0.080541 0.000999
0.024854 0.193786 0.031359
0.092093 0.191039 0.029368
0.159255 0.188311 0.027434
0.226351 0.185600 0.025549
0.293391 0.182902 0.023706
0.360386 0.180216 0.021898
0.427346 0.177538 0.020115
0.494281 0.174867 0.018352
0.561202 0.172200 0.016599
0.628119 0.169533 0.014848
0.695042 0.166864 0.013093
0.761982 0.164192 0.011326
0.828949 0.161513 0.009538
0.895954 0.158824 0.007722
0.963006 0.156123 0.005870
1.000000 0.153408 0.003975
1.000000 0.150676 0.002028
0.016360 0.263879 0.032262
0.083382 0.261186 0.030432
0.150363 0.258503 0.028634
0.217313 0.255828 0.026859
0.284241 0.253158 0.025100
0.351159 0.250491 0.023349
0.418077 0.247824 0.021598
0.485006 0.245155 0.019840
0.551954 0.242480 0.018066
0.618934 0.239798 0.016268
0.685955 0.237105 0.014440
0.753027 0.234400 0.012574
0.820161 0.231678 0.010660
0.887368 0.228939 0.008693
0.954657 0.226179 0.006663
1.000000 0.223396 0.004564
1.000000 0.220587 0.002387
0.007276 0.334118 0.033605
0.074200 0.331450 0.031850
0.141117 0.328783 0.030100
0.208037 0.326116 0.028347
0.274972 0.323445 0.026584
0.341931 0.320767 0.024802
0.408924 0.318082 0.022995
0.475962 0.315384 0.021153
0.543056 0.312674 0.019271
0.610215 0.309946 0.017338
0.677451 0.307200 0.015349
0.744773 0.304432 0.013295
0.812192 0.301640 0.011169
0.879718 0.298821 0.008962
0.947362 0.295972 0.006666
1.000000 0.293092 0.004275
1.000000 0.290177 0.001780
0.000000 0.404406 0.035094
0.064941 0.401733 0.033325
0.131911 0.399053 0.031535
0.198920 0.396364 0.029716
0.265977 0.393662 0.027861
0.333094 0.390945 0.025961
0.400280 0.388211 0.024009
0.467546 0.385457 0.021997
0.534902 0.382681 0.019917
0.602358 0.379879 0.017762
0.669926 0.377050 0.015524
0.737615 0.374190 0.013195
0.805435 0.371297 0.010767
0.873398 0.368369 0.008233
0.941513 0.365403 0.005584
1.000000 0.362396 0.002813
1.000000 0.359346 0.000000
0.000000 0.474644 0.036433
0.056000 0.471937 0.034562
0.123141 0.469215 0.032644
0.190355 0.466474 0.030672
0.257652 0.463712 0.028636
0.325044 0.460927 0.026530
0.392540 0.458115 0.024345
0.460150 0.455275 0.022075
0.527886 0.452404 0.019711
0.595757 0.449498 0.017245
0.663774 0.446557 0.014670
0.731947 0.443576 0.011977
0.800286 0.440553 0.009160
0.868803 0.437487 0.006210
0.937513 0.434383 0.003112
1.000000 0.431431 0.000000
1.000000 0.428696 0.000000
0.000000 0.544734 0.037326
0.047771 0.541963 0.035265
0.115199 0.539169 0.033132
0.182736 0.536347 0.030917
0.250391 0.533496 0.028613
0.318175 0.530613 0.026213
0.386098 0.527694 0.023708
0.454170 0.524739 0.021091
0.522403 0.521743 0.018354
0.590805 0.518705 0.015490
0.659389 0.515622 0.012490
0.728198 0.512545 0.009298
0.797360 0.509673 0.005738
0.866869 0.507014 0.001812
0.936704 0.504556 0.000000
1.000000 0.502286 0.000000
1.000000 0.500192 0.000000
0.000000 0.614576 0.037477
0.040649 0.611713 0.035139
0.108482 0.608817 0.032701
0.176458 0.605885 0.030156
0.244588 0.602916 0.027497
0.312881 0.599905 0.024714
0.381348 0.596850 0.021801
0.450000 0.593750 0.018750
0.518931 0.590736 0.015433
0.588222 0.587944 0.011737
0.657852 0.585360 0.007683
0.727801 0.582971 0.003292
0.798049 0.580767 0.000000
0.868576 0.578734 0.000000
0.939361 0.576859 0.000000
1.000000 0.575131 0.000000
1.000000 0.573538 0.000000
0.000000 0.684072 0.036590
0.035027 0.681087 0.033886
0.103382 0.678061 0.031057
0.171916 0.674990 0.028095
0.240648 0.671889 0.024976
0.309713 0.668958 0.021518
0.379129 0.666242 0.017690
0.448878 0.663731 0.013510
0.518938 0.661411 0.009002
0.589290 0.659270 0.004186
0.659913 0.657296 0.000000
0.730787 0.655477 0.000000
0.801892 0.653799 0.000000
0.873209 0.652251 0.000000
0.944716 0.650820 0.000000
1.000000 0.649495 0.000000
1.000000 0.648261 0.000000
0.000000 0.753123 0.034369
0.031346 0.750059 0.031149
0.100541 0.747207 0.027554
0.170080 0.744568 0.023595
0.239945 0.742127 0.019294
0.310113 0.739874 0.014671
0.380566 0.737796 0.009748
0.451283 0.735879 0.004546
0.522244 0.734113 0.000000
0.593428 0.732484 0.000000
0.664816 0.730980 0.000000
0.736388 0.729589 0.000000
0.808123 0.728298 0.000000
0.880001 0.727095 0.000000
0.952001 0.725968 0.000000
1.000000 0.724904 0.000000
1.000000 0.723891 0.000000
0.000000 0.822919 0.029455
0.031052 0.820549 0.025034
0.101326 0.818361 0.020300
0.171878 0.816342 0.015273
0.242686 0.814482 0.009975
0.313730 0.812767 0.004427
0.384991 0.811185 0.000000
0.456448 0.809724 0.000000
0.528082 0.808371 0.000000
0.599871 0.807113 0.000000
0.671796 0.805939 0.000000
0.743836 0.804837 0.000000
0.815972 0.803792 0.000000
0.888184 0.802795 0.000000
0.960450 0.801830 0.000000
1.000000 0.800888 0.000000
1.000000 0.799955 0.000000
0.000000 0.894910 0.020762
0.034120 0.893104 0.015371
0.105245 0.891439 0.009737
0.176580 0.889903 0.003883
0.248104 0.888482 0.000000
0.319796 0.887165 0.000000
0.391637 0.885940 0.000000
0.463607 0.884793 0.000000
0.535684 0.883713 0.000000
0.607850 0.882687 0.000000
0.680084 0.881703 0.000000
0.752365 0.880748 0.000000
0.824674 0.879810 0.000000
0.896991 0.878877 0.000000
0.969295 0.877936 0.000000
1.000000 0.876975 0.000000
1.000000 0.875981 0.000000
0.000000 0.968635 0.009089
0.039782 0.967254 0.002968
0.111530 0.965972 0.000000
0.183420 0.964776 0.000000
0.255432 0.963656 0.000000
0.327544 0.962597 0.000000
0.399736 0.961587 0.000000
0.471990 0.960615 0.000000
0.544284 0.959668 0.000000
0.616598 0.958734 0.000000
0.688913 0.957799 0.000000
0.761207 0.956852 0.000000
0.833461 0.955880 0.000000
0.905655 0.954872 0.000000
0.977769 0.953814 0.000000
1.000000 0.952694 0.000000
1.000000 0.951500 0.000000
0.000000 1.000000 0.000000
0.047270 1.000000 0.000000
0.119414 1.000000 0.000000
0.191631 1.000000 0.000000
0.263902 1.000000 0.000000
0.336205 1.000000 0.000000
0.408522 1.000000 0.000000
0.480831 1.000000 0.000000
0.553113 1.000000 0.000000
0.625348 1.000000 0.000000
0.697515 1.000000 0.000000
0.769594 1.000000 0.000000
0.841565 1.000000 0.000000
0.913408 1.000000 0.000000
0.985103 1.000000 0.000000
1.000000 1.000000 0.000000
1.000000 1.000000 0.000000
0.000000 1.000000 0.000000
0.055818 1.000000 0.000000
0.128128 1.000000 0.000000
0.200445 1.000000 0.000000
0.272746 1.000000 0.000000
0.345014 1.000000 0.000000
0.417226 1.000000 0.000000
0.489363 1.000000 0.000000
0.561405 1.000000 0.000000
0.633332 1.000000 0.000000
0.705124 1.000000 0.000000
0.776759 1.000000 0.000000
0.848219 1.000000 0.000000
0.919483 1.000000 0.000000
0.990531 1.000000 0.000000
1.000000 1.000000 0.000000
1.000000 1.000000 0.000000
0.039706 0.000000 0.103033
0.108233 0.000000 0.100075
0.176584 0.000000 0.097250
0.244767 0.000000 0.094550
0.312793 0.000000 0.091968
0.380673 0.000000 0.089495
0.448417 0.000000 0.087125
0.516035 0.000000 0.084849
0.583537 0.000000 0.082659
0.650935 0.000000 0.080549
0.718238 0.000000 0.078509
0.785457 0.000000 0.076532
0.852602 0.000000 0.074611
0.919683 0.000000 0.072738
0.986711 0.000000 0.070904
1.000000 0.000000 0.069103
1.000000 0.000000 0.067326
0.035146 0.051370 0.100984
0.103118 0.048439 0.098443
0.170947 0.045545 0.096009
0.238644 0.042683 0.093674
0.306218 0.039852 0.091430
0.373682 0.037048 0.089270
0.441044 0.034270 0.087186
0.508315 0.031515 0.085170
0.575505 0.028780 0.083215
0.642626 0.026062 0.081312
0.709687 0.023360 0.079454
0.776698 0.020669 0.077633
0.843670 0.017989 0.075841
0.910614 0.015315 0.074071
0.977539 0.012647 0.072315
1.000000 0.009980 0.070564
1.000000 0.007312 0.068812
0.028854 0.120911 0.100234
0.096387 0.118091 0.098022
0.163812 0.115297 0.095891
0.231140 0.112527 0.093832
0.298381 0.109780 0.091839
0.365545 0.107051 0.089904
0.432642 0.104339 0.088018
0.499684 0.101642 0.086175
0.566680 0.098955 0.084365
0.633640 0.096277 0.082582
0.700576 0.093606 0.080818
0.767497 0.090938 0.079065
0.834414 0.088272 0.077315
0.901337 0.085603 0.075560
0.968276 0.082931 0.073793
1.000000 0.080252 0.072006
1.000000 0.077564 0.070191
0.021225 0.190787 0.100487
0.088437 0.188047 0.098516
0.155575 0.185325 0.096600
0.222651 0.182618 0.094730
0.289675 0.179925 0.092900
0.356657 0.177242 0.091101
0.423607 0.174567 0.089326
0.490536 0.171897 0.087567
0.557454 0.169230 0.085815
0.624372 0.166563 0.084065
0.691300 0.163894 0.082306
0.758248 0.161219 0.080533
0.825227 0.158537 0.078736
0.892246 0.155845 0.076909
0.959317 0.153139 0.075043
1.000000 0.150419 0.073131
1.000000 0.147680 0.071165
0.012653 0.260899 0.101448
0.079660 0.258210 0.099630
0.146630 0.255530 0.097840
0.213571 0.252857 0.096072
0.280495 0.250189 0.094316
0.347412 0.247522 0.092566
0.414332 0.244854 0.090813
0.481266 0.242183 0.089050
0.548224 0.239507 0.087270
0.615216 0.236821 0.085463
0.682253 0.234124 0.083622
0.749346 0.231414 0.081741
0.816504 0.228687 0.079810
0.883737 0.225941 0.077822
0.951057 0.223173 0.075770
1.000000 0.220382 0.073645
1.000000 0.217563 0.071440
0.003533 0.331148 0.102819
0.070453 0.328481 0.101067
0.137370 0.325814 0.099316
0.204294 0.323145 0.097561
0.271235 0.320472 0.095792
0.338205 0.317793 0.094003
0.405212 0.315103 0.092185
0.472268 0.312402 0.090330
0.539383 0.309686 0.088432
0.606567 0.306952 0.086481
0.673831 0.304199 0.084471
0.741185 0.301423 0.082393
0.808639 0.298622 0.080240
0.876203 0.295793 0.078004
0.943889 0.292934 0.075677
1.000000 0.290042 0.073251
1.000000 0.287115 0.070720
0.000000 0.401436 0.104307
0.061208 0.398760 0.102531
0.128190 0.396077 0.100732
0.195214 0.393384 0.098902
0.262290 0.390677 0.097032
0.329429 0.387955 0.095116
0.396641 0.385215 0.093144
0.463937 0.382453 0.091110
0.531326 0.379669 0.089006
0.598819 0.376858 0.086823
0.666427 0.374018 0.084555
0.734159 0.371148 0.082193
0.802027 0.368243 0.079730
0.870040 0.365303 0.077158
0.938209 0.362323 0.074468
1.000000 0.359301 0.071654
1.000000 0.356236 0.068708
0.000000 0.471663 0.105614
0.052321 0.468951 0.103728
0.119485 0.466222 0.101792
0.186726 0.463475 0.099799
0.254055 0.460705 0.097740
0.321481 0.457911 0.095608
0.389014 0.455090 0.093396
0.456666 0.452240 0.091094
0.524447 0.449357 0.088696
0.592366 0.446440 0.086194
0.660435 0.443485 0.083580
0.728663 0.440490 0.080846
0.797062 0.437453 0.077985
0.865641 0.434371 0.074988
0.934442 0.431291 0.071804
1.000000 0.428414 0.068253
1.000000 0.425750 0.064336
0.000000 0.541732 0.106445
0.044186 0.538954 0.104361
0.111650 0.536150 0.102200
0.179225 0.533319 0.099956
0.246923 0.530457 0.097620
0.314753 0.527562 0.095186
0.382725 0.524631 0.092644
0.450851 0.521662 0.089987
0.519140 0.518652 0.087207
0.587603 0.515599 0.084298
0.656250 0.512500 0.081250
0.725173 0.509481 0.077943
0.794455 0.506683 0.074256
0.864077 0.504094 0.070210
0.934018 0.501701 0.065827
1.000000 0.499492 0.061128
1.000000 0.497455 0.056134
0.000000 0.611543 0.106505
0.037197 0.608670 0.104134
0.105077 0.605762 0.101661
0.173105 0.602818 0.099078
0.241289 0.599834 0.096377
0.309640 0.596809 0.093551
0.378169 0.593739 0.090592
0.446895 0.590637 0.087479
0.515951 0.587700 0.084031
0.585359 0.584980 0.080211
0.655100 0.582463 0.076040
0.725152 0.580139 0.071540
0.795497 0.577994 0.066731
0.866114 0.576016 0.061635
0.936982 0.574193 0.056273
1.000000 0.572512 0.050667
1.000000 0.570961 0.044837
0.000000 0.680999 0.105496
0.031749 0.678000 0.102751
0.100163 0.674959 0.099878
0.168759 0.671873 0.096868
0.237589 0.668805 0.093656
0.306776 0.665948 0.090070
0.376307 0.663303 0.086120
0.446164 0.660858 0.081826
0.516325 0.658601 0.077211
0.586771 0.656518 0.072295
0.657482 0.654598 0.067100
0.728437 0.652828 0.061647
0.799616 0.651196 0.055957
0.871000 0.649689 0.050051
0.942567 0.648295 0.043952
1.000000 0.647002 0.037679
1.000000 0.645797 0.031255
0.000000 0.750000 0.103124
0.028332 0.747002 0.099781
0.097646 0.744224 0.096061
0.167299 0.741653 0.091983
0.237268 0.739278 0.087570
0.307536 0.737086 0.082843
0.378081 0.735063 0.077823
0.448882 0.733199 0.072531
0.519921 0.731481 0.066989
0.591177 0.729896 0.061218
0.662630 0.728432 0.055240
0.734259 0.727076 0.049075
0.806045 0.725817 0.042745
0.877967 0.724641 0.036270
0.950005 0.723536 0.029674
1.000000 0.722491 0.022976
1.000000 0.721492 0.016198
0.000000 0.820029 0.097802
0.028412 0.817722 0.093272
0.098783 0.815593 0.088436
0.169424 0.813630 0.083314
0.240314 0.811820 0.077929
0.311435 0.810152 0.072301
0.382765 0.808612 0.066452
0.454284 0.807189 0.060404
0.525972 0.805870 0.054176
0.597810 0.804642 0.047791
0.669776 0.803494 0.041270
0.741852 0.802412 0.034634
0.814016 0.801385 0.027904
0.886248 0.800400 0.021102
0.958528 0.799445 0.014249
1.000000 0.798507 0.007367
1.000000 0.797574 0.000476
0.000000 0.892217 0.088771
0.031777 0.890460 0.083295
0.102976 0.888840 0.077584
0.174377 0.887344 0.071660
0.245960 0.885960 0.065544
0.317705 0.884676 0.059256
0.389592 0.883478 0.052819
0.461600 0.882356 0.046254
0.533710 0.881295 0.039581
0.605901 0.880285 0.032823
0.678154 0.879312 0.026000
0.750447 0.878365 0.019134
0.822761 0.877430 0.012245
0.895076 0.876495 0.005357
0.967371 0.875549 0.000000
1.000000 0.874578 0.000000
1.000000 0.873571 0.000000
0.000000 0.966091 0.076842
0.037658 0.964744 0.070661
0.109457 0.963493 0.064316
0.181390 0.962324 0.057830
0.253438 0.961226 0.051223
0.325580 0.960185 0.044517
0.397795 0.959190 0.037733
0.470065 0.958228 0.030892
0.542368 0.957286 0.024015
0.614685 0.956353 0.017124
0.686995 0.955416 0.010240
0.759278 0.954462 0.003385
0.831514 0.953479 0.000000
0.903682 0.952455 0.000000
0.975764 0.951377 0.000000
1.000000 0.950234 0.000000
1.000000 0.949011 0.000000
0.000000 1.000000 0.062825
0.045288 1.000000 0.056180
0.117459 1.000000 0.049443
0.189697 1.000000 0.042635
0.261981 1.000000 0.035779
0.334291 1.000000 0.028895
0.406607 1.000000 0.022004
0.478910 1.000000 0.015128
0.551178 1.000000 0.008288
0.623392 1.000000 0.001506
0.695531 1.000000 0.000000
0.767576 1.000000 0.000000
0.839506 1.000000 0.000000
0.911301 1.000000 0.000000
0.982941 1.000000 0.000000
1.000000 1.000000 0.000000
1.000000 1.000000 0.000000
0.000000 1.000000 0.047531
0.053900 1.000000 0.040662
0.126215 1.000000 0.033773
0.198528 1.000000 0.026885
0.270821 1.000000 0.020020
0.343072 1.000000 0.013199
0.415261 1.000000 0.006443
0.487368 1.000000 0.000000
0.559373 1.000000 0.000000
0.631256 1.000000 0.000000
0.702997 1.000000 0.000000
0.774575 1.000000 0.000000
0.845971 1.000000 0.000000
0.917164 1.000000 0.000000
0.988134 1.000000 0.000000
1.000000 1.000000 0.000000
1.000000 1.000000 0.000000
0.036526 0.000000 0.171825
0.104992 0.000000 0.168912
0.173284 0.000000 0.166131
0.241413 0.000000 0.163471
0.309388 0.000000 0.160927
0.377221 0.000000 0.158491
0.444921 0.000000 0.156153
0.512499 0.000000 0.153907
0.579964 0.000000 0.151745
0.647329 0.000000 0.149660
0.714602 0.000000 0.147642
0.781794 0.000000 0.145685
0.848917 0.000000 0.143781
0.915979 0.000000 0.141922
0.982991 0.000000 0.140101
