assets/luts/golden-hour.cube
# Golden hour: warm intense tones, magic hour.
# Generated procedurally by videokit gen-luts.py
TITLE "golden-hour"
LUT_3D_SIZE 5
DOMAIN_MIN 0.0 0.0 0.0
DOMAIN_MAX 1.0 1.0 1.0
0.046000 0.000000 0.000000
0.319551 0.000000 0.000000
0.590647 0.000000 0.000000
0.859949 0.000000 0.000000
1.000000 0.000000 0.000000
0.020060 0.266860 0.000000
0.287987 0.256128 0.000000
0.555688 0.245453 0.000000
0.823827 0.234668 0.000000
1.000000 0.223608 0.000000
0.000000 0.547733 0.000000
0.253874 0.536532 0.000000
0.525685 0.524829 0.000000
0.800305 0.512688 0.000000
1.000000 0.502948 0.000000
0.000000 0.825832 0.000000
0.245084 0.817161 0.000000
0.530209 0.810883 0.000000
0.817938 0.806205 0.000000
1.000000 0.802335 0.000000
0.000000 1.000000 0.000000
0.274668 1.000000 0.000000
0.563424 1.000000 0.000000
0.850445 1.000000 0.000000
1.000000 1.000000 0.000000
0.033324 0.000000 0.240632
0.305967 0.000000 0.229900
0.576380 0.000000 0.220840
0.845225 0.000000 0.212957
1.000000 0.000000 0.205751
0.005224 0.254944 0.239832
0.273000 0.244250 0.232750
0.540776 0.233556 0.225668
0.809215 0.222696 0.218089
1.000000 0.211505 0.209515
0.000000 0.535720 0.244660
0.240033 0.524367 0.235600
0.512676 0.512456 0.224868
0.788761 0.500775 0.211168
1.000000 0.492035 0.192208
0.000000 0.814315 0.234382
0.235651 0.806545 0.213754
0.521804 0.800899 0.189477
0.810125 0.796585 0.162913
1.000000 0.792809 0.135424
0.000000 1.000000 0.182492
0.266954 1.000000 0.155004
0.555266 1.000000 0.128448
0.841404 1.000000 0.104188
1.000000 1.000000 0.083585
0.020315 0.000000 0.516014
0.292126 0.000000 0.505905
0.561932 0.000000 0.497301
0.830395 0.000000 0.489704
1.000000 0.000000 0.482615
0.000000 0.243047 0.516641
0.258013 0.232372 0.509615
0.525940 0.221640 0.502420
0.794755 0.210686 0.494559
1.000000 0.199345 0.485534
0.000000 0.523662 0.520985
0.226449 0.512138 0.511413
0.500000 0.500000 0.500000
0.777819 0.489232 0.484524
1.000000 0.481401 0.464002
0.000000 0.803134 0.507116
0.226615 0.796174 0.485096
0.513650 0.791070 0.459889
0.802412 0.787027 0.432858
1.000000 0.783253 0.405365
0.000000 1.000000 0.452381
0.259139 1.000000 0.425058
0.546857 1.000000 0.399129
0.831963 1.000000 0.375958
1.000000 1.000000 0.356907
0.006998 0.000000 0.791626
0.278054 0.000000 0.782085
0.547329 0.000000 0.773878
0.815488 0.000000 0.766509
1.000000 0.000000 0.759481
0.000000 0.231163 0.793488
0.243053 0.220487 0.786460
0.511207 0.209698 0.779095
0.780474 0.198631 0.770894
1.000000 0.187121 0.761362
0.000000 0.511552 0.797155
0.213148 0.499838 0.787014
0.487841 0.487710 0.774639
0.767428 0.478028 0.757297
1.000000 0.471013 0.735372
0.000000 0.792258 0.779325
0.217929 0.786018 0.756070
0.505694 0.781362 0.730091
0.794750 0.777500 0.702750
1.000000 0.773638 0.675409
0.000000 1.000000 0.722275
0.251171 1.000000 0.695272
0.538146 1.000000 0.670128
0.822072 1.000000 0.648203
1.000000 1.000000 0.630861
0.000000 0.000000 1.000000
0.263776 0.000000 1.000000
0.532598 0.000000 1.000000
0.800528 0.000000 1.000000
1.000000 0.000000 1.000000
0.000000 0.219284 1.000000
0.228144 0.208589 1.000000
0.496602 0.197725 1.000000
0.766398 0.186525 1.000000
1.000000 0.174826 1.000000
0.000000 0.499384 1.000000
0.200157 0.487461 1.000000
0.476332 0.475819 1.000000
0.757537 0.467132 1.000000
1.000000 0.460842 1.000000
0.000000 0.781657 1.000000
0.209539 0.776044 1.000000
0.497888 0.771747 1.000000
0.787088 0.767973 0.972642
1.000000 0.763930 0.945611
0.000000 1.000000 0.992226
0.242999 1.000000 0.965702
0.529084 1.000000 0.941498
0.811681 1.000000 0.920976
1.000000 1.000000 0.905500
