assets/luts/golden-hour.cube
# Golden hour: warm intense tones, magic hour.
# Generated procedurally by videokit gen-luts.py
TITLE "golden-hour"
LUT_3D_SIZE 9
DOMAIN_MIN 0.0 0.0 0.0
DOMAIN_MAX 1.0 1.0 1.0
0.046000 0.000000 0.000000
0.183124 0.000000 0.000000
0.319551 0.000000 0.000000
0.455364 0.000000 0.000000
0.590647 0.000000 0.000000
0.725481 0.000000 0.000000
0.859949 0.000000 0.000000
0.994136 0.000000 0.000000
1.000000 0.000000 0.000000
0.035864 0.126971 0.000000
0.170974 0.121319 0.000000
0.305665 0.115771 0.000000
0.440021 0.110307 0.000000
0.574126 0.104906 0.000000
0.708060 0.099547 0.000000
0.841909 0.094210 0.000000
0.975753 0.088874 0.000000
1.000000 0.083518 0.000000
0.020060 0.266860 0.000000
0.154093 0.261477 0.000000
0.287987 0.256128 0.000000
0.421824 0.250794 0.000000
0.555688 0.245453 0.000000
0.689662 0.240085 0.000000
0.823827 0.234668 0.000000
0.958268 0.229183 0.000000
1.000000 0.223608 0.000000
0.001743 0.407377 0.000000
0.135637 0.402028 0.000000
0.269671 0.396645 0.000000
0.403927 0.391206 0.000000
0.538489 0.385690 0.000000
0.673439 0.380078 0.000000
0.808861 0.374347 0.000000
0.944836 0.368478 0.000000
1.000000 0.362450 0.000000
0.000000 0.547733 0.000000
0.118762 0.542185 0.000000
0.253874 0.536532 0.000000
0.389487 0.530753 0.000000
0.525685 0.524829 0.000000
0.662549 0.518738 0.000000
0.800305 0.512688 0.000000
0.939425 0.507433 0.000000
1.000000 0.502948 0.000000
0.000000 0.687140 0.000000
0.106622 0.681157 0.000000
0.243750 0.675000 0.000000
0.381990 0.669205 0.000000
0.521584 0.664242 0.000000
0.662372 0.660012 0.000000
0.804193 0.656417 0.000000
0.946884 0.653358 0.000000
1.000000 0.650734 0.000000
0.000000 0.825832 0.000000
0.103902 0.821148 0.000000
0.245084 0.817161 0.000000
0.387240 0.813772 0.000000
0.530209 0.810883 0.000000
0.673829 0.808393 0.000000
0.817938 0.806205 0.000000
0.962376 0.804219 0.000000
1.000000 0.802335 0.000000
0.000000 0.971193 0.000000
0.113620 0.968461 0.000000
0.257437 0.966092 0.000000
0.401684 0.963989 0.000000
0.546202 0.962052 0.000000
0.690828 0.960181 0.000000
0.835402 0.958278 0.000000
0.979762 0.956243 0.000000
1.000000 0.953978 0.000000
0.000000 1.000000 0.000000
0.130042 1.000000 0.000000
0.274668 1.000000 0.000000
0.419183 1.000000 0.000000
0.563424 1.000000 0.000000
0.707232 1.000000 0.000000
0.850445 1.000000 0.000000
0.992902 1.000000 0.000000
1.000000 1.000000 0.000000
0.039706 0.000000 0.103033
0.176584 0.000000 0.097250
0.312793 0.000000 0.091968
0.448417 0.000000 0.087125
0.583537 0.000000 0.082659
0.718238 0.000000 0.078509
0.852602 0.000000 0.074611
0.986711 0.000000 0.070904
1.000000 0.000000 0.067326
0.028854 0.120911 0.100234
0.163812 0.115297 0.095891
0.298381 0.109780 0.091839
0.432642 0.104339 0.088018
0.566680 0.098955 0.084365
0.700576 0.093606 0.080818
0.834414 0.088272 0.077315
0.968276 0.082931 0.073793
1.000000 0.077564 0.070191
0.012653 0.260899 0.101448
0.146630 0.255530 0.097840
0.280495 0.250189 0.094316
0.414332 0.244854 0.090813
0.548224 0.239507 0.087270
0.682253 0.234124 0.083622
0.816504 0.228687 0.079810
0.951057 0.223173 0.075770
1.000000 0.217563 0.071440
0.000000 0.401436 0.104307
0.128190 0.396077 0.100732
0.262290 0.390677 0.097032
0.396641 0.385215 0.093144
0.531326 0.379669 0.089006
0.666427 0.374018 0.084555
0.802027 0.368243 0.079730
0.938209 0.362323 0.074468
1.000000 0.356236 0.068708
0.000000 0.541732 0.106445
0.111650 0.536150 0.102200
0.246923 0.530457 0.097620
0.382725 0.524631 0.092644
0.519140 0.518652 0.087207
0.656250 0.512500 0.081250
0.794455 0.506683 0.074256
0.934018 0.501701 0.065827
1.000000 0.497455 0.056134
0.000000 0.680999 0.105496
0.100163 0.674959 0.099878
0.237589 0.668805 0.093656
0.376307 0.663303 0.086120
0.516325 0.658601 0.077211
0.657482 0.654598 0.067100
0.799616 0.651196 0.055957
0.942567 0.648295 0.043952
1.000000 0.645797 0.031255
0.000000 0.820029 0.097802
0.098783 0.815593 0.088436
0.240314 0.811820 0.077929
0.382765 0.808612 0.066452
0.525972 0.805870 0.054176
0.669776 0.803494 0.041270
0.814016 0.801385 0.027904
0.958528 0.799445 0.014249
1.000000 0.797574 0.000476
0.000000 0.966091 0.076842
0.109457 0.963493 0.064316
0.253438 0.961226 0.051223
0.397795 0.959190 0.037733
0.542368 0.957286 0.024015
0.686995 0.955416 0.010240
0.831514 0.953479 0.000000
0.975764 0.951377 0.000000
1.000000 0.949011 0.000000
0.000000 1.000000 0.047531
0.126215 1.000000 0.033773
0.270821 1.000000 0.020020
0.415261 1.000000 0.006443
0.559373 1.000000 0.000000
0.702997 1.000000 0.000000
0.845971 1.000000 0.000000
0.988134 1.000000 0.000000
1.000000 1.000000 0.000000
0.033324 0.000000 0.240632
0.169966 0.000000 0.235025
0.305967 0.000000 0.229900
0.441411 0.000000 0.225192
0.576380 0.000000 0.220840
0.710957 0.000000 0.216783
0.845225 0.000000 0.212957
0.979266 0.000000 0.209300
1.000000 0.000000 0.205751
0.021790 0.114865 0.238345
0.156606 0.109286 0.234108
0.291061 0.103797 0.230142
0.425237 0.098378 0.226384
0.559217 0.093008 0.222774
0.693084 0.087666 0.219249
0.826921 0.082332 0.215746
0.960811 0.076985 0.212204
1.000000 0.071603 0.208560
0.005224 0.254944 0.239832
0.139154 0.249587 0.236260
0.273000 0.244250 0.232750
0.406846 0.238913 0.229240
0.540776 0.233556 0.225668
0.674871 0.228157 0.221972
0.809215 0.222696 0.218089
0.943890 0.217153 0.213958
1.000000 0.211505 0.209515
0.000000 0.395492 0.242726
0.120763 0.390122 0.239116
0.254939 0.384703 0.235358
0.389394 0.379214 0.231392
0.524210 0.373635 0.227155
0.659471 0.367945 0.222584
0.795260 0.362123 0.217618
0.931659 0.356148 0.212194
1.000000 0.350000 0.206249
0.000000 0.535720 0.244660
0.104589 0.530103 0.240308
0.240033 0.524367 0.235600
0.376034 0.518492 0.230475
0.512676 0.512456 0.224868
0.650077 0.506297 0.218669
0.788761 0.500775 0.211168
0.928749 0.496054 0.202291
1.000000 0.492035 0.192208
0.000000 0.674839 0.243268
0.093788 0.668740 0.237471
0.231597 0.662713 0.230883
0.370775 0.657494 0.222862
0.511197 0.653040 0.213526
0.652704 0.649253 0.203046
0.795134 0.646032 0.191591
0.938325 0.643279 0.179331
1.000000 0.640896 0.166439
0.000000 0.814315 0.234382
0.093789 0.810115 0.224610
0.235651 0.806545 0.213754
0.378376 0.803506 0.201987
0.521804 0.800899 0.189477
0.665774 0.798625 0.176396
0.810125 0.796585 0.162913
0.954694 0.794679 0.149199
1.000000 0.792809 0.135424
0.000000 0.961038 0.212285
0.105356 0.958564 0.199548
0.249483 0.956386 0.186300
0.393931 0.954406 0.172714
0.538540 0.952525 0.158957
0.683148 0.950643 0.145202
0.827594 0.948661 0.131618
0.971717 0.946481 0.118376
1.000000 0.944003 0.105645
0.000000 1.000000 0.182492
0.122387 1.000000 0.168716
0.266954 1.000000 0.155004
0.411301 1.000000 0.141524
0.555266 1.000000 0.128448
0.698687 1.000000 0.115946
0.841404 1.000000 0.104188
0.983255 1.000000 0.093344
1.000000 1.000000 0.083585
0.026860 0.000000 0.378293
0.163275 0.000000 0.372856
0.299077 0.000000 0.367880
0.434350 0.000000 0.363300
0.569177 0.000000 0.359055
0.703639 0.000000 0.355083
0.837821 0.000000 0.351322
0.971805 0.000000 0.347709
1.000000 0.000000 0.344182
0.014674 0.108831 0.376494
0.149359 0.103285 0.372356
0.283710 0.097823 0.368468
0.417810 0.092423 0.364768
0.551742 0.087064 0.361193
0.685590 0.081728 0.357683
0.819435 0.076391 0.354174
0.953362 0.071035 0.350604
1.000000 0.065637 0.346911
0.000000 0.248993 0.378230
0.131668 0.243646 0.374687
0.265505 0.238311 0.371184
0.399370 0.232970 0.367660
0.533347 0.227601 0.364052
0.667517 0.222183 0.360300
0.801964 0.216696 0.356339
0.936771 0.211120 0.352109
1.000000 0.205433 0.347548
0.000000 0.389545 0.381135
0.113358 0.384161 0.377482
0.247619 0.378720 0.373661
0.382187 0.373203 0.369609
0.517146 0.367589 0.365266
0.652577 0.361856 0.360568
0.788563 0.355984 0.355453
0.925188 0.349953 0.349859
1.000000 0.343791 0.343680
0.000000 0.529697 0.382841
0.097583 0.524042 0.378375
0.233207 0.518261 0.373532
0.369416 0.512333 0.368250
0.506294 0.506239 0.362467
0.644073 0.500199 0.355909
0.783218 0.494959 0.347922
0.923612 0.490488 0.338616
1.000000 0.486685 0.328161
0.000000 0.668660 0.380981
0.087500 0.662500 0.375000
0.225767 0.656721 0.367940
0.365386 0.651773 0.359453
0.506195 0.647557 0.349709
0.648033 0.643973 0.338879
0.790739 0.640922 0.327131
0.934152 0.638306 0.314638
1.000000 0.636025 0.301569
0.000000 0.808684 0.370818
0.088913 0.804709 0.360658
0.231086 0.801331 0.349474
0.374069 0.798450 0.337436
0.517699 0.795967 0.324713
0.661816 0.793784 0.311476
0.806259 0.791800 0.297896
0.950866 0.789918 0.284142
1.000000 0.788037 0.270385
0.000000 0.956031 0.347650
0.101310 0.953668 0.334720
0.245564 0.951569 0.321338
0.390086 0.949634 0.307675
0.534712 0.947763 0.293900
0.679283 0.945859 0.280184
0.823638 0.943821 0.266697
0.967614 0.941550 0.253609
1.000000 0.938948 0.241091
0.000000 1.000000 0.317439
0.118552 1.000000 0.303666
0.263062 1.000000 0.290014
0.407298 1.000000 0.276652
0.551096 1.000000 0.263752
0.694296 1.000000 0.251484
0.836736 1.000000 0.240017
0.978257 1.000000 0.229522
1.000000 1.000000 0.220170
0.020315 0.000000 0.516014
0.156513 0.000000 0.510740
0.292126 0.000000 0.505905
0.427238 0.000000 0.501446
0.561932 0.000000 0.497301
0.696290 0.000000 0.493408
0.830395 0.000000 0.489704
0.964331 0.000000 0.486127
1.000000 0.000000 0.482615
0.007511 0.102810 0.514679
0.142073 0.097294 0.510633
0.276329 0.091855 0.506816
0.410363 0.086472 0.503165
0.544257 0.081123 0.499620
0.678095 0.075789 0.496116
0.811958 0.070448 0.492594
0.945931 0.065080 0.488989
1.000000 0.059664 0.485241
0.000000 0.243047 0.516641
0.124176 0.237706 0.513118
0.258013 0.232372 0.509615
0.391907 0.227023 0.506070
0.525940 0.221640 0.502420
0.660195 0.216201 0.498604
0.794755 0.210686 0.494559
0.929703 0.205074 0.490223
1.000000 0.199345 0.485534
0.000000 0.383594 0.519532
0.105979 0.378193 0.515829
0.240335 0.372729 0.511936
0.375026 0.367181 0.507793
0.510136 0.361529 0.503336
0.645746 0.355751 0.498503
0.781940 0.349827 0.493232
0.918801 0.343737 0.487462
1.000000 0.337684 0.480933
0.000000 0.523662 0.520985
0.090636 0.517966 0.516398
0.226449 0.512138 0.511413
0.362876 0.506156 0.505968
0.500000 0.500000 0.500000
0.638232 0.494200 0.492978
0.777819 0.489232 0.484524
0.918601 0.484999 0.474808
1.000000 0.481401 0.464002
0.000000 0.662461 0.518634
0.081349 0.656311 0.512395
0.220093 0.650825 0.504832
0.360134 0.646137 0.495899
0.501311 0.642146 0.485767
0.643462 0.638754 0.474606
0.786426 0.635862 0.462586
0.930043 0.633371 0.449878
1.000000 0.631181 0.436652
0.000000 0.803134 0.507116
0.084150 0.799373 0.496589
0.226615 0.796174 0.485096
0.369836 0.793440 0.472806
0.513650 0.791070 0.459889
0.657895 0.788965 0.446517
0.802412 0.787027 0.432858
0.947038 0.785156 0.419084
1.000000 0.783253 0.405365
0.000000 0.951065 0.482942
0.097314 0.948803 0.469840
0.241677 0.946771 0.456344
0.386252 0.944869 0.442623
0.530878 0.942998 0.428849
0.675394 0.941059 0.415192
0.819637 0.938953 0.401821
0.963448 0.936581 0.388908
1.000000 0.933844 0.376622
0.000000 1.000000 0.452381
0.114703 1.000000 0.438630
0.259139 1.000000 0.425058
0.403243 1.000000 0.411834
0.546857 1.000000 0.399129
0.689817 1.000000 0.387114
0.831963 1.000000 0.375958
0.973134 1.000000 0.365832
1.000000 1.000000 0.356907
0.013694 0.000000 0.653792
0.149684 0.000000 0.648675
0.285117 0.000000 0.643974
0.420078 0.000000 0.639629
0.554648 0.000000 0.635576
0.688911 0.000000 0.631754
0.822950 0.000000 0.628100
0.956846 0.000000 0.624553
1.000000 0.000000 0.621049
0.000302 0.096799 0.652898
0.134751 0.091312 0.648937
0.268923 0.085894 0.645183
0.402900 0.080525 0.641575
0.536766 0.075184 0.638051
0.670603 0.069849 0.634548
0.804494 0.064501 0.631004
0.938523 0.059119 0.627358
1.000000 0.053682 0.623547
0.000000 0.237104 0.655061
0.116681 0.231767 0.651552
0.250528 0.226430 0.648041
0.384460 0.221073 0.644468
0.518559 0.215673 0.640768
0.652908 0.210210 0.636881
0.787590 0.204665 0.632745
0.922689 0.199015 0.628296
1.000000 0.193241 0.623473
0.000000 0.377638 0.657914
0.098629 0.372218 0.654154
0.233089 0.366728 0.650183
0.367914 0.361147 0.645940
0.503184 0.355454 0.641362
0.638983 0.349629 0.636388
0.775394 0.343651 0.630954
0.912500 0.337500 0.625000
1.000000 0.331678 0.618014
0.000000 0.517614 0.659091
0.083749 0.511875 0.654376
0.219762 0.505997 0.649241
0.356416 0.499958 0.643625
0.493836 0.493803 0.637409
0.632547 0.488297 0.629881
0.772558 0.483590 0.620980
0.913708 0.479583 0.610875
1.000000 0.476178 0.599737
0.000000 0.656242 0.656225
0.075366 0.650225 0.649613
0.214569 0.645021 0.641566
0.355013 0.640581 0.632207
0.496539 0.636805 0.621706
0.638984 0.633594 0.610234
0.782188 0.630849 0.597962
0.925989 0.628471 0.585059
1.000000 0.626361 0.571695
0.000000 0.797660 0.643282
0.079491 0.794101 0.632408
0.222232 0.791071 0.620626
0.365672 0.788471 0.608104
0.509650 0.786203 0.595013
0.654006 0.784166 0.581524
0.798578 0.782262 0.567807
0.943204 0.780391 0.554033
1.000000 0.778455 0.540370
0.000000 0.946138 0.618170
0.093361 0.943965 0.604915
0.237814 0.941988 0.591323
0.382425 0.940107 0.577566
0.527031 0.938224 0.563812
0.671472 0.936240 0.550233
0.815587 0.934055 0.536999
0.959214 0.931570 0.524279
1.000000 0.928687 0.512245
0.000000 1.000000 0.587325
0.110836 1.000000 0.573615
0.255177 1.000000 0.560142
0.399133 1.000000 0.547075
0.542542 1.000000 0.534585
0.685244 1.000000 0.522843
0.827077 1.000000 0.512018
0.967880 1.000000 0.502281
1.000000 1.000000 0.493801
0.006998 0.000000 0.791626
0.142790 0.000000 0.786657
0.278054 0.000000 0.782085
0.412873 0.000000 0.777845
0.547329 0.000000 0.773878
0.681507 0.000000 0.770120
0.815488 0.000000 0.766509
0.949355 0.000000 0.762984
1.000000 0.000000 0.759481
0.000000 0.090799 0.791148
0.127398 0.085338 0.787264
0.261494 0.079939 0.783567
0.395424 0.074581 0.779994
0.529271 0.069245 0.776484
0.663117 0.063908 0.772975
0.797046 0.058551 0.769403
0.931140 0.053153 0.765708
1.000000 0.047692 0.761826
0.000000 0.231163 0.793488
0.109186 0.225828 0.789985
0.243053 0.220487 0.786460
0.377032 0.215117 0.782851
0.511207 0.209698 0.779095
0.645660 0.204210 0.775130
0.780474 0.198631 0.770894
0.915732 0.192942 0.766326
1.000000 0.187121 0.761362
0.000000 0.371676 0.796279
0.091311 0.366235 0.792454
0.225886 0.360716 0.788398
0.360852 0.355099 0.784048
0.496293 0.349364 0.779343
0.632291 0.343490 0.774220
0.768928 0.337455 0.768616
0.906324 0.331296 0.762421
1.000000 0.325769 0.754929
0.000000 0.511552 0.797155
0.076927 0.505768 0.792305
0.213148 0.499838 0.787014
0.350040 0.493740 0.781220
0.487841 0.487710 0.774639
0.627011 0.482486 0.766626
0.767428 0.478028 0.757297
0.908929 0.474237 0.746822
1.000000 0.471013 0.735372
0.000000 0.650001 0.793749
0.069545 0.644239 0.786661
0.209187 0.639305 0.778148
0.350017 0.635101 0.768383
0.491873 0.631528 0.757533
0.634594 0.628487 0.745770
0.778019 0.625878 0.733265
0.921987 0.623602 0.720186
1.000000 0.621561 0.706705
0.000000 0.792258 0.779325
0.074933 0.788890 0.768123
0.217929 0.786018 0.756070
0.361569 0.783541 0.743336
0.505694 0.781362 0.730091
0.650141 0.779382 0.716506
0.794750 0.777500 0.702750
0.939359 0.775618 0.688994
1.000000 0.773638 0.675409
0.000000 0.941244 0.753339
0.089445 0.939149 0.739951
0.233969 0.937216 0.726284
0.378596 0.935346 0.712509
0.523165 0.933439 0.698795
0.667513 0.931398 0.685314
0.811481 0.929122 0.672235
0.954906 0.926513 0.659730
1.000000 0.923472 0.647967
0.000000 1.000000 0.722275
0.106942 1.000000 0.708627
0.251171 1.000000 0.695272
0.394959 1.000000 0.682383
0.538146 1.000000 0.670128
0.680571 1.000000 0.658678
0.822072 1.000000 0.648203
0.962489 1.000000 0.638874
1.000000 1.000000 0.630861
0.000232 0.000000 0.929513
0.135836 0.000000 0.924686
0.270939 0.000000 0.920233
0.405626 0.000000 0.916093
0.539978 0.000000 0.912204
0.674080 0.000000 0.908503
0.808013 0.000000 0.904928
0.941860 0.000000 0.901417
1.000000 0.000000 0.897908
0.000000 0.084809 0.929427
0.120016 0.079371 0.925613
0.254046 0.073988 0.921965
0.387939 0.068640 0.918421
0.521776 0.063306 0.914918
0.655641 0.057965 0.911394
0.789616 0.052596 0.907788
0.923785 0.047179 0.904036
1.000000 0.041692 0.900077
0.000000 0.225223 0.931920
0.101695 0.219889 0.928416
0.235590 0.214540 0.924870
0.369627 0.209156 0.921217
0.503887 0.203716 0.917398
0.638453 0.198199 0.913348
0.773409 0.192585 0.909006
0.908837 0.186853 0.904310
1.000000 0.180982 0.899197
0.000000 0.365708 0.934625
0.084029 0.360243 0.930728
0.218727 0.354693 0.926579
0.353845 0.349039 0.922116
0.489466 0.343258 0.917275
0.625672 0.337332 0.911996
0.762546 0.331239 0.906216
0.900318 0.325195 0.899665
1.000000 0.319951 0.891686
0.000000 0.505475 0.935176
0.070173 0.499644 0.930183
0.206612 0.493659 0.924728
0.343750 0.487500 0.918750
0.482009 0.481716 0.911699
0.621620 0.476764 0.903219
0.762423 0.472543 0.893482
0.904256 0.468956 0.882657
1.000000 0.465903 0.870915
0.000000 0.643817 0.931134
0.063879 0.638348 0.923544
0.203943 0.633673 0.914587
0.345140 0.629695 0.904434
0.487308 0.626313 0.893255
0.630286 0.623430 0.881221
0.773913 0.620945 0.868501
0.918028 0.618760 0.855267
1.000000 0.616776 0.841688
0.000000 0.786925 0.915249
0.070467 0.783736 0.903739
0.213700 0.781010 0.891436
0.357523 0.778645 0.878509
0.501775 0.776545 0.865130
0.646296 0.774609 0.851467
0.790922 0.772738 0.837693
0.935494 0.770834 0.823976
1.000000 0.768797 0.810487
0.000000 0.936381 0.888457
0.085559 0.934352 0.874955
0.230136 0.932451 0.861232
0.374762 0.930580 0.847458
0.519273 0.928639 0.833805
0.663511 0.926529 0.820441
0.807312 0.924151 0.807538
0.950516 0.921406 0.795266
1.000000 0.918195 0.783794
0.000000 1.000000 0.857240
0.103016 1.000000 0.843673
0.247114 1.000000 0.830457
0.390716 1.000000 0.817764
0.533662 1.000000 0.805763
0.675792 1.000000 0.794625
0.816942 1.000000 0.784520
0.956953 1.000000 0.775619
1.000000 1.000000 0.768091
0.000000 0.000000 1.000000
0.128824 0.000000 1.000000
0.263776 0.000000 1.000000
0.398340 0.000000 1.000000
0.532598 0.000000 1.000000
0.666633 0.000000 1.000000
0.800528 0.000000 1.000000
0.934365 0.000000 1.000000
1.000000 0.000000 1.000000
0.000000 0.078827 1.000000
0.112608 0.073411 1.000000
0.246582 0.068042 1.000000
0.380447 0.062701 1.000000
0.514284 0.057366 1.000000
0.648177 0.052018 1.000000
0.782209 0.046635 1.000000
0.916463 0.041197 1.000000
1.000000 0.035682 1.000000
0.000000 0.219284 1.000000
0.094210 0.213947 1.000000
0.228144 0.208589 1.000000
0.362247 0.203188 1.000000
0.496602 0.197725 1.000000
0.631291 0.192177 1.000000
0.766398 0.186525 1.000000
0.902005 0.180749 1.000000
1.000000 0.174826 1.000000
0.000000 0.359733 1.000000
0.076785 0.354241 1.000000
0.211617 0.348658 1.000000
0.346897 0.342963 1.000000
0.482707 0.337136 1.000000
0.619130 0.331155 1.000000
0.756250 0.325000 1.000000
0.894474 0.319195 1.000000
1.000000 0.314223 1.000000
0.000000 0.499384 1.000000
0.063489 0.493503 1.000000
0.200157 0.487461 1.000000
0.337596 0.481309 1.000000
0.476332 0.475819 1.000000
0.616366 0.471126 1.000000
0.757537 0.467132 1.000000
0.899683 0.463737 1.000000
1.000000 0.460842 1.000000
0.000000 0.637737 1.000000
0.058363 0.632549 1.000000
0.198830 0.628122 1.000000
0.340374 0.624357 1.000000
0.482835 0.621156 1.000000
0.626052 0.618419 1.000000
0.769863 0.616047 1.000000
0.914106 0.613941 0.990308
1.000000 0.612002 0.976651
0.000000 0.781657 1.000000
0.066087 0.778636 1.000000
0.209539 0.776044 1.000000
0.353526 0.773780 1.000000
0.497888 0.771747 1.000000
0.642462 0.769844 0.986416
0.787088 0.767973 0.972642
0.931605 0.766035 0.958983
1.000000 0.763930 0.945611
0.000000 0.931544 1.000000
0.081697 0.929569 1.000000
0.226309 0.927690 0.996174
0.370914 0.925806 0.982422
0.515350 0.923819 0.968848
0.659457 0.921629 0.955622
0.803074 0.919138 0.942914
0.946038 0.916246 0.930894
1.000000 0.912854 0.919733
0.000000 1.000000 0.992226
0.099052 1.000000 0.978759
0.242999 1.000000 0.965702
0.386397 1.000000 0.953224
0.529084 1.000000 0.941498
0.670899 1.000000 0.930692
0.811681 1.000000 0.920976
0.951268 1.000000 0.912522
1.000000 1.000000 0.905500
