assets/luts/high-contrast.cube
# High contrast: bold blacks and brights.
# Generated procedurally by videokit gen-luts.py
TITLE "high-contrast"
LUT_3D_SIZE 9
DOMAIN_MIN 0.0 0.0 0.0
DOMAIN_MAX 1.0 1.0 1.0
0.057324 0.057324 0.057324
0.116000 0.053873 0.053873
0.216548 0.047958 0.047958
0.368411 0.039025 0.039025
0.559023 0.027812 0.027812
0.749636 0.016600 0.016600
0.901499 0.007667 0.007667
1.000000 0.001752 0.001752
1.000000 0.000000 0.000000
0.053873 0.116000 0.053873
0.112548 0.112548 0.050421
0.213097 0.106634 0.044507
0.364959 0.097701 0.035573
0.555572 0.086488 0.024361
0.746185 0.075276 0.013148
0.898047 0.066343 0.004215
0.998596 0.060428 0.000000
1.000000 0.056976 0.000000
0.047958 0.216548 0.047958
0.106634 0.213097 0.044507
0.207182 0.207182 0.038592
0.359045 0.198249 0.029659
0.549657 0.187037 0.018446
0.740270 0.175824 0.007234
0.892132 0.166891 0.000000
0.992681 0.160976 0.000000
1.000000 0.157525 0.000000
0.039025 0.368411 0.039025
0.097701 0.364959 0.035573
0.198249 0.359045 0.029659
0.350111 0.350111 0.020726
0.540724 0.338899 0.009513
0.731337 0.327686 0.000000
0.883199 0.318753 0.000000
0.983748 0.312839 0.000000
1.000000 0.309387 0.000000
0.027812 0.559023 0.027812
0.086488 0.555572 0.024361
0.187037 0.549657 0.018446
0.338899 0.540724 0.009513
0.529512 0.529512 0.000000
0.720125 0.518299 0.000000
0.871987 0.509366 0.000000
0.972535 0.503452 0.000000
1.000000 0.500000 0.000000
0.016600 0.749636 0.016600
0.075276 0.746185 0.013148
0.175824 0.740270 0.007234
0.327686 0.731337 0.000000
0.518299 0.720125 0.000000
0.708912 0.708912 0.000000
0.860774 0.699979 0.000000
0.961323 0.694064 0.000000
1.000000 0.690613 0.000000
0.007667 0.901499 0.007667
0.066343 0.898047 0.004215
0.166891 0.892132 0.000000
0.318753 0.883199 0.000000
0.509366 0.871987 0.000000
0.699979 0.860774 0.000000
0.851841 0.851841 0.000000
0.952390 0.845927 0.000000
1.000000 0.842475 0.000000
0.001752 1.000000 0.001752
0.060428 0.998596 0.000000
0.160976 0.992681 0.000000
0.312839 0.983748 0.000000
0.503452 0.972535 0.000000
0.694064 0.961323 0.000000
0.845927 0.952390 0.000000
0.946475 0.946475 0.000000
1.000000 0.943024 0.000000
0.000000 1.000000 0.000000
0.056976 1.000000 0.000000
0.157525 1.000000 0.000000
0.309387 1.000000 0.000000
0.500000 1.000000 0.000000
0.690613 1.000000 0.000000
0.842475 1.000000 0.000000
0.943024 1.000000 0.000000
1.000000 1.000000 0.000000
0.053873 0.053873 0.116000
0.112548 0.050421 0.112548
0.213097 0.044507 0.106634
0.364959 0.035573 0.097701
0.555572 0.024361 0.086488
0.746185 0.013148 0.075276
0.898047 0.004215 0.066343
0.998596 0.000000 0.060428
1.000000 0.000000 0.056976
0.050421 0.112548 0.112548
0.109097 0.109097 0.109097
0.209645 0.103182 0.103182
0.361508 0.094249 0.094249
0.552120 0.083037 0.083037
0.742733 0.071824 0.071824
0.894595 0.062891 0.062891
0.995144 0.056976 0.056976
1.000000 0.053525 0.053525
0.044507 0.213097 0.106634
0.103182 0.209645 0.103182
0.203731 0.203731 0.097268
0.355593 0.194798 0.088335
0.546206 0.183585 0.077122
0.736819 0.172373 0.065909
0.888681 0.163440 0.056976
0.989229 0.157525 0.051062
1.000000 0.154073 0.047610
0.035573 0.364959 0.097701
0.094249 0.361508 0.094249
0.194798 0.355593 0.088335
0.346660 0.346660 0.079401
0.537273 0.335447 0.068189
0.727886 0.324235 0.056976
0.879748 0.315302 0.048043
0.980296 0.309387 0.042129
1.000000 0.305936 0.038677
0.024361 0.555572 0.086488
0.083037 0.552120 0.083037
0.183585 0.546206 0.077122
0.335447 0.537273 0.068189
0.526060 0.526060 0.056976
0.716673 0.514848 0.045764
0.868535 0.505915 0.036831
0.969084 0.500000 0.030916
1.000000 0.496548 0.027465
0.013148 0.746185 0.075276
0.071824 0.742733 0.071824
0.172373 0.736819 0.065909
0.324235 0.727886 0.056976
0.514848 0.716673 0.045764
0.705461 0.705461 0.034551
0.857323 0.696527 0.025618
0.957871 0.690613 0.019704
1.000000 0.687161 0.016252
0.004215 0.898047 0.066343
0.062891 0.894595 0.062891
0.163440 0.888681 0.056976
0.315302 0.879748 0.048043
0.505915 0.868535 0.036831
0.696527 0.857323 0.025618
0.848390 0.848390 0.016685
0.948938 0.842475 0.010771
1.000000 0.839024 0.007319
0.000000 0.998596 0.060428
0.056976 0.995144 0.056976
0.157525 0.989229 0.051062
0.309387 0.980296 0.042129
0.500000 0.969084 0.030916
0.690613 0.957871 0.019704
0.842475 0.948938 0.010771
0.943024 0.943024 0.004856
1.000000 0.939572 0.001404
0.000000 1.000000 0.056976
0.053525 1.000000 0.053525
0.154073 1.000000 0.047610
0.305936 1.000000 0.038677
0.496548 1.000000 0.027465
0.687161 1.000000 0.016252
0.839024 1.000000 0.007319
0.939572 1.000000 0.001404
0.998248 0.998248 0.000000
0.047958 0.047958 0.216548
0.106634 0.044507 0.213097
0.207182 0.038592 0.207182
0.359045 0.029659 0.198249
0.549657 0.018446 0.187037
0.740270 0.007234 0.175824
0.892132 0.000000 0.166891
0.992681 0.000000 0.160976
1.000000 0.000000 0.157525
0.044507 0.106634 0.213097
0.103182 0.103182 0.209645
0.203731 0.097268 0.203731
0.355593 0.088335 0.194798
0.546206 0.077122 0.183585
0.736819 0.065909 0.172373
0.888681 0.056976 0.163440
0.989229 0.051062 0.157525
1.000000 0.047610 0.154073
0.038592 0.207182 0.207182
0.097268 0.203731 0.203731
0.197816 0.197816 0.197816
0.349678 0.188883 0.188883
0.540291 0.177671 0.177671
0.730904 0.166458 0.166458
0.882766 0.157525 0.157525
0.983315 0.151610 0.151610
1.000000 0.148159 0.148159
0.029659 0.359045 0.198249
0.088335 0.355593 0.194798
0.188883 0.349678 0.188883
0.340745 0.340745 0.179950
0.531358 0.329533 0.168737
0.721971 0.318320 0.157525
0.873833 0.309387 0.148592
0.974382 0.303473 0.142677
1.000000 0.300021 0.139226
0.018446 0.549657 0.187037
0.077122 0.546206 0.183585
0.177671 0.540291 0.177671
0.329533 0.531358 0.168737
0.520146 0.520146 0.157525
0.710758 0.508933 0.146312
0.862621 0.500000 0.137379
0.963169 0.494085 0.131465
1.000000 0.490634 0.128013
0.007234 0.740270 0.175824
0.065909 0.736819 0.172373
0.166458 0.730904 0.166458
0.318320 0.721971 0.157525
0.508933 0.710758 0.146312
0.699546 0.699546 0.135100
0.851408 0.690613 0.126167
0.951957 0.684698 0.120252
1.000000 0.681247 0.116801
0.000000 0.892132 0.166891
0.056976 0.888681 0.163440
0.157525 0.882766 0.157525
0.309387 0.873833 0.148592
0.500000 0.862621 0.137379
0.690613 0.851408 0.126167
0.842475 0.842475 0.117234
0.943024 0.836560 0.111319
1.000000 0.833109 0.107868
0.000000 0.992681 0.160976
0.051062 0.989229 0.157525
0.151610 0.983315 0.151610
0.303473 0.974382 0.142677
0.494085 0.963169 0.131465
0.684698 0.951957 0.120252
0.836560 0.943024 0.111319
0.937109 0.937109 0.105405
0.995785 0.933657 0.101953
0.000000 1.000000 0.157525
0.047610 1.000000 0.154073
0.148159 1.000000 0.148159
0.300021 1.000000 0.139226
0.490634 1.000000 0.128013
0.681247 1.000000 0.116801
0.833109 1.000000 0.107868
0.933657 0.995785 0.101953
0.992333 0.992333 0.098501
0.039025 0.039025 0.368411
0.097701 0.035573 0.364959
0.198249 0.029659 0.359045
0.350111 0.020726 0.350111
0.540724 0.009513 0.338899
0.731337 0.000000 0.327686
0.883199 0.000000 0.318753
0.983748 0.000000 0.312839
1.000000 0.000000 0.309387
0.035573 0.097701 0.364959
0.094249 0.094249 0.361508
0.194798 0.088335 0.355593
0.346660 0.079401 0.346660
0.537273 0.068189 0.335447
0.727886 0.056976 0.324235
0.879748 0.048043 0.315302
0.980296 0.042129 0.309387
1.000000 0.038677 0.305936
0.029659 0.198249 0.359045
0.088335 0.194798 0.355593
0.188883 0.188883 0.349678
0.340745 0.179950 0.340745
0.531358 0.168737 0.329533
0.721971 0.157525 0.318320
0.873833 0.148592 0.309387
0.974382 0.142677 0.303473
1.000000 0.139226 0.300021
0.020726 0.350111 0.350111
0.079401 0.346660 0.346660
0.179950 0.340745 0.340745
0.331812 0.331812 0.331812
0.522425 0.320600 0.320600
0.713038 0.309387 0.309387
0.864900 0.300454 0.300454
0.965449 0.294539 0.294539
1.000000 0.291088 0.291088
0.009513 0.540724 0.338899
0.068189 0.537273 0.335447
0.168737 0.531358 0.329533
0.320600 0.522425 0.320600
0.511213 0.511213 0.309387
0.701825 0.500000 0.298175
0.853688 0.491067 0.289242
0.954236 0.485152 0.283327
1.000000 0.481701 0.279875
0.000000 0.731337 0.327686
0.056976 0.727886 0.324235
0.157525 0.721971 0.318320
0.309387 0.713038 0.309387
0.500000 0.701825 0.298175
0.690613 0.690613 0.286962
0.842475 0.681680 0.278029
0.943024 0.675765 0.272114
1.000000 0.672314 0.268663
0.000000 0.883199 0.318753
0.048043 0.879748 0.315302
0.148592 0.873833 0.309387
0.300454 0.864900 0.300454
0.491067 0.853688 0.289242
0.681680 0.842475 0.278029
0.833542 0.833542 0.269096
0.934091 0.827627 0.263181
0.992766 0.824176 0.259730
0.000000 0.983748 0.312839
0.042129 0.980296 0.309387
0.142677 0.974382 0.303473
0.294539 0.965449 0.294539
0.485152 0.954236 0.283327
0.675765 0.943024 0.272114
0.827627 0.934091 0.263181
0.928176 0.928176 0.257267
0.986852 0.924724 0.253815
0.000000 1.000000 0.309387
0.038677 1.000000 0.305936
0.139226 1.000000 0.300021
0.291088 1.000000 0.291088
0.481701 1.000000 0.279875
0.672314 1.000000 0.268663
0.824176 0.992766 0.259730
0.924724 0.986852 0.253815
0.983400 0.983400 0.250364
0.027812 0.027812 0.559023
0.086488 0.024361 0.555572
0.187037 0.018446 0.549657
0.338899 0.009513 0.540724
0.529512 0.000000 0.529512
0.720125 0.000000 0.518299
0.871987 0.000000 0.509366
0.972535 0.000000 0.503452
1.000000 0.000000 0.500000
0.024361 0.086488 0.555572
0.083037 0.083037 0.552120
0.183585 0.077122 0.546206
0.335447 0.068189 0.537273
0.526060 0.056976 0.526060
0.716673 0.045764 0.514848
0.868535 0.036831 0.505915
0.969084 0.030916 0.500000
1.000000 0.027465 0.496548
0.018446 0.187037 0.549657
0.077122 0.183585 0.546206
0.177671 0.177671 0.540291
0.329533 0.168737 0.531358
0.520146 0.157525 0.520146
0.710758 0.146312 0.508933
0.862621 0.137379 0.500000
0.963169 0.131465 0.494085
1.000000 0.128013 0.490634
0.009513 0.338899 0.540724
0.068189 0.335447 0.537273
0.168737 0.329533 0.531358
0.320600 0.320600 0.522425
0.511213 0.309387 0.511213
0.701825 0.298175 0.500000
0.853688 0.289242 0.491067
0.954236 0.283327 0.485152
1.000000 0.279875 0.481701
0.000000 0.529512 0.529512
0.056976 0.526060 0.526060
0.157525 0.520146 0.520146
0.309387 0.511213 0.511213
0.500000 0.500000 0.500000
0.690613 0.488787 0.488787
0.842475 0.479854 0.479854
0.943024 0.473940 0.473940
1.000000 0.470488 0.470488
0.000000 0.720125 0.518299
0.045764 0.716673 0.514848
0.146312 0.710758 0.508933
0.298175 0.701825 0.500000
0.488787 0.690613 0.488787
0.679400 0.679400 0.477575
0.831263 0.670467 0.468642
0.931811 0.664553 0.462727
0.990487 0.661101 0.459276
0.000000 0.871987 0.509366
0.036831 0.868535 0.505915
0.137379 0.862621 0.500000
0.289242 0.853688 0.491067
0.479854 0.842475 0.479854
0.670467 0.831263 0.468642
0.822329 0.822329 0.459709
0.922878 0.816415 0.453794
0.981554 0.812963 0.450343
0.000000 0.972535 0.503452
0.030916 0.969084 0.500000
0.131465 0.963169 0.494085
0.283327 0.954236 0.485152
0.473940 0.943024 0.473940
0.664553 0.931811 0.462727
0.816415 0.922878 0.453794
0.916963 0.916963 0.447880
0.975639 0.913512 0.444428
0.000000 1.000000 0.500000
0.027465 1.000000 0.496548
0.128013 1.000000 0.490634
0.279875 1.000000 0.481701
0.470488 1.000000 0.470488
0.661101 0.990487 0.459276
0.812963 0.981554 0.450343
0.913512 0.975639 0.444428
0.972188 0.972188 0.440977
0.016600 0.016600 0.749636
0.075276 0.013148 0.746185
0.175824 0.007234 0.740270
0.327686 0.000000 0.731337
0.518299 0.000000 0.720125
0.708912 0.000000 0.708912
0.860774 0.000000 0.699979
0.961323 0.000000 0.694064
1.000000 0.000000 0.690613
0.013148 0.075276 0.746185
0.071824 0.071824 0.742733
0.172373 0.065909 0.736819
0.324235 0.056976 0.727886
0.514848 0.045764 0.716673
0.705461 0.034551 0.705461
0.857323 0.025618 0.696527
0.957871 0.019704 0.690613
1.000000 0.016252 0.687161
0.007234 0.175824 0.740270
0.065909 0.172373 0.736819
0.166458 0.166458 0.730904
0.318320 0.157525 0.721971
0.508933 0.146312 0.710758
0.699546 0.135100 0.699546
0.851408 0.126167 0.690613
0.951957 0.120252 0.684698
1.000000 0.116801 0.681247
0.000000 0.327686 0.731337
0.056976 0.324235 0.727886
0.157525 0.318320 0.721971
0.309387 0.309387 0.713038
0.500000 0.298175 0.701825
0.690613 0.286962 0.690613
0.842475 0.278029 0.681680
0.943024 0.272114 0.675765
1.000000 0.268663 0.672314
0.000000 0.518299 0.720125
0.045764 0.514848 0.716673
0.146312 0.508933 0.710758
0.298175 0.500000 0.701825
0.488787 0.488787 0.690613
0.679400 0.477575 0.679400
0.831263 0.468642 0.670467
0.931811 0.462727 0.664553
0.990487 0.459276 0.661101
0.000000 0.708912 0.708912
0.034551 0.705461 0.705461
0.135100 0.699546 0.699546
0.286962 0.690613 0.690613
0.477575 0.679400 0.679400
0.668188 0.668188 0.668188
0.820050 0.659255 0.659255
0.920599 0.653340 0.653340
0.979274 0.649889 0.649889
0.000000 0.860774 0.699979
0.025618 0.857323 0.696527
0.126167 0.851408 0.690613
0.278029 0.842475 0.681680
0.468642 0.831263 0.670467
0.659255 0.820050 0.659255
0.811117 0.811117 0.650322
0.911665 0.805202 0.644407
0.970341 0.801751 0.640955
0.000000 0.961323 0.694064
0.019704 0.957871 0.690613
0.120252 0.951957 0.684698
0.272114 0.943024 0.675765
0.462727 0.931811 0.664553
0.653340 0.920599 0.653340
0.805202 0.911665 0.644407
0.905751 0.905751 0.638492
0.964427 0.902299 0.635041
0.000000 1.000000 0.690613
0.016252 1.000000 0.687161
0.116801 1.000000 0.681247
0.268663 1.000000 0.672314
0.459276 0.990487 0.661101
0.649889 0.979274 0.649889
0.801751 0.970341 0.640955
0.902299 0.964427 0.635041
0.960975 0.960975 0.631589
0.007667 0.007667 0.901499
0.066343 0.004215 0.898047
0.166891 0.000000 0.892132
0.318753 0.000000 0.883199
0.509366 0.000000 0.871987
0.699979 0.000000 0.860774
0.851841 0.000000 0.851841
0.952390 0.000000 0.845927
1.000000 0.000000 0.842475
0.004215 0.066343 0.898047
0.062891 0.062891 0.894595
0.163440 0.056976 0.888681
0.315302 0.048043 0.879748
0.505915 0.036831 0.868535
0.696527 0.025618 0.857323
0.848390 0.016685 0.848390
0.948938 0.010771 0.842475
1.000000 0.007319 0.839024
0.000000 0.166891 0.892132
0.056976 0.163440 0.888681
0.157525 0.157525 0.882766
0.309387 0.148592 0.873833
0.500000 0.137379 0.862621
0.690613 0.126167 0.851408
0.842475 0.117234 0.842475
0.943024 0.111319 0.836560
1.000000 0.107868 0.833109
0.000000 0.318753 0.883199
0.048043 0.315302 0.879748
0.148592 0.309387 0.873833
0.300454 0.300454 0.864900
0.491067 0.289242 0.853688
0.681680 0.278029 0.842475
0.833542 0.269096 0.833542
0.934091 0.263181 0.827627
0.992766 0.259730 0.824176
0.000000 0.509366 0.871987
0.036831 0.505915 0.868535
0.137379 0.500000 0.862621
0.289242 0.491067 0.853688
0.479854 0.479854 0.842475
0.670467 0.468642 0.831263
0.822329 0.459709 0.822329
0.922878 0.453794 0.816415
0.981554 0.450343 0.812963
0.000000 0.699979 0.860774
0.025618 0.696527 0.857323
0.126167 0.690613 0.851408
0.278029 0.681680 0.842475
0.468642 0.670467 0.831263
0.659255 0.659255 0.820050
0.811117 0.650322 0.811117
0.911665 0.644407 0.805202
0.970341 0.640955 0.801751
0.000000 0.851841 0.851841
0.016685 0.848390 0.848390
0.117234 0.842475 0.842475
0.269096 0.833542 0.833542
0.459709 0.822329 0.822329
0.650322 0.811117 0.811117
0.802184 0.802184 0.802184
0.902732 0.796269 0.796269
0.961408 0.792818 0.792818
0.000000 0.952390 0.845927
0.010771 0.948938 0.842475
0.111319 0.943024 0.836560
0.263181 0.934091 0.827627
0.453794 0.922878 0.816415
0.644407 0.911665 0.805202
0.796269 0.902732 0.796269
0.896818 0.896818 0.790355
0.955493 0.893366 0.786903
0.000000 1.000000 0.842475
0.007319 1.000000 0.839024
0.107868 1.000000 0.833109
0.259730 0.992766 0.824176
0.450343 0.981554 0.812963
0.640955 0.970341 0.801751
0.792818 0.961408 0.792818
0.893366 0.955493 0.786903
0.952042 0.952042 0.783452
0.001752 0.001752 1.000000
0.060428 0.000000 0.998596
0.160976 0.000000 0.992681
0.312839 0.000000 0.983748
0.503452 0.000000 0.972535
0.694064 0.000000 0.961323
0.845927 0.000000 0.952390
0.946475 0.000000 0.946475
1.000000 0.000000 0.943024
0.000000 0.060428 0.998596
0.056976 0.056976 0.995144
0.157525 0.051062 0.989229
0.309387 0.042129 0.980296
0.500000 0.030916 0.969084
0.690613 0.019704 0.957871
0.842475 0.010771 0.948938
0.943024 0.004856 0.943024
1.000000 0.001404 0.939572
0.000000 0.160976 0.992681
0.051062 0.157525 0.989229
0.151610 0.151610 0.983315
0.303473 0.142677 0.974382
0.494085 0.131465 0.963169
0.684698 0.120252 0.951957
0.836560 0.111319 0.943024
0.937109 0.105405 0.937109
0.995785 0.101953 0.933657
0.000000 0.312839 0.983748
0.042129 0.309387 0.980296
0.142677 0.303473 0.974382
0.294539 0.294539 0.965449
0.485152 0.283327 0.954236
0.675765 0.272114 0.943024
0.827627 0.263181 0.934091
0.928176 0.257267 0.928176
0.986852 0.253815 0.924724
0.000000 0.503452 0.972535
0.030916 0.500000 0.969084
0.131465 0.494085 0.963169
0.283327 0.485152 0.954236
0.473940 0.473940 0.943024
0.664553 0.462727 0.931811
0.816415 0.453794 0.922878
0.916963 0.447880 0.916963
0.975639 0.444428 0.913512
0.000000 0.694064 0.961323
0.019704 0.690613 0.957871
0.120252 0.684698 0.951957
0.272114 0.675765 0.943024
0.462727 0.664553 0.931811
0.653340 0.653340 0.920599
0.805202 0.644407 0.911665
0.905751 0.638492 0.905751
0.964427 0.635041 0.902299
0.000000 0.845927 0.952390
0.010771 0.842475 0.948938
0.111319 0.836560 0.943024
0.263181 0.827627 0.934091
0.453794 0.816415 0.922878
0.644407 0.805202 0.911665
0.796269 0.796269 0.902732
0.896818 0.790355 0.896818
0.955493 0.786903 0.893366
0.000000 0.946475 0.946475
0.004856 0.943024 0.943024
0.105405 0.937109 0.937109
0.257267 0.928176 0.928176
0.447880 0.916963 0.916963
0.638492 0.905751 0.905751
0.790355 0.896818 0.896818
0.890903 0.890903 0.890903
0.949579 0.887452 0.887452
0.000000 1.000000 0.943024
0.001404 1.000000 0.939572
0.101953 0.995785 0.933657
0.253815 0.986852 0.924724
0.444428 0.975639 0.913512
0.635041 0.964427 0.902299
0.786903 0.955493 0.893366
0.887452 0.949579 0.887452
0.946127 0.946127 0.884000
0.000000 0.000000 1.000000
0.056976 0.000000 1.000000
0.157525 0.000000 1.000000
0.309387 0.000000 1.000000
0.500000 0.000000 1.000000
0.690613 0.000000 1.000000
0.842475 0.000000 1.000000
0.943024 0.000000 1.000000
1.000000 0.000000 1.000000
0.000000 0.056976 1.000000
0.053525 0.053525 1.000000
0.154073 0.047610 1.000000
0.305936 0.038677 1.000000
0.496548 0.027465 1.000000
0.687161 0.016252 1.000000
0.839024 0.007319 1.000000
0.939572 0.001404 1.000000
0.998248 0.000000 0.998248
0.000000 0.157525 1.000000
0.047610 0.154073 1.000000
0.148159 0.148159 1.000000
0.300021 0.139226 1.000000
0.490634 0.128013 1.000000
0.681247 0.116801 1.000000
0.833109 0.107868 1.000000
0.933657 0.101953 0.995785
0.992333 0.098501 0.992333
0.000000 0.309387 1.000000
0.038677 0.305936 1.000000
0.139226 0.300021 1.000000
0.291088 0.291088 1.000000
0.481701 0.279875 1.000000
0.672314 0.268663 1.000000
0.824176 0.259730 0.992766
0.924724 0.253815 0.986852
0.983400 0.250364 0.983400
0.000000 0.500000 1.000000
0.027465 0.496548 1.000000
0.128013 0.490634 1.000000
0.279875 0.481701 1.000000
0.470488 0.470488 1.000000
0.661101 0.459276 0.990487
0.812963 0.450343 0.981554
0.913512 0.444428 0.975639
0.972188 0.440977 0.972188
0.000000 0.690613 1.000000
0.016252 0.687161 1.000000
0.116801 0.681247 1.000000
0.268663 0.672314 1.000000
0.459276 0.661101 0.990487
0.649889 0.649889 0.979274
0.801751 0.640955 0.970341
0.902299 0.635041 0.964427
0.960975 0.631589 0.960975
0.000000 0.842475 1.000000
0.007319 0.839024 1.000000
0.107868 0.833109 1.000000
0.259730 0.824176 0.992766
0.450343 0.812963 0.981554
0.640955 0.801751 0.970341
0.792818 0.792818 0.961408
0.893366 0.786903 0.955493
0.952042 0.783452 0.952042
0.000000 0.943024 1.000000
0.001404 0.939572 1.000000
0.101953 0.933657 0.995785
0.253815 0.924724 0.986852
0.444428 0.913512 0.975639
0.635041 0.902299 0.964427
0.786903 0.893366 0.955493
0.887452 0.887452 0.949579
0.946127 0.884000 0.946127
0.000000 1.000000 1.000000
0.000000 0.998248 0.998248
0.098501 0.992333 0.992333
0.250364 0.983400 0.983400
0.440977 0.972188 0.972188
0.631589 0.960975 0.960975
0.783452 0.952042 0.952042
0.884000 0.946127 0.946127
0.942676 0.942676 0.942676
