assets/luts/high-contrast.cube
# High contrast: bold blacks and brights.
# Generated procedurally by videokit gen-luts.py
TITLE "high-contrast"
LUT_3D_SIZE 17
DOMAIN_MIN 0.0 0.0 0.0
DOMAIN_MAX 1.0 1.0 1.0
0.057324 0.057324 0.057324
0.082387 0.055850 0.055850
0.116000 0.053873 0.053873
0.160144 0.051276 0.051276
0.216548 0.047958 0.047958
0.286145 0.043864 0.043864
0.368411 0.039025 0.039025
0.460857 0.033587 0.033587
0.559023 0.027812 0.027812
0.657190 0.022038 0.022038
0.749636 0.016600 0.016600
0.831902 0.011761 0.011761
0.901499 0.007667 0.007667
0.957903 0.004349 0.004349
1.000000 0.001752 0.001752
1.000000 0.000000 0.000000
1.000000 0.000000 0.000000
0.055850 0.082387 0.055850
0.080913 0.080913 0.054376
0.114526 0.078936 0.052398
0.158669 0.076339 0.049802
0.215074 0.073021 0.046484
0.284671 0.068927 0.042390
0.366936 0.064088 0.037551
0.459383 0.058650 0.032113
0.557549 0.052875 0.026338
0.655716 0.047101 0.020564
0.748162 0.041663 0.015126
0.830427 0.036824 0.010287
0.900024 0.032730 0.006193
0.956429 0.029412 0.002875
1.000000 0.026815 0.000278
1.000000 0.024838 0.000000
1.000000 0.023364 0.000000
0.053873 0.116000 0.053873
0.078936 0.114526 0.052398
0.112548 0.112548 0.050421
0.156692 0.109952 0.047824
0.213097 0.106634 0.044507
0.282694 0.102540 0.040413
0.364959 0.097701 0.035573
0.457405 0.092263 0.030135
0.555572 0.086488 0.024361
0.653739 0.080714 0.018586
0.746185 0.075276 0.013148
0.828450 0.070436 0.008309
0.898047 0.066343 0.004215
0.954452 0.063025 0.000897
0.998596 0.060428 0.000000
1.000000 0.058451 0.000000
1.000000 0.056976 0.000000
0.051276 0.160144 0.051276
0.076339 0.158669 0.049802
0.109952 0.156692 0.047824
0.154095 0.154095 0.045228
0.210500 0.150777 0.041910
0.280097 0.146684 0.037816
0.362362 0.141844 0.032977
0.454809 0.136406 0.027539
0.552975 0.130632 0.021764
0.651142 0.124857 0.015990
0.743588 0.119419 0.010552
0.825853 0.114580 0.005713
0.895450 0.110486 0.001619
0.951855 0.107168 0.000000
0.995999 0.104572 0.000000
1.000000 0.102594 0.000000
1.000000 0.101120 0.000000
0.047958 0.216548 0.047958
0.073021 0.215074 0.046484
0.106634 0.213097 0.044507
0.150777 0.210500 0.041910
0.207182 0.207182 0.038592
0.276779 0.203088 0.034498
0.359045 0.198249 0.029659
0.451491 0.192811 0.024221
0.549657 0.187037 0.018446
0.647824 0.181262 0.012672
0.740270 0.175824 0.007234
0.822536 0.170985 0.002395
0.892132 0.166891 0.000000
0.948537 0.163573 0.000000
0.992681 0.160976 0.000000
1.000000 0.158999 0.000000
1.000000 0.157525 0.000000
0.043864 0.286145 0.043864
0.068927 0.284671 0.042390
0.102540 0.282694 0.040413
0.146684 0.280097 0.037816
0.203088 0.276779 0.034498
0.272685 0.272685 0.030404
0.354951 0.267846 0.025565
0.447397 0.262408 0.020127
0.545563 0.256634 0.014352
0.643730 0.250859 0.008578
0.736176 0.245421 0.003140
0.818442 0.240582 0.000000
0.888038 0.236488 0.000000
0.944443 0.233170 0.000000
0.988587 0.230573 0.000000
1.000000 0.228596 0.000000
1.000000 0.227122 0.000000
0.039025 0.368411 0.039025
0.064088 0.366936 0.037551
0.097701 0.364959 0.035573
0.141844 0.362362 0.032977
0.198249 0.359045 0.029659
0.267846 0.354951 0.025565
0.350111 0.350111 0.020726
0.442558 0.344673 0.015288
0.540724 0.338899 0.009513
0.638891 0.333124 0.003739
0.731337 0.327686 0.000000
0.813602 0.322847 0.000000
0.883199 0.318753 0.000000
0.939604 0.315435 0.000000
0.983748 0.312839 0.000000
1.000000 0.310861 0.000000
1.000000 0.309387 0.000000
0.033587 0.460857 0.033587
0.058650 0.459383 0.032113
0.092263 0.457405 0.030135
0.136406 0.454809 0.027539
0.192811 0.451491 0.024221
0.262408 0.447397 0.020127
0.344673 0.442558 0.015288
0.437120 0.437120 0.009850
0.535286 0.431345 0.004075
0.633453 0.425571 0.000000
0.725899 0.420133 0.000000
0.808164 0.415293 0.000000
0.877761 0.411200 0.000000
0.934166 0.407882 0.000000
0.978310 0.405285 0.000000
1.000000 0.403308 0.000000
1.000000 0.401833 0.000000
0.027812 0.559023 0.027812
0.052875 0.557549 0.026338
0.086488 0.555572 0.024361
0.130632 0.552975 0.021764
0.187037 0.549657 0.018446
0.256634 0.545563 0.014352
0.338899 0.540724 0.009513
0.431345 0.535286 0.004075
0.529512 0.529512 0.000000
0.627678 0.523737 0.000000
0.720125 0.518299 0.000000
0.802390 0.513460 0.000000
0.871987 0.509366 0.000000
0.928392 0.506048 0.000000
0.972535 0.503452 0.000000
1.000000 0.501474 0.000000
1.000000 0.500000 0.000000
0.022038 0.657190 0.022038
0.047101 0.655716 0.020564
0.080714 0.653739 0.018586
0.124857 0.651142 0.015990
0.181262 0.647824 0.012672
0.250859 0.643730 0.008578
0.333124 0.638891 0.003739
0.425571 0.633453 0.000000
0.523737 0.627678 0.000000
0.621904 0.621904 0.000000
0.714350 0.616466 0.000000
0.796615 0.611627 0.000000
0.866212 0.607533 0.000000
0.922617 0.604215 0.000000
0.966761 0.601618 0.000000
1.000000 0.599641 0.000000
1.000000 0.598167 0.000000
0.016600 0.749636 0.016600
0.041663 0.748162 0.015126
0.075276 0.746185 0.013148
0.119419 0.743588 0.010552
0.175824 0.740270 0.007234
0.245421 0.736176 0.003140
0.327686 0.731337 0.000000
0.420133 0.725899 0.000000
0.518299 0.720125 0.000000
0.616466 0.714350 0.000000
0.708912 0.708912 0.000000
0.791177 0.704073 0.000000
0.860774 0.699979 0.000000
0.917179 0.696661 0.000000
0.961323 0.694064 0.000000
0.994936 0.692087 0.000000
1.000000 0.690613 0.000000
0.011761 0.831902 0.011761
0.036824 0.830427 0.010287
0.070436 0.828450 0.008309
0.114580 0.825853 0.005713
0.170985 0.822536 0.002395
0.240582 0.818442 0.000000
0.322847 0.813602 0.000000
0.415293 0.808164 0.000000
0.513460 0.802390 0.000000
0.611627 0.796615 0.000000
0.704073 0.791177 0.000000
0.786338 0.786338 0.000000
0.855935 0.782244 0.000000
0.912340 0.778926 0.000000
0.956484 0.776330 0.000000
0.990096 0.774353 0.000000
1.000000 0.772878 0.000000
0.007667 0.901499 0.007667
0.032730 0.900024 0.006193
0.066343 0.898047 0.004215
0.110486 0.895450 0.001619
0.166891 0.892132 0.000000
0.236488 0.888038 0.000000
0.318753 0.883199 0.000000
0.411200 0.877761 0.000000
0.509366 0.871987 0.000000
0.607533 0.866212 0.000000
0.699979 0.860774 0.000000
0.782244 0.855935 0.000000
0.851841 0.851841 0.000000
0.908246 0.848523 0.000000
0.952390 0.845927 0.000000
0.986002 0.843949 0.000000
1.000000 0.842475 0.000000
0.004349 0.957903 0.004349
0.029412 0.956429 0.002875
0.063025 0.954452 0.000897
0.107168 0.951855 0.000000
0.163573 0.948537 0.000000
0.233170 0.944443 0.000000
0.315435 0.939604 0.000000
0.407882 0.934166 0.000000
0.506048 0.928392 0.000000
0.604215 0.922617 0.000000
0.696661 0.917179 0.000000
0.778926 0.912340 0.000000
0.848523 0.908246 0.000000
0.904928 0.904928 0.000000
0.949072 0.902331 0.000000
0.982685 0.900354 0.000000
1.000000 0.898880 0.000000
0.001752 1.000000 0.001752
0.026815 1.000000 0.000278
0.060428 0.998596 0.000000
0.104572 0.995999 0.000000
0.160976 0.992681 0.000000
0.230573 0.988587 0.000000
0.312839 0.983748 0.000000
0.405285 0.978310 0.000000
0.503452 0.972535 0.000000
0.601618 0.966761 0.000000
0.694064 0.961323 0.000000
0.776330 0.956484 0.000000
0.845927 0.952390 0.000000
0.902331 0.949072 0.000000
0.946475 0.946475 0.000000
0.980088 0.944498 0.000000
1.000000 0.943024 0.000000
0.000000 1.000000 0.000000
0.024838 1.000000 0.000000
0.058451 1.000000 0.000000
0.102594 1.000000 0.000000
0.158999 1.000000 0.000000
0.228596 1.000000 0.000000
0.310861 1.000000 0.000000
0.403308 1.000000 0.000000
0.501474 1.000000 0.000000
0.599641 1.000000 0.000000
0.692087 0.994936 0.000000
0.774353 0.990096 0.000000
0.843949 0.986002 0.000000
0.900354 0.982685 0.000000
0.944498 0.980088 0.000000
0.978111 0.978111 0.000000
1.000000 0.976636 0.000000
0.000000 1.000000 0.000000
0.023364 1.000000 0.000000
0.056976 1.000000 0.000000
0.101120 1.000000 0.000000
0.157525 1.000000 0.000000
0.227122 1.000000 0.000000
0.309387 1.000000 0.000000
0.401833 1.000000 0.000000
0.500000 1.000000 0.000000
0.598167 1.000000 0.000000
0.690613 1.000000 0.000000
0.772878 1.000000 0.000000
0.842475 1.000000 0.000000
0.898880 1.000000 0.000000
0.943024 1.000000 0.000000
0.976636 1.000000 0.000000
1.000000 1.000000 0.000000
0.055850 0.055850 0.082387
0.080913 0.054376 0.080913
0.114526 0.052398 0.078936
0.158669 0.049802 0.076339
0.215074 0.046484 0.073021
0.284671 0.042390 0.068927
0.366936 0.037551 0.064088
0.459383 0.032113 0.058650
0.557549 0.026338 0.052875
0.655716 0.020564 0.047101
0.748162 0.015126 0.041663
0.830427 0.010287 0.036824
0.900024 0.006193 0.032730
0.956429 0.002875 0.029412
1.000000 0.000278 0.026815
1.000000 0.000000 0.024838
1.000000 0.000000 0.023364
0.054376 0.080913 0.080913
0.079439 0.079439 0.079439
0.113051 0.077461 0.077461
0.157195 0.074865 0.074865
0.213600 0.071547 0.071547
0.283197 0.067453 0.067453
0.365462 0.062614 0.062614
0.457908 0.057176 0.057176
0.556075 0.051401 0.051401
0.654241 0.045627 0.045627
0.746688 0.040189 0.040189
0.828953 0.035349 0.035349
0.898550 0.031256 0.031256
0.954955 0.027938 0.027938
0.999098 0.025341 0.025341
1.000000 0.023364 0.023364
1.000000 0.021889 0.021889
0.052398 0.114526 0.078936
0.077461 0.113051 0.077461
0.111074 0.111074 0.075484
0.155218 0.108477 0.072887
0.211623 0.105159 0.069569
0.281219 0.101065 0.065476
0.363485 0.096226 0.060636
0.455931 0.090788 0.055198
0.554098 0.085014 0.049424
0.652264 0.079239 0.043649
0.744710 0.073801 0.038211
0.826976 0.068962 0.033372
0.896573 0.064868 0.029278
0.952977 0.061550 0.025960
0.997121 0.058954 0.023364
1.000000 0.056976 0.021386
1.000000 0.055502 0.019912
0.049802 0.158669 0.076339
0.074865 0.157195 0.074865
0.108477 0.155218 0.072887
0.152621 0.152621 0.070291
0.209026 0.149303 0.066973
0.278623 0.145209 0.062879
0.360888 0.140370 0.058040
0.453334 0.134932 0.052602
0.551501 0.129158 0.046827
0.649668 0.123383 0.041053
0.742114 0.117945 0.035615
0.824379 0.113106 0.030776
0.893976 0.109012 0.026682
0.950381 0.105694 0.023364
0.994525 0.103097 0.020767
1.000000 0.101120 0.018790
1.000000 0.099646 0.017315
0.046484 0.215074 0.073021
0.071547 0.213600 0.071547
0.105159 0.211623 0.069569
0.149303 0.209026 0.066973
0.205708 0.205708 0.063655
0.275305 0.201614 0.059561
0.357570 0.196775 0.054722
0.450016 0.191337 0.049284
0.548183 0.185562 0.043509
0.646350 0.179788 0.037735
0.738796 0.174350 0.032297
0.821061 0.169511 0.027458
0.890658 0.165417 0.023364
0.947063 0.162099 0.020046
0.991207 0.159502 0.017449
1.000000 0.157525 0.015472
1.000000 0.156051 0.013998
0.042390 0.284671 0.068927
0.067453 0.283197 0.067453
0.101065 0.281219 0.065476
0.145209 0.278623 0.062879
0.201614 0.275305 0.059561
0.271211 0.271211 0.055467
0.353476 0.266372 0.050628
0.445923 0.260934 0.045190
0.544089 0.255159 0.039415
0.642256 0.249385 0.033641
0.734702 0.243947 0.028203
0.816967 0.239108 0.023364
0.886564 0.235014 0.019270
0.942969 0.231696 0.015952
0.987113 0.229099 0.013355
1.000000 0.227122 0.011378
1.000000 0.225647 0.009904
0.037551 0.366936 0.064088
0.062614 0.365462 0.062614
0.096226 0.363485 0.060636
0.140370 0.360888 0.058040
0.196775 0.357570 0.054722
0.266372 0.353476 0.050628
0.348637 0.348637 0.045789
0.441083 0.343199 0.040351
0.539250 0.337425 0.034576
0.637417 0.331650 0.028802
0.729863 0.326212 0.023364
0.812128 0.321373 0.018525
0.881725 0.317279 0.014431
0.938130 0.313961 0.011113
0.982274 0.311364 0.008516
1.000000 0.309387 0.006539
1.000000 0.307913 0.005064
0.032113 0.459383 0.058650
0.057176 0.457908 0.057176
0.090788 0.455931 0.055198
0.134932 0.453334 0.052602
0.191337 0.450016 0.049284
0.260934 0.445923 0.045190
0.343199 0.441083 0.040351
0.435645 0.435645 0.034913
0.533812 0.429871 0.029138
0.631979 0.424096 0.023364
0.724425 0.418658 0.017926
0.806690 0.413819 0.013087
0.876287 0.409725 0.008993
0.932692 0.406407 0.005675
0.976836 0.403811 0.003078
1.000000 0.401833 0.001101
1.000000 0.400359 0.000000
0.026338 0.557549 0.052875
0.051401 0.556075 0.051401
0.085014 0.554098 0.049424
0.129158 0.551501 0.046827
0.185562 0.548183 0.043509
0.255159 0.544089 0.039415
0.337425 0.539250 0.034576
0.429871 0.533812 0.029138
0.528037 0.528037 0.023364
0.626204 0.522263 0.017589
0.718650 0.516825 0.012151
0.800916 0.511986 0.007312
0.870513 0.507892 0.003218
0.926917 0.504574 0.000000
0.971061 0.501977 0.000000
1.000000 0.500000 0.000000
1.000000 0.498526 0.000000
0.020564 0.655716 0.047101
0.045627 0.654241 0.045627
0.079239 0.652264 0.043649
0.123383 0.649668 0.041053
0.179788 0.646350 0.037735
0.249385 0.642256 0.033641
0.331650 0.637417 0.028802
0.424096 0.631979 0.023364
0.522263 0.626204 0.017589
0.620430 0.620430 0.011815
0.712876 0.614992 0.006377
0.795141 0.610152 0.001538
0.864738 0.606058 0.000000
0.921143 0.602740 0.000000
0.965287 0.600144 0.000000
0.998899 0.598167 0.000000
1.000000 0.596692 0.000000
0.015126 0.748162 0.041663
0.040189 0.746688 0.040189
0.073801 0.744710 0.038211
0.117945 0.742114 0.035615
0.174350 0.738796 0.032297
0.243947 0.734702 0.028203
0.326212 0.729863 0.023364
0.418658 0.724425 0.017926
0.516825 0.718650 0.012151
0.614992 0.712876 0.006377
0.707438 0.707438 0.000939
0.789703 0.702599 0.000000
0.859300 0.698505 0.000000
0.915705 0.695187 0.000000
0.959849 0.692590 0.000000
0.993461 0.690613 0.000000
1.000000 0.689139 0.000000
0.010287 0.830427 0.036824
0.035349 0.828953 0.035349
0.068962 0.826976 0.033372
0.113106 0.824379 0.030776
0.169511 0.821061 0.027458
0.239108 0.816967 0.023364
0.321373 0.812128 0.018525
0.413819 0.806690 0.013087
0.511986 0.800916 0.007312
0.610152 0.795141 0.001538
0.702599 0.789703 0.000000
0.784864 0.784864 0.000000
0.854461 0.780770 0.000000
0.910866 0.777452 0.000000
0.955009 0.774855 0.000000
0.988622 0.772878 0.000000
1.000000 0.771404 0.000000
0.006193 0.900024 0.032730
0.031256 0.898550 0.031256
0.064868 0.896573 0.029278
0.109012 0.893976 0.026682
0.165417 0.890658 0.023364
0.235014 0.886564 0.019270
0.317279 0.881725 0.014431
0.409725 0.876287 0.008993
0.507892 0.870513 0.003218
0.606058 0.864738 0.000000
0.698505 0.859300 0.000000
0.780770 0.854461 0.000000
0.850367 0.850367 0.000000
0.906772 0.847049 0.000000
0.950915 0.844452 0.000000
0.984528 0.842475 0.000000
1.000000 0.841001 0.000000
0.002875 0.956429 0.029412
0.027938 0.954955 0.027938
0.061550 0.952977 0.025960
0.105694 0.950381 0.023364
0.162099 0.947063 0.020046
0.231696 0.942969 0.015952
0.313961 0.938130 0.011113
0.406407 0.932692 0.005675
0.504574 0.926917 0.000000
0.602740 0.921143 0.000000
0.695187 0.915705 0.000000
0.777452 0.910866 0.000000
0.847049 0.906772 0.000000
0.903454 0.903454 0.000000
0.947598 0.900857 0.000000
0.981210 0.898880 0.000000
1.000000 0.897406 0.000000
0.000278 1.000000 0.026815
0.025341 0.999098 0.025341
0.058954 0.997121 0.023364
0.103097 0.994525 0.020767
0.159502 0.991207 0.017449
0.229099 0.987113 0.013355
0.311364 0.982274 0.008516
0.403811 0.976836 0.003078
0.501977 0.971061 0.000000
0.600144 0.965287 0.000000
0.692590 0.959849 0.000000
0.774855 0.955009 0.000000
0.844452 0.950915 0.000000
0.900857 0.947598 0.000000
0.945001 0.945001 0.000000
0.978614 0.943024 0.000000
1.000000 0.941549 0.000000
0.000000 1.000000 0.024838
0.023364 1.000000 0.023364
0.056976 1.000000 0.021386
0.101120 1.000000 0.018790
0.157525 1.000000 0.015472
0.227122 1.000000 0.011378
0.309387 1.000000 0.006539
0.401833 1.000000 0.001101
0.500000 1.000000 0.000000
0.598167 0.998899 0.000000
0.690613 0.993461 0.000000
0.772878 0.988622 0.000000
0.842475 0.984528 0.000000
0.898880 0.981210 0.000000
0.943024 0.978614 0.000000
0.976636 0.976636 0.000000
1.000000 0.975162 0.000000
0.000000 1.000000 0.023364
0.021889 1.000000 0.021889
0.055502 1.000000 0.019912
0.099646 1.000000 0.017315
0.156051 1.000000 0.013998
0.225647 1.000000 0.009904
0.307913 1.000000 0.005064
0.400359 1.000000 0.000000
0.498526 1.000000 0.000000
0.596692 1.000000 0.000000
0.689139 1.000000 0.000000
0.771404 1.000000 0.000000
0.841001 1.000000 0.000000
0.897406 1.000000 0.000000
0.941549 1.000000 0.000000
0.975162 1.000000 0.000000
1.000000 1.000000 0.000000
0.053873 0.053873 0.116000
0.078936 0.052398 0.114526
0.112548 0.050421 0.112548
0.156692 0.047824 0.109952
0.213097 0.044507 0.106634
0.282694 0.040413 0.102540
0.364959 0.035573 0.097701
0.457405 0.030135 0.092263
0.555572 0.024361 0.086488
0.653739 0.018586 0.080714
0.746185 0.013148 0.075276
0.828450 0.008309 0.070436
0.898047 0.004215 0.066343
0.954452 0.000897 0.063025
0.998596 0.000000 0.060428
1.000000 0.000000 0.058451
1.000000 0.000000 0.056976
0.052398 0.078936 0.114526
0.077461 0.077461 0.113051
0.111074 0.075484 0.111074
0.155218 0.072887 0.108477
0.211623 0.069569 0.105159
0.281219 0.065476 0.101065
0.363485 0.060636 0.096226
0.455931 0.055198 0.090788
0.554098 0.049424 0.085014
0.652264 0.043649 0.079239
0.744710 0.038211 0.073801
0.826976 0.033372 0.068962
0.896573 0.029278 0.064868
0.952977 0.025960 0.061550
0.997121 0.023364 0.058954
1.000000 0.021386 0.056976
1.000000 0.019912 0.055502
0.050421 0.112548 0.112548
0.075484 0.111074 0.111074
0.109097 0.109097 0.109097
0.153241 0.106500 0.106500
0.209645 0.103182 0.103182
0.279242 0.099088 0.099088
0.361508 0.094249 0.094249
0.453954 0.088811 0.088811
0.552120 0.083037 0.083037
0.650287 0.077262 0.077262
0.742733 0.071824 0.071824
0.824999 0.066985 0.066985
0.894595 0.062891 0.062891
0.951000 0.059573 0.059573
0.995144 0.056976 0.056976
1.000000 0.054999 0.054999
1.000000 0.053525 0.053525
0.047824 0.156692 0.109952
0.072887 0.155218 0.108477
0.106500 0.153241 0.106500
0.150644 0.150644 0.103903
0.207049 0.147326 0.100586
0.276646 0.143232 0.096492
0.358911 0.138393 0.091652
0.451357 0.132955 0.086214
0.549524 0.127180 0.080440
0.647690 0.121406 0.074665
0.740137 0.115968 0.069227
0.822402 0.111129 0.064388
0.891999 0.107035 0.060294
0.948404 0.103717 0.056976
0.992547 0.101120 0.054380
1.000000 0.099143 0.052402
1.000000 0.097669 0.050928
0.044507 0.213097 0.106634
0.069569 0.211623 0.105159
0.103182 0.209645 0.103182
0.147326 0.207049 0.100586
0.203731 0.203731 0.097268
0.273328 0.199637 0.093174
0.355593 0.194798 0.088335
0.448039 0.189360 0.082896
0.546206 0.183585 0.077122
0.644372 0.177811 0.071347
0.736819 0.172373 0.065909
0.819084 0.167533 0.061070
0.888681 0.163440 0.056976
0.945086 0.160122 0.053658
0.989229 0.157525 0.051062
1.000000 0.155548 0.049085
1.000000 0.154073 0.047610
0.040413 0.282694 0.102540
0.065476 0.281219 0.101065
0.099088 0.279242 0.099088
0.143232 0.276646 0.096492
0.199637 0.273328 0.093174
0.269234 0.269234 0.089080
0.351499 0.264395 0.084241
0.443945 0.258956 0.078803
0.542112 0.253182 0.073028
0.640278 0.247407 0.067254
0.732725 0.241969 0.061816
0.814990 0.237130 0.056976
0.884587 0.233036 0.052882
0.940992 0.229718 0.049565
0.985135 0.227122 0.046968
1.000000 0.225145 0.044991
1.000000 0.223670 0.043516
0.035573 0.364959 0.097701
0.060636 0.363485 0.096226
0.094249 0.361508 0.094249
0.138393 0.358911 0.091652
0.194798 0.355593 0.088335
0.264395 0.351499 0.084241
0.346660 0.346660 0.079401
0.439106 0.341222 0.073963
0.537273 0.335447 0.068189
0.635439 0.329673 0.062414
0.727886 0.324235 0.056976
0.810151 0.319396 0.052137
0.879748 0.315302 0.048043
0.936153 0.311984 0.044725
0.980296 0.309387 0.042129
1.000000 0.307410 0.040151
1.000000 0.305936 0.038677
0.030135 0.457405 0.092263
0.055198 0.455931 0.090788
0.088811 0.453954 0.088811
0.132955 0.451357 0.086214
0.189360 0.448039 0.082896
0.258956 0.443945 0.078803
0.341222 0.439106 0.073963
0.433668 0.433668 0.068525
0.531835 0.427894 0.062751
0.630001 0.422119 0.056976
0.722448 0.416681 0.051538
0.804713 0.411842 0.046699
0.874310 0.407748 0.042605
0.930715 0.404430 0.039287
0.974858 0.401833 0.036691
1.000000 0.399856 0.034713
1.000000 0.398382 0.033239
0.024361 0.555572 0.086488
0.049424 0.554098 0.085014
0.083037 0.552120 0.083037
0.127180 0.549524 0.080440
0.183585 0.546206 0.077122
0.253182 0.542112 0.073028
0.335447 0.537273 0.068189
0.427894 0.531835 0.062751
0.526060 0.526060 0.056976
0.624227 0.520286 0.051202
0.716673 0.514848 0.045764
0.798938 0.510009 0.040925
0.868535 0.505915 0.036831
0.924940 0.502597 0.033513
0.969084 0.500000 0.030916
1.000000 0.498023 0.028939
1.000000 0.496548 0.027465
0.018586 0.653739 0.080714
0.043649 0.652264 0.079239
0.077262 0.650287 0.077262
0.121406 0.647690 0.074665
0.177811 0.644372 0.071347
0.247407 0.640278 0.067254
0.329673 0.635439 0.062414
0.422119 0.630001 0.056976
0.520286 0.624227 0.051202
0.618452 0.618452 0.045427
0.710899 0.613014 0.039989
0.793164 0.608175 0.035150
0.862761 0.604081 0.031056
0.919166 0.600763 0.027738
0.963309 0.598167 0.025142
0.996922 0.596189 0.023164
1.000000 0.594715 0.021690
0.013148 0.746185 0.075276
0.038211 0.744710 0.073801
0.071824 0.742733 0.071824
0.115968 0.740137 0.069227
0.172373 0.736819 0.065909
0.241969 0.732725 0.061816
0.324235 0.727886 0.056976
0.416681 0.722448 0.051538
0.514848 0.716673 0.045764
0.613014 0.710899 0.039989
0.705461 0.705461 0.034551
0.787726 0.700621 0.029712
0.857323 0.696527 0.025618
0.913728 0.693210 0.022300
0.957871 0.690613 0.019704
0.991484 0.688636 0.017726
1.000000 0.687161 0.016252
0.008309 0.828450 0.070436
0.033372 0.826976 0.068962
0.066985 0.824999 0.066985
0.111129 0.822402 0.064388
0.167533 0.819084 0.061070
0.237130 0.814990 0.056976
0.319396 0.810151 0.052137
0.411842 0.804713 0.046699
0.510009 0.798938 0.040925
0.608175 0.793164 0.035150
0.700621 0.787726 0.029712
0.782887 0.782887 0.024873
0.852484 0.778793 0.020779
0.908888 0.775475 0.017461
0.953032 0.772878 0.014865
0.986645 0.770901 0.012887
1.000000 0.769427 0.011413
0.004215 0.898047 0.066343
0.029278 0.896573 0.064868
0.062891 0.894595 0.062891
0.107035 0.891999 0.060294
0.163440 0.888681 0.056976
0.233036 0.884587 0.052882
0.315302 0.879748 0.048043
0.407748 0.874310 0.042605
0.505915 0.868535 0.036831
0.604081 0.862761 0.031056
0.696527 0.857323 0.025618
0.778793 0.852484 0.020779
0.848390 0.848390 0.016685
0.904794 0.845072 0.013367
0.948938 0.842475 0.010771
0.982551 0.840498 0.008793
1.000000 0.839024 0.007319
0.000897 0.954452 0.063025
0.025960 0.952977 0.061550
0.059573 0.951000 0.059573
0.103717 0.948404 0.056976
0.160122 0.945086 0.053658
0.229718 0.940992 0.049565
0.311984 0.936153 0.044725
0.404430 0.930715 0.039287
0.502597 0.924940 0.033513
0.600763 0.919166 0.027738
0.693210 0.913728 0.022300
0.775475 0.908888 0.017461
0.845072 0.904794 0.013367
0.901477 0.901477 0.010049
0.945620 0.898880 0.007453
0.979233 0.896903 0.005475
1.000000 0.895428 0.004001
0.000000 0.998596 0.060428
0.023364 0.997121 0.058954
0.056976 0.995144 0.056976
0.101120 0.992547 0.054380
0.157525 0.989229 0.051062
0.227122 0.985135 0.046968
0.309387 0.980296 0.042129
0.401833 0.974858 0.036691
0.500000 0.969084 0.030916
0.598167 0.963309 0.025142
0.690613 0.957871 0.019704
0.772878 0.953032 0.014865
0.842475 0.948938 0.010771
0.898880 0.945620 0.007453
0.943024 0.943024 0.004856
0.976636 0.941046 0.002879
1.000000 0.939572 0.001404
0.000000 1.000000 0.058451
0.021386 1.000000 0.056976
0.054999 1.000000 0.054999
0.099143 1.000000 0.052402
0.155548 1.000000 0.049085
0.225145 1.000000 0.044991
0.307410 1.000000 0.040151
0.399856 1.000000 0.034713
0.498023 1.000000 0.028939
0.596189 0.996922 0.023164
0.688636 0.991484 0.017726
0.770901 0.986645 0.012887
0.840498 0.982551 0.008793
0.896903 0.979233 0.005475
0.941046 0.976636 0.002879
0.974659 0.974659 0.000902
0.999722 0.973185 0.000000
0.000000 1.000000 0.056976
0.019912 1.000000 0.055502
0.053525 1.000000 0.053525
0.097669 1.000000 0.050928
0.154073 1.000000 0.047610
0.223670 1.000000 0.043516
0.305936 1.000000 0.038677
0.398382 1.000000 0.033239
0.496548 1.000000 0.027465
0.594715 1.000000 0.021690
0.687161 1.000000 0.016252
0.769427 1.000000 0.011413
0.839024 1.000000 0.007319
0.895428 1.000000 0.004001
0.939572 1.000000 0.001404
0.973185 0.999722 0.000000
0.998248 0.998248 0.000000
0.051276 0.051276 0.160144
0.076339 0.049802 0.158669
0.109952 0.047824 0.156692
0.154095 0.045228 0.154095
0.210500 0.041910 0.150777
0.280097 0.037816 0.146684
0.362362 0.032977 0.141844
0.454809 0.027539 0.136406
0.552975 0.021764 0.130632
0.651142 0.015990 0.124857
0.743588 0.010552 0.119419
0.825853 0.005713 0.114580
0.895450 0.001619 0.110486
0.951855 0.000000 0.107168
0.995999 0.000000 0.104572
