assets/luts/high-contrast.cube
# High contrast: bold blacks and brights.
# Generated procedurally by videokit gen-luts.py
TITLE "high-contrast"
LUT_3D_SIZE 5
DOMAIN_MIN 0.0 0.0 0.0
DOMAIN_MAX 1.0 1.0 1.0
0.057324 0.057324 0.057324
0.216548 0.047958 0.047958
0.559023 0.027812 0.027812
0.901499 0.007667 0.007667
1.000000 0.000000 0.000000
0.047958 0.216548 0.047958
0.207182 0.207182 0.038592
0.549657 0.187037 0.018446
0.892132 0.166891 0.000000
1.000000 0.157525 0.000000
0.027812 0.559023 0.027812
0.187037 0.549657 0.018446
0.529512 0.529512 0.000000
0.871987 0.509366 0.000000
1.000000 0.500000 0.000000
0.007667 0.901499 0.007667
0.166891 0.892132 0.000000
0.509366 0.871987 0.000000
0.851841 0.851841 0.000000
1.000000 0.842475 0.000000
0.000000 1.000000 0.000000
0.157525 1.000000 0.000000
0.500000 1.000000 0.000000
0.842475 1.000000 0.000000
1.000000 1.000000 0.000000
0.047958 0.047958 0.216548
0.207182 0.038592 0.207182
0.549657 0.018446 0.187037
0.892132 0.000000 0.166891
1.000000 0.000000 0.157525
0.038592 0.207182 0.207182
0.197816 0.197816 0.197816
0.540291 0.177671 0.177671
0.882766 0.157525 0.157525
1.000000 0.148159 0.148159
0.018446 0.549657 0.187037
0.177671 0.540291 0.177671
0.520146 0.520146 0.157525
0.862621 0.500000 0.137379
1.000000 0.490634 0.128013
0.000000 0.892132 0.166891
0.157525 0.882766 0.157525
0.500000 0.862621 0.137379
0.842475 0.842475 0.117234
1.000000 0.833109 0.107868
0.000000 1.000000 0.157525
0.148159 1.000000 0.148159
0.490634 1.000000 0.128013
0.833109 1.000000 0.107868
0.992333 0.992333 0.098501
0.027812 0.027812 0.559023
0.187037 0.018446 0.549657
0.529512 0.000000 0.529512
0.871987 0.000000 0.509366
1.000000 0.000000 0.500000
0.018446 0.187037 0.549657
0.177671 0.177671 0.540291
0.520146 0.157525 0.520146
0.862621 0.137379 0.500000
1.000000 0.128013 0.490634
0.000000 0.529512 0.529512
0.157525 0.520146 0.520146
0.500000 0.500000 0.500000
0.842475 0.479854 0.479854
1.000000 0.470488 0.470488
0.000000 0.871987 0.509366
0.137379 0.862621 0.500000
0.479854 0.842475 0.479854
0.822329 0.822329 0.459709
0.981554 0.812963 0.450343
0.000000 1.000000 0.500000
0.128013 1.000000 0.490634
0.470488 1.000000 0.470488
0.812963 0.981554 0.450343
0.972188 0.972188 0.440977
0.007667 0.007667 0.901499
0.166891 0.000000 0.892132
0.509366 0.000000 0.871987
0.851841 0.000000 0.851841
1.000000 0.000000 0.842475
0.000000 0.166891 0.892132
0.157525 0.157525 0.882766
0.500000 0.137379 0.862621
0.842475 0.117234 0.842475
1.000000 0.107868 0.833109
0.000000 0.509366 0.871987
0.137379 0.500000 0.862621
0.479854 0.479854 0.842475
0.822329 0.459709 0.822329
0.981554 0.450343 0.812963
0.000000 0.851841 0.851841
0.117234 0.842475 0.842475
0.459709 0.822329 0.822329
0.802184 0.802184 0.802184
0.961408 0.792818 0.792818
0.000000 1.000000 0.842475
0.107868 1.000000 0.833109
0.450343 0.981554 0.812963
0.792818 0.961408 0.792818
0.952042 0.952042 0.783452
0.000000 0.000000 1.000000
0.157525 0.000000 1.000000
0.500000 0.000000 1.000000
0.842475 0.000000 1.000000
1.000000 0.000000 1.000000
0.000000 0.157525 1.000000
0.148159 0.148159 1.000000
0.490634 0.128013 1.000000
0.833109 0.107868 1.000000
0.992333 0.098501 0.992333
0.000000 0.500000 1.000000
0.128013 0.490634 1.000000
0.470488 0.470488 1.000000
0.812963 0.450343 0.981554
0.972188 0.440977 0.972188
0.000000 0.842475 1.000000
0.107868 0.833109 1.000000
0.450343 0.812963 0.981554
0.792818 0.792818 0.961408
0.952042 0.783452 0.952042
0.000000 1.000000 1.000000
0.098501 0.992333 0.992333
0.440977 0.972188 0.972188
0.783452 0.952042 0.952042
0.942676 0.942676 0.942676
