assets/luts/noir.cube
# Film noir: high contrast B&W with blue shadow tint.
# Generated procedurally by videokit gen-luts.py
TITLE "noir"
LUT_3D_SIZE 5
DOMAIN_MIN 0.0 0.0 0.0
DOMAIN_MAX 1.0 1.0 1.0
0.010485 0.029312 0.066967
0.023648 0.041969 0.078611
0.042144 0.059754 0.094974
0.067789 0.084413 0.117660
0.102688 0.117970 0.148532
0.079307 0.095488 0.127849
0.118121 0.132809 0.162184
0.169056 0.181785 0.207242
0.233496 0.243746 0.264246
0.311347 0.318603 0.333115
0.260354 0.269571 0.288005
0.342650 0.348702 0.360806
0.434645 0.437159 0.442186
0.529802 0.529802 0.529802
0.620436 0.620436 0.620436
0.563358 0.563358 0.563358
0.651775 0.651775 0.651775
0.730842 0.730842 0.730842
0.797534 0.797534 0.797534
0.851068 0.851068 0.851068
0.818527 0.818527 0.818527
0.867433 0.867433 0.867433
0.904694 0.904694 0.904694
0.932299 0.932299 0.932299
0.952330 0.952330 0.952330
0.014454 0.033129 0.070479
0.029248 0.047354 0.083565
0.049951 0.067261 0.101880
0.078493 0.094704 0.127128
0.117035 0.131764 0.161223
0.091251 0.106972 0.138414
0.133969 0.148047 0.176203
0.189392 0.201338 0.225231
0.258494 0.267783 0.286360
0.340504 0.346638 0.358907
0.286967 0.295161 0.311548
0.373033 0.377917 0.387683
0.467193 0.468454 0.470978
0.561118 0.561118 0.561118
0.649707 0.649707 0.649707
0.594150 0.594150 0.594150
0.679876 0.679876 0.679876
0.754961 0.754961 0.754961
0.817171 0.817171 0.817171
0.866383 0.866383 0.866383
0.836546 0.836546 0.836546
0.881300 0.881300 0.881300
0.915045 0.915045 0.915045
0.939851 0.939851 0.939851
0.957749 0.957749 0.957749
0.018921 0.037424 0.074430
0.035526 0.053391 0.089119
0.058660 0.075634 0.109583
0.090350 0.106106 0.137617
0.132779 0.146903 0.175151
0.104441 0.119655 0.150083
0.151290 0.164702 0.191526
0.211320 0.222423 0.244629
0.285002 0.293271 0.309809
0.370811 0.375780 0.385717
0.314993 0.322108 0.336340
0.404368 0.408046 0.415402
0.500000 0.500000 0.500000
0.591954 0.591954 0.591954
0.677892 0.677892 0.677892
0.624220 0.624220 0.624220
0.706729 0.706729 0.706729
0.777577 0.777577 0.777577
0.835298 0.835298 0.835298
0.880345 0.880345 0.880345
0.853097 0.853097 0.853097
0.893894 0.893894 0.893894
0.924366 0.924366 0.924366
0.946609 0.946609 0.946609
0.962576 0.962576 0.962576
0.023941 0.042251 0.078871
0.042555 0.060149 0.095337
0.068353 0.084955 0.118159
0.103448 0.118700 0.149204
0.149992 0.163454 0.190378
0.118962 0.133617 0.162928
0.170142 0.182829 0.208202
0.234840 0.245039 0.265436
0.312929 0.320124 0.334514
0.402084 0.405850 0.413382
0.344305 0.350293 0.362270
0.436437 0.438882 0.443772
0.531546 0.531546 0.531546
0.622083 0.622083 0.622083
0.704839 0.704839 0.704839
0.653362 0.653362 0.653362
0.732217 0.732217 0.732217
0.798662 0.798662 0.798662
0.851953 0.851953 0.851953
0.893028 0.893028 0.893028
0.868236 0.868236 0.868236
0.905296 0.905296 0.905296
0.932739 0.932739 0.932739
0.952646 0.952646 0.952646
0.966871 0.966871 0.966871
0.029577 0.047670 0.083857
0.050409 0.067701 0.102285
0.079119 0.095306 0.127682
0.117870 0.132567 0.161962
0.168732 0.181473 0.206955
0.134890 0.148932 0.177018
0.190565 0.202466 0.226269
0.259924 0.269158 0.287625
0.342154 0.348225 0.360367
0.434108 0.436642 0.441711
0.374746 0.379564 0.389199
0.469006 0.470198 0.472582
0.562841 0.562841 0.562841
0.651298 0.651298 0.651298
0.730429 0.730429 0.730429
0.681397 0.681397 0.681397
0.756254 0.756254 0.756254
0.818215 0.818215 0.818215
0.867191 0.867191 0.867191
0.904512 0.904512 0.904512
0.882030 0.882030 0.882030
0.915587 0.915587 0.915587
0.940246 0.940246 0.940246
0.958031 0.958031 0.958031
0.970688 0.970688 0.970688
