assets/luts/noir.cube
# Film noir: high contrast B&W with blue shadow tint.
# Generated procedurally by videokit gen-luts.py
TITLE "noir"
LUT_3D_SIZE 9
DOMAIN_MIN 0.0 0.0 0.0
DOMAIN_MAX 1.0 1.0 1.0
0.010485 0.029312 0.066967
0.016499 0.035095 0.072287
0.023648 0.041969 0.078611
0.032124 0.050120 0.086110
0.042144 0.059754 0.094974
0.053947 0.071103 0.105414
0.067789 0.084413 0.117660
0.083944 0.099946 0.131950
0.102688 0.117970 0.148532
0.035582 0.053444 0.089168
0.046222 0.063675 0.098581
0.058736 0.075708 0.109651
0.073388 0.089796 0.122613
0.090454 0.106205 0.137709
0.110209 0.125201 0.155185
0.132916 0.147035 0.175272
0.158805 0.171928 0.198174
0.188049 0.200047 0.224043
0.079307 0.095488 0.127849
0.097320 0.112808 0.143783
0.118121 0.132809 0.162184
0.141962 0.155733 0.183274
0.169056 0.181785 0.207242
0.199550 0.211105 0.234217
0.233496 0.243746 0.264246
0.270830 0.279645 0.297273
0.311347 0.318603 0.333115
0.151440 0.164847 0.191659
0.179759 0.192076 0.216710
0.211509 0.222605 0.244797
0.246703 0.256446 0.275930
0.285228 0.293489 0.310010
0.326822 0.333483 0.346804
0.371067 0.376026 0.385944
0.417395 0.420572 0.426926
0.465109 0.466450 0.469134
0.260354 0.269571 0.288005
0.300034 0.307725 0.323107
0.342650 0.348702 0.360806
0.387727 0.392045 0.400681
0.434645 0.437159 0.442186
0.482671 0.483337 0.484670
0.529802 0.529802 0.529802
0.575756 0.575756 0.575756
0.620436 0.620436 0.620436
0.404631 0.408299 0.415635
0.452043 0.453888 0.457577
0.500262 0.500262 0.500262
0.546633 0.546633 0.546633
0.592208 0.592208 0.592208
0.636250 0.636250 0.636250
0.678121 0.678121 0.678121
0.717314 0.717314 0.717314
0.753469 0.753469 0.753469
0.563358 0.563358 0.563358
0.608456 0.608456 0.608456
0.651775 0.651775 0.651775
0.692722 0.692722 0.692722
0.730842 0.730842 0.730842
0.765832 0.765832 0.765832
0.797534 0.797534 0.797534
0.825919 0.825919 0.825919
0.851068 0.851068 0.851068
0.706947 0.706947 0.706947
0.743955 0.743955 0.743955
0.777758 0.777758 0.777758
0.808249 0.808249 0.808249
0.835442 0.835442 0.835442
0.859449 0.859449 0.859449
0.880455 0.880455 0.880455
0.898692 0.898692 0.898692
0.914417 0.914417 0.914417
0.818527 0.818527 0.818527
0.844543 0.844543 0.844543
0.867433 0.867433 0.867433
0.887402 0.887402 0.887402
0.904694 0.904694 0.904694
0.919570 0.919570 0.919570
0.932299 0.932299 0.932299
0.943137 0.943137 0.943137
0.952330 0.952330 0.952330
0.012411 0.031164 0.068671
0.018790 0.037298 0.074314
0.026367 0.044584 0.081017
0.035343 0.053214 0.088957
0.045940 0.063404 0.098332
0.058405 0.075390 0.109359
0.073002 0.089425 0.122271
0.090005 0.105774 0.137312
0.109691 0.124703 0.154727
0.039001 0.056731 0.092193
0.050249 0.067547 0.102143
0.063458 0.080249 0.113829
0.078899 0.095095 0.127488
0.096847 0.112353 0.143365
0.117577 0.132286 0.161703
0.141341 0.155136 0.182725
0.168354 0.181109 0.206621
0.198763 0.210349 0.233521
0.085129 0.101085 0.132998
0.104058 0.119287 0.149744
0.125865 0.140255 0.169034
0.150790 0.164221 0.191083
0.179026 0.191371 0.216062
0.210691 0.221819 0.244073
0.245802 0.255579 0.275133
0.284248 0.292546 0.309142
0.325771 0.332472 0.345874
0.160678 0.173729 0.199831
0.190154 0.202071 0.225905
0.223078 0.233729 0.255030
0.259423 0.268676 0.287182
0.299027 0.306757 0.322216
0.341576 0.347669 0.359856
0.386599 0.390961 0.399684
0.433481 0.436040 0.441157
0.481489 0.482201 0.483625
0.273477 0.282190 0.299615
0.314198 0.321344 0.335637
0.357710 0.363183 0.374128
0.403489 0.407201 0.414625
0.450870 0.452760 0.456539
0.499090 0.499125 0.499195
0.545505 0.545505 0.545505
0.591109 0.591109 0.591109
0.635196 0.635196 0.635196
0.420592 0.423646 0.429754
0.468371 0.469588 0.472021
0.516051 0.516051 0.516051
0.562238 0.562238 0.562238
0.607371 0.607371 0.607371
0.650741 0.650741 0.650741
0.691752 0.691752 0.691752
0.729946 0.729946 0.729946
0.765015 0.765015 0.765015
0.578831 0.578831 0.578831
0.623399 0.623399 0.623399
0.665972 0.665972 0.665972
0.706003 0.706003 0.706003
0.743087 0.743087 0.743087
0.776971 0.776971 0.776971
0.807543 0.807543 0.807543
0.834816 0.834816 0.834816
0.858899 0.858899 0.858899
0.719862 0.719862 0.719862
0.755802 0.755802 0.755802
0.788486 0.788486 0.788486
0.817850 0.817850 0.817850
0.843944 0.843944 0.843944
0.866909 0.866909 0.866909
0.886947 0.886947 0.886947
0.904301 0.904301 0.904301
0.919233 0.919233 0.919233
0.827723 0.827723 0.827723
0.852658 0.852658 0.852658
0.874531 0.874531 0.874531
0.893562 0.893562 0.893562
0.910003 0.910003 0.910003
0.924121 0.924121 0.924121
0.936179 0.936179 0.936179
0.946432 0.946432 0.946432
0.955117 0.955117 0.955117
0.014454 0.033129 0.070479
0.021219 0.039634 0.076463
0.029248 0.047354 0.083565
0.038748 0.056488 0.091969
0.049951 0.067261 0.101880
0.063110 0.079913 0.113520
0.078493 0.094704 0.127128
0.096376 0.111900 0.142948
0.117035 0.131764 0.161223
0.042617 0.060208 0.095392
0.054502 0.071636 0.105905
0.068438 0.085037 0.118234
0.084699 0.100672 0.132619
0.103562 0.118810 0.149305
0.125295 0.139707 0.168531
0.150142 0.163598 0.190510
0.178295 0.190668 0.215415
0.209876 0.221034 0.243351
0.091251 0.106972 0.138414
0.111129 0.126085 0.155998
0.133969 0.148047 0.176203
0.160000 0.173077 0.199231
0.189392 0.201338 0.225231
0.222231 0.232915 0.254282
0.258494 0.267783 0.286360
0.298022 0.305790 0.321327
0.340504 0.346638 0.358907
0.170305 0.182985 0.208347
0.200947 0.212449 0.235453
0.235042 0.245233 0.265614
0.272520 0.281269 0.298768
0.313167 0.320353 0.334725
0.356617 0.362131 0.373161
0.402347 0.406103 0.413615
0.449698 0.451633 0.455502
0.497907 0.497988 0.498149
0.286967 0.295161 0.311548
0.328685 0.335274 0.348452
0.373033 0.377917 0.387683
0.419437 0.422535 0.428732
0.467193 0.468454 0.470978
0.514914 0.514914 0.514914
0.561118 0.561118 0.561118
0.606286 0.606286 0.606286
0.649707 0.649707 0.649707
0.436706 0.439141 0.444009
0.484762 0.485348 0.486520
0.531807 0.531807 0.531807
0.577721 0.577721 0.577721
0.622330 0.622330 0.622330
0.664960 0.664960 0.664960
0.705058 0.705058 0.705058
0.742217 0.742217 0.742217
0.776181 0.776181 0.776181
0.594150 0.594150 0.594150
0.638111 0.638111 0.638111
0.679876 0.679876 0.679876
0.718943 0.718943 0.718943
0.754961 0.754961 0.754961
0.787726 0.787726 0.787726
0.817171 0.817171 0.817171
0.843344 0.843344 0.843344
0.866383 0.866383 0.866383
0.732423 0.732423 0.732423
0.767273 0.767273 0.767273
0.798830 0.798830 0.798830
0.827073 0.827073 0.827073
0.852085 0.852085 0.852085
0.874030 0.874030 0.874030
0.893128 0.893128 0.893128
0.909630 0.909630 0.909630
0.923801 0.923801 0.923801
0.836546 0.836546 0.836546
0.860419 0.860419 0.860419
0.881300 0.881300 0.881300
0.899423 0.899423 0.899423
0.915045 0.915045 0.915045
0.928434 0.928434 0.928434
0.939851 0.939851 0.939851
0.949546 0.949546 0.949546
0.957749 0.957749 0.957749
0.016622 0.035214 0.072396
0.023794 0.042110 0.078741
0.032298 0.050286 0.086264
0.042349 0.059951 0.095155
0.054187 0.071334 0.105627
0.068071 0.084683 0.117909
0.084272 0.100261 0.132240
0.103068 0.118334 0.148867
0.124728 0.139161 0.168028
0.046439 0.063884 0.098773
0.058991 0.075953 0.109877
0.073686 0.090083 0.122876
0.090800 0.106538 0.138015
0.110608 0.125585 0.155538
0.133373 0.147474 0.175676
0.159324 0.172427 0.198633
0.188632 0.200608 0.224559
0.221387 0.232103 0.253535
0.097685 0.113159 0.144106
0.118541 0.133212 0.162555
0.142442 0.156194 0.183698
0.169598 0.182306 0.207722
0.200156 0.211689 0.234754
0.234168 0.244392 0.264841
0.271564 0.280350 0.297922
0.312138 0.319363 0.333814
0.355524 0.361081 0.372195
0.180325 0.192620 0.217210
0.212140 0.223211 0.245354
0.247398 0.257114 0.276545
0.285984 0.294215 0.310678
0.327632 0.334261 0.347520
0.371922 0.376848 0.386700
0.418282 0.421425 0.427711
0.466015 0.467322 0.469936
0.513778 0.513778 0.513778
0.300810 0.308471 0.323794
0.343477 0.349497 0.361537
0.388595 0.392879 0.401449
0.435541 0.438020 0.442979
0.483580 0.484212 0.485475
0.530674 0.530674 0.530674
0.576611 0.576611 0.576611
0.621260 0.621260 0.621260
0.663945 0.663945 0.663945
0.452946 0.454755 0.458375
0.501137 0.501137 0.501137
0.547500 0.547500 0.547500
0.593053 0.593053 0.593053
0.637060 0.637060 0.637060
0.678884 0.678884 0.678884
0.718023 0.718023 0.718023
0.754119 0.754119 0.754119
0.786965 0.786965 0.786965
0.609289 0.609289 0.609289
0.652569 0.652569 0.652569
0.693466 0.693466 0.693466
0.731530 0.731530 0.731530
0.766459 0.766459 0.766459
0.798098 0.798098 0.798098
0.826422 0.826422 0.826422
0.851511 0.851511 0.851511
0.873529 0.873529 0.873529
0.744621 0.744621 0.744621
0.778363 0.778363 0.778363
0.808791 0.808791 0.808791
0.835923 0.835923 0.835923
0.859872 0.859872 0.859872
0.880823 0.880823 0.880823
0.899010 0.899010 0.899010
0.914691 0.914691 0.914691
0.928131 0.928131 0.928131
0.845002 0.845002 0.845002
0.867835 0.867835 0.867835
0.887751 0.887751 0.887751
0.904995 0.904995 0.904995
0.919829 0.919829 0.919829
0.932519 0.932519 0.932519
0.943325 0.943325 0.943325
0.952488 0.952488 0.952488
0.960232 0.960232 0.960232
0.018921 0.037424 0.074430
0.026523 0.044733 0.081155
0.035526 0.053391 0.089119
0.046157 0.063612 0.098523
0.058660 0.075634 0.109583
0.073299 0.089710 0.122534
0.090350 0.106106 0.137617
0.110089 0.125086 0.155079
0.132779 0.146903 0.175151
0.050478 0.067767 0.102346
0.063728 0.080507 0.114067
0.079213 0.095397 0.127765
0.097211 0.112703 0.143687
0.117995 0.132688 0.162073
0.141819 0.155595 0.183147
0.168894 0.181629 0.207099
0.199368 0.210931 0.234056
0.233295 0.243553 0.264068
0.104441 0.119655 0.150083
0.126305 0.140677 0.169423
0.151290 0.164702 0.191526
0.179590 0.191913 0.216560
0.211320 0.222423 0.244629
0.246495 0.256246 0.275746
0.285002 0.293271 0.309809
0.326579 0.333249 0.346589
0.370811 0.375780 0.385717
0.190741 0.202636 0.226425
0.223730 0.234356 0.255608
0.260139 0.269364 0.287815
0.299802 0.307502 0.322902
0.342402 0.348463 0.360586
0.387466 0.391795 0.400451
0.434377 0.436901 0.441949
0.482398 0.483075 0.484429
0.529541 0.529541 0.529541
0.314993 0.322108 0.336340
0.358553 0.363993 0.374874
0.404368 0.408046 0.415402
0.451772 0.453627 0.457337
0.500000 0.500000 0.500000
0.546373 0.546373 0.546373
0.591954 0.591954 0.591954
0.636007 0.636007 0.636007
0.677892 0.677892 0.677892
0.469278 0.470459 0.472823
0.516925 0.516925 0.516925
0.563099 0.563099 0.563099
0.608205 0.608205 0.608205
0.651537 0.651537 0.651537
0.692498 0.692498 0.692498
0.730636 0.730636 0.730636
0.765644 0.765644 0.765644
0.797364 0.797364 0.797364
0.624220 0.624220 0.624220
0.666751 0.666751 0.666751
0.706729 0.706729 0.706729
0.743754 0.743754 0.743754
0.777577 0.777577 0.777577
0.808087 0.808087 0.808087
0.835298 0.835298 0.835298
0.859323 0.859323 0.859323
0.880345 0.880345 0.880345
0.756447 0.756447 0.756447
0.789069 0.789069 0.789069
0.818371 0.818371 0.818371
0.844405 0.844405 0.844405
0.867312 0.867312 0.867312
0.887297 0.887297 0.887297
0.904603 0.904603 0.904603
0.919493 0.919493 0.919493
0.932233 0.932233 0.932233
0.853097 0.853097 0.853097
0.874914 0.874914 0.874914
0.893894 0.893894 0.893894
0.910290 0.910290 0.910290
0.924366 0.924366 0.924366
0.936388 0.936388 0.936388
0.946609 0.946609 0.946609
0.955267 0.955267 0.955267
0.962576 0.962576 0.962576
0.021358 0.039768 0.076586
0.029412 0.047512 0.083711
0.038942 0.056675 0.092141
0.050180 0.067481 0.102082
0.063378 0.080171 0.113757
0.078805 0.095005 0.127405
0.096739 0.112249 0.143269
0.117452 0.132165 0.161592
0.141198 0.154998 0.182598
0.054744 0.071869 0.106120
0.068722 0.085309 0.118485
0.085029 0.100990 0.132911
0.103944 0.119177 0.149643
0.125733 0.140128 0.168918
0.150640 0.164077 0.190951
0.178857 0.191209 0.215912
0.210503 0.221637 0.243906
0.245594 0.255379 0.274949
0.111530 0.126471 0.156354
0.134429 0.148489 0.176610
0.160522 0.173578 0.199692
0.189978 0.201902 0.225750
0.222882 0.233541 0.254857
0.259209 0.268470 0.286992
0.298795 0.306534 0.322011
0.341328 0.347431 0.359637
0.386339 0.390711 0.399454
0.201557 0.213035 0.235993
0.235717 0.245881 0.266211
0.273256 0.281977 0.299419
0.313960 0.321116 0.335426
0.357458 0.362940 0.373905
0.403225 0.406947 0.414391
0.450600 0.452500 0.456300
0.498817 0.498863 0.498954
0.545245 0.545245 0.545245
0.329497 0.336055 0.349170
0.373890 0.378740 0.388441
0.420325 0.423389 0.429518
0.468099 0.469326 0.471780
0.515788 0.515788 0.515788
0.561980 0.561980 0.561980
0.607121 0.607121 0.607121
0.650503 0.650503 0.650503
0.691529 0.691529 0.691529
0.485671 0.486222 0.487324
0.532678 0.532678 0.532678
0.578575 0.578575 0.578575
0.623152 0.623152 0.623152
0.665739 0.665739 0.665739
0.705785 0.705785 0.705785
0.742886 0.742886 0.742886
0.776789 0.776789 0.776789
0.807380 0.807380 0.807380
0.638919 0.638919 0.638919
0.680637 0.680637 0.680637
0.719650 0.719650 0.719650
0.755608 0.755608 0.755608
0.788311 0.788311 0.788311
0.817694 0.817694 0.817694
0.843806 0.843806 0.843806
0.866788 0.866788 0.866788
0.886841 0.886841 0.886841
0.767897 0.767897 0.767897
0.799392 0.799392 0.799392
0.827573 0.827573 0.827573
0.852526 0.852526 0.852526
0.874415 0.874415 0.874415
0.893462 0.893462 0.893462
0.909917 0.909917 0.909917
0.924047 0.924047 0.924047
0.936116 0.936116 0.936116
0.860839 0.860839 0.860839
0.881666 0.881666 0.881666
0.899739 0.899739 0.899739
0.915317 0.915317 0.915317
0.928666 0.928666 0.928666
0.940049 0.940049 0.940049
0.949714 0.949714 0.949714
0.957890 0.957890 0.957890
0.964786 0.964786 0.964786
0.023941 0.042251 0.078871
0.032472 0.050454 0.086418
0.042555 0.060149 0.095337
0.054429 0.071566 0.105841
0.068353 0.084955 0.118159
0.084601 0.100577 0.132531
0.103448 0.118700 0.149204
0.125164 0.139581 0.168414
0.149992 0.163454 0.190378
0.059247 0.076199 0.110103
0.073985 0.090370 0.123140
0.091147 0.106872 0.138322
0.111008 0.125970 0.155892
0.133831 0.147915 0.176082
0.159844 0.172927 0.199093
0.189216 0.201170 0.225076
0.222036 0.232727 0.254109
0.258280 0.267577 0.286171
0.118962 0.133617 0.162928
0.142922 0.156656 0.184123
0.170142 0.182829 0.208202
0.200765 0.212274 0.235292
0.234840 0.245039 0.265436
0.272299 0.281057 0.298572
0.312929 0.320124 0.334514
0.356364 0.361889 0.372938
0.402084 0.405850 0.413382
0.212771 0.223819 0.245913
0.248094 0.257783 0.277160
0.286740 0.294942 0.311347
0.328442 0.335040 0.348237
0.372777 0.377670 0.387456
0.419170 0.422279 0.428497
0.466921 0.468193 0.470738
0.514652 0.514652 0.514652
0.560859 0.560859 0.560859
0.344305 0.350293 0.362270
0.389463 0.393714 0.402217
0.436437 0.438882 0.443772
0.484489 0.485086 0.486279
0.531546 0.531546 0.531546
0.577465 0.577465 0.577465
0.622083 0.622083 0.622083
0.664726 0.664726 0.664726
0.704839 0.704839 0.704839
0.502012 0.502012 0.502012
0.548367 0.548367 0.548367
0.593897 0.593897 0.593897
0.637869 0.637869 0.637869
0.679647 0.679647 0.679647
0.718731 0.718731 0.718731
0.754767 0.754767 0.754767
0.787551 0.787551 0.787551
0.817015 0.817015 0.817015
0.653362 0.653362 0.653362
0.694210 0.694210 0.694210
0.732217 0.732217 0.732217
0.767085 0.767085 0.767085
0.798662 0.798662 0.798662
0.826923 0.826923 0.826923
0.851953 0.851953 0.851953
0.873915 0.873915 0.873915
0.893028 0.893028 0.893028
0.778966 0.778966 0.778966
0.809332 0.809332 0.809332
0.836402 0.836402 0.836402
0.860293 0.860293 0.860293
0.881190 0.881190 0.881190
0.899328 0.899328 0.899328
0.914963 0.914963 0.914963
0.928364 0.928364 0.928364
0.939792 0.939792 0.939792
0.868236 0.868236 0.868236
0.888100 0.888100 0.888100
0.905296 0.905296 0.905296
0.920087 0.920087 0.920087
0.932739 0.932739 0.932739
0.943512 0.943512 0.943512
0.952646 0.952646 0.952646
0.960366 0.960366 0.960366
0.966871 0.966871 0.966871
0.026678 0.044883 0.081292
0.035711 0.053568 0.089282
0.046374 0.063821 0.098715
0.058914 0.075879 0.109809
0.073597 0.089997 0.122797
0.090696 0.106438 0.137923
0.110488 0.125469 0.155432
0.133236 0.147342 0.175555
0.159168 0.172277 0.198495
0.063997 0.080767 0.114305
0.079527 0.095699 0.128043
0.097575 0.113053 0.144009
0.118415 0.133091 0.162444
0.142298 0.156056 0.183571
0.169436 0.182150 0.207578
0.199974 0.211514 0.234593
0.233966 0.244198 0.264662
0.271344 0.280138 0.297727
0.126745 0.141101 0.169813
0.151792 0.165184 0.191969
0.180155 0.192457 0.217060
0.211950 0.223029 0.245187
0.247190 0.256913 0.276360
0.285757 0.293997 0.310477
0.327389 0.334028 0.347305
0.371665 0.376601 0.386473
0.418016 0.421169 0.427476
0.224384 0.234985 0.256186
0.260856 0.270054 0.288449
0.300577 0.308248 0.323588
0.343229 0.349259 0.361318
0.388334 0.392629 0.401219
0.435272 0.437762 0.442741
0.483307 0.483949 0.485233
0.530412 0.530412 0.530412
0.576354 0.576354 0.576354
0.359396 0.364804 0.375619
0.405247 0.408891 0.416180
0.452675 0.454495 0.458135
0.500875 0.500875 0.500875
0.547240 0.547240 0.547240
0.592799 0.592799 0.592799
0.636817 0.636817 0.636817
0.678656 0.678656 0.678656
0.717810 0.717810 0.717810
0.517799 0.517799 0.517799
0.563960 0.563960 0.563960
0.609039 0.609039 0.609039
0.652331 0.652331 0.652331
0.693243 0.693243 0.693243
0.731324 0.731324 0.731324
0.766271 0.766271 0.766271
0.797929 0.797929 0.797929
0.826271 0.826271 0.826271
0.667528 0.667528 0.667528
0.707454 0.707454 0.707454
0.744421 0.744421 0.744421
0.778181 0.778181 0.778181
0.808629 0.808629 0.808629
0.835779 0.835779 0.835779
0.859745 0.859745 0.859745
0.880713 0.880713 0.880713
0.898915 0.898915 0.898915
0.789651 0.789651 0.789651
0.818891 0.818891 0.818891
0.844864 0.844864 0.844864
0.867714 0.867714 0.867714
0.887647 0.887647 0.887647
0.904905 0.904905 0.904905
0.919751 0.919751 0.919751
0.932453 0.932453 0.932453
0.943269 0.943269 0.943269
0.875297 0.875297 0.875297
0.894226 0.894226 0.894226
0.910575 0.910575 0.910575
0.924610 0.924610 0.924610
0.936596 0.936596 0.936596
0.946786 0.946786 0.946786
0.955416 0.955416 0.955416
0.962702 0.962702 0.962702
0.968836 0.968836 0.968836
0.029577 0.047670 0.083857
0.039137 0.056863 0.092314
0.050409 0.067701 0.102285
0.063647 0.080430 0.113995
0.079119 0.095306 0.127682
0.097102 0.112598 0.143590
0.117870 0.132567 0.161962
0.141675 0.155457 0.183021
0.168732 0.181473 0.206955
0.069006 0.085583 0.118736
0.085360 0.101308 0.133203
0.104326 0.119545 0.149981
0.126173 0.140551 0.169306
0.151140 0.164558 0.191393
0.179421 0.191751 0.216411
0.211131 0.222242 0.244462
0.246287 0.256045 0.275562
0.284776 0.293053 0.309609
0.134890 0.148932 0.177018
0.161044 0.174081 0.200155
0.190565 0.202466 0.226269
0.223535 0.234168 0.255434
0.259924 0.269158 0.287625
0.299569 0.307278 0.322696
0.342154 0.348225 0.360367
0.387206 0.391544 0.400221
0.434108 0.436642 0.441711
0.236392 0.246531 0.266809
0.273994 0.282686 0.300071
0.314754 0.321879 0.336129
0.358300 0.363750 0.374650
0.404104 0.407792 0.415169
0.451502 0.453367 0.457098
0.499727 0.499738 0.499759
0.546112 0.546112 0.546112
0.591701 0.591701 0.591701
0.374746 0.379564 0.389199
0.421214 0.424244 0.430305
0.469006 0.470198 0.472582
0.516663 0.516663 0.516663
0.562841 0.562841 0.562841
0.607955 0.607955 0.607955
0.651298 0.651298 0.651298
0.692275 0.692275 0.692275
0.730429 0.730429 0.730429
0.533550 0.533550 0.533550
0.579428 0.579428 0.579428
0.623974 0.623974 0.623974
0.666517 0.666517 0.666517
0.706511 0.706511 0.706511
0.743554 0.743554 0.743554
0.777395 0.777395 0.777395
0.807924 0.807924 0.807924
0.835153 0.835153 0.835153
0.681397 0.681397 0.681397
0.720355 0.720355 0.720355
0.756254 0.756254 0.756254
0.788895 0.788895 0.788895
0.818215 0.818215 0.818215
0.844267 0.844267 0.844267
0.867191 0.867191 0.867191
0.887192 0.887192 0.887192
0.904512 0.904512 0.904512
0.799953 0.799953 0.799953
0.828072 0.828072 0.828072
0.852965 0.852965 0.852965
0.874799 0.874799 0.874799
0.893795 0.893795 0.893795
0.910204 0.910204 0.910204
0.924292 0.924292 0.924292
0.936325 0.936325 0.936325
0.946556 0.946556 0.946556
0.882030 0.882030 0.882030
0.900054 0.900054 0.900054
0.915587 0.915587 0.915587
0.928897 0.928897 0.928897
0.940246 0.940246 0.940246
0.949880 0.949880 0.949880
0.958031 0.958031 0.958031
0.964905 0.964905 0.964905
0.970688 0.970688 0.970688
