assets/luts/noir.cube
# Film noir: high contrast B&W with blue shadow tint.
# Generated procedurally by videokit gen-luts.py
TITLE "noir"
LUT_3D_SIZE 17
DOMAIN_MIN 0.0 0.0 0.0
DOMAIN_MAX 1.0 1.0 1.0
0.010485 0.029312 0.066967
0.013361 0.032078 0.069512
0.016499 0.035095 0.072287
0.019920 0.038384 0.075314
0.023648 0.041969 0.078611
0.027707 0.045872 0.082202
0.032124 0.050120 0.086110
0.036927 0.054738 0.090359
0.042144 0.059754 0.094974
0.047807 0.065199 0.099983
0.053947 0.071103 0.105414
0.060596 0.077496 0.111297
0.067789 0.084413 0.117660
0.075560 0.091885 0.124534
0.083944 0.099946 0.131950
0.092975 0.108630 0.139940
0.102688 0.117970 0.148532
0.021240 0.039654 0.076482
0.025086 0.043352 0.079884
0.029272 0.047377 0.083587
0.033827 0.051756 0.087616
0.038777 0.056516 0.091995
0.044153 0.061685 0.096751
0.049985 0.067294 0.101910
0.056307 0.073372 0.107502
0.063150 0.079952 0.113556
0.070549 0.087067 0.120101
0.078539 0.094750 0.127170
0.087155 0.103034 0.134791
0.096431 0.111953 0.142996
0.106400 0.121539 0.151816
0.117097 0.131824 0.161278
0.128552 0.142838 0.171411
0.140793 0.154609 0.182240
0.035582 0.053444 0.089168
0.040683 0.058349 0.093681
0.046222 0.063675 0.098581
0.052228 0.069450 0.103894
0.058736 0.075708 0.109651
0.065778 0.082479 0.115880
0.073388 0.089796 0.122613
0.081602 0.097694 0.129879
0.090454 0.106205 0.137709
0.099978 0.115364 0.146135
0.110209 0.125201 0.155185
0.121178 0.135748 0.164888
0.132916 0.147035 0.175272
0.145450 0.159087 0.186360
0.158805 0.171928 0.198174
0.173000 0.185577 0.210730
0.188049 0.200047 0.224043
0.054538 0.071671 0.105937
0.061236 0.078111 0.111863
0.068481 0.085078 0.118271
0.076307 0.092603 0.125194
0.084749 0.100720 0.132662
0.093842 0.109463 0.140706
0.103619 0.118865 0.149356
0.114115 0.128957 0.158640
0.125361 0.139770 0.168589
0.137386 0.151333 0.179226
0.150216 0.163669 0.190576
0.163875 0.176803 0.202658
0.178379 0.190749 0.215489
0.193742 0.205521 0.229079
0.209970 0.221125 0.243435
0.227061 0.237558 0.258554
0.245007 0.254814 0.274429
0.079307 0.095488 0.127849
0.087982 0.103829 0.135523
0.097320 0.112808 0.143783
0.107356 0.122457 0.152661
0.118121 0.132809 0.162184
0.129647 0.143892 0.172380
0.141962 0.155733 0.183274
0.155092 0.168358 0.194889
0.169056 0.181785 0.207242
0.183872 0.196031 0.220349
0.199550 0.211105 0.234217
0.216092 0.227012 0.248851
0.233496 0.243746 0.264246
0.251749 0.261297 0.280393
0.270830 0.279645 0.297273
0.290710 0.298759 0.314859
0.311347 0.318603 0.333115
0.111189 0.126143 0.156052
0.122228 0.136757 0.165817
0.134038 0.148113 0.176264
0.146647 0.160237 0.187418
0.160078 0.173152 0.199300
0.174351 0.186876 0.211926
0.189480 0.201423 0.225309
0.205472 0.216800 0.239456
0.222329 0.233009 0.254368
0.240044 0.250042 0.270039
0.258601 0.267886 0.286455
0.277977 0.286517 0.303595
0.298138 0.305902 0.321430
0.319039 0.325999 0.339919
0.340627 0.346757 0.359016
0.362839 0.368115 0.378666
0.385603 0.390003 0.398803
0.151440 0.164847 0.191659
0.165176 0.178054 0.203810
0.179759 0.192076 0.216710
0.195202 0.206925 0.230371
0.211509 0.222605 0.244797
0.228680 0.239115 0.259986
0.246703 0.256446 0.275930
0.265562 0.274579 0.292613
0.285228 0.293489 0.310010
0.305664 0.313138 0.328087
0.326822 0.333483 0.346804
0.348645 0.354467 0.366109
0.371067 0.376026 0.385944
0.394012 0.398088 0.406241
0.417395 0.420572 0.426926
0.441126 0.443391 0.447919
0.465109 0.466450 0.469134
0.201039 0.212537 0.235534
0.217661 0.228520 0.250238
0.235143 0.245330 0.265704
0.253474 0.262956 0.281919
0.272630 0.281375 0.298865
0.292581 0.300559 0.316514
0.313286 0.320467 0.334830
0.334693 0.341051 0.353767
0.356743 0.362253 0.373273
0.379364 0.384004 0.393284
0.402479 0.406229 0.413731
0.425999 0.428846 0.434538
0.449834 0.451763 0.455622
0.473882 0.474887 0.476896
0.498044 0.498119 0.498269
0.521359 0.521359 0.521359
0.544507 0.544507 0.544507
0.260354 0.269571 0.288005
0.279804 0.288273 0.305211
0.300034 0.307725 0.323107
0.321001 0.327886 0.341655
0.342650 0.348702 0.360806
0.364916 0.370112 0.380503
0.387727 0.392045 0.400681
0.410999 0.414423 0.421269
0.434645 0.437159 0.442186
0.458569 0.460163 0.463350
0.482671 0.483337 0.484670
0.506584 0.506584 0.506584
0.529802 0.529802 0.529802
0.552892 0.552892 0.552892
0.575756 0.575756 0.575756
0.598300 0.598300 0.598300
0.620436 0.620436 0.620436
0.328807 0.335391 0.348560
0.350688 0.356431 0.367917
0.373162 0.378040 0.387797
0.396150 0.400145 0.408133
0.419570 0.422663 0.428850
0.443328 0.445508 0.449867
0.467329 0.468585 0.471098
0.491470 0.491798 0.492454
0.515045 0.515045 0.515045
0.538228 0.538228 0.538228
0.561247 0.561247 0.561247
0.584005 0.584005 0.584005
0.606411 0.606411 0.606411
0.628377 0.628377 0.628377
0.649826 0.649826 0.649826
0.670686 0.670686 0.670686
0.690894 0.690894 0.690894
0.404631 0.408299 0.415635
0.428185 0.430947 0.436471
0.452043 0.453888 0.457577
0.476107 0.477026 0.478864
0.500262 0.500262 0.500262
0.523498 0.523498 0.523498
0.546633 0.546633 0.546633
0.569568 0.569568 0.569568
0.592208 0.592208 0.592208
0.614463 0.614463 0.614463
0.636250 0.636250 0.636250
0.657492 0.657492 0.657492
0.678121 0.678121 0.678121
0.698078 0.698078 0.698078
0.717314 0.717314 0.717314
0.735787 0.735787 0.735787
0.753469 0.753469 0.753469
0.484898 0.485479 0.486641
0.508727 0.508727 0.508727
0.531938 0.531938 0.531938
0.555011 0.555011 0.555011
0.577849 0.577849 0.577849
0.600359 0.600359 0.600359
0.622453 0.622453 0.622453
0.644050 0.644050 0.644050
0.665077 0.665077 0.665077
0.685467 0.685467 0.685467
0.705167 0.705167 0.705167
0.724129 0.724129 0.724129
0.742318 0.742318 0.742318
0.759705 0.759705 0.759705
0.776273 0.776273 0.776273
0.792011 0.792011 0.792011
0.806917 0.806917 0.806917
0.563358 0.563358 0.563358
0.586087 0.586087 0.586087
0.608456 0.608456 0.608456
0.630378 0.630378 0.630378
0.651775 0.651775 0.651775
0.672577 0.672577 0.672577
0.692722 0.692722 0.692722
0.712158 0.712158 0.712158
0.730842 0.730842 0.730842
0.748742 0.748742 0.748742
0.765832 0.765832 0.765832
0.782098 0.782098 0.782098
0.797534 0.797534 0.797534
0.812138 0.812138 0.812138
0.825919 0.825919 0.825919
0.838889 0.838889 0.838889
0.851068 0.851068 0.851068
0.638232 0.638232 0.638232
0.659420 0.659420 0.659420
0.679990 0.679990 0.679990
0.699882 0.699882 0.699882
0.719049 0.719049 0.719049
0.737451 0.737451 0.737451
0.755058 0.755058 0.755058
0.771850 0.771850 0.771850
0.787814 0.787814 0.787814
0.802946 0.802946 0.802946
0.817250 0.817250 0.817250
0.830734 0.830734 0.830734
0.843414 0.843414 0.843414
0.855309 0.855309 0.855309
0.866444 0.866444 0.866444
0.876845 0.876845 0.876845
0.886542 0.886542 0.886542
0.706947 0.706947 0.706947
0.725839 0.725839 0.725839
0.743955 0.743955 0.743955
0.761267 0.761267 0.761267
0.777758 0.777758 0.777758
0.793420 0.793420 0.793420
0.808249 0.808249 0.808249
0.822253 0.822253 0.822253
0.835442 0.835442 0.835442
0.847834 0.847834 0.847834
0.859449 0.859449 0.859449
0.870314 0.870314 0.870314
0.880455 0.880455 0.880455
0.889904 0.889904 0.889904
0.898692 0.898692 0.898692
0.906852 0.906852 0.906852
0.914417 0.914417 0.914417
0.767366 0.767366 0.767366
0.783556 0.783556 0.783556
0.798915 0.798915 0.798915
0.813443 0.813443 0.813443
0.827148 0.827148 0.827148
0.840045 0.840045 0.840045
0.852151 0.852151 0.852151
0.863490 0.863490 0.863490
0.874088 0.874088 0.874088
0.883974 0.883974 0.883974
0.893178 0.893178 0.893178
0.901734 0.901734 0.901734
0.909673 0.909673 0.909673
0.917030 0.917030 0.917030
0.923838 0.923838 0.923838
0.930130 0.930130 0.930130
0.935938 0.935938 0.935938
0.818527 0.818527 0.818527
0.831936 0.831936 0.831936
0.844543 0.844543 0.844543
0.856367 0.856367 0.856367
0.867433 0.867433 0.867433
0.877768 0.877768 0.877768
0.887402 0.887402 0.887402
0.896366 0.896366 0.896366
0.904694 0.904694 0.904694
0.912417 0.912417 0.912417
0.919570 0.919570 0.919570
0.926187 0.926187 0.926187
0.932299 0.932299 0.932299
0.937939 0.937939 0.937939
0.943137 0.943137 0.943137
0.947925 0.947925 0.947925
0.952330 0.952330 0.952330
0.011433 0.030224 0.067807
0.014396 0.033073 0.070427
0.017628 0.036180 0.073286
0.021150 0.039568 0.076402
0.024988 0.043258 0.079797
0.029166 0.047275 0.083493
0.033711 0.051645 0.087513
0.038651 0.056395 0.091884
0.044016 0.061554 0.096630
0.049837 0.067151 0.101779
0.056146 0.073217 0.107360
0.062976 0.079785 0.113402
0.070362 0.086886 0.119935
0.078337 0.094555 0.126990
0.086937 0.102824 0.134598
0.096196 0.111727 0.142788
0.106148 0.121296 0.151592
0.022510 0.040875 0.077605
0.026468 0.044681 0.081106
0.030776 0.048824 0.084918
0.035462 0.053329 0.089063
0.040553 0.058224 0.093566
0.046081 0.063539 0.098456
0.052076 0.069304 0.103759
0.058570 0.075549 0.109505
0.065599 0.082307 0.115722
0.073195 0.089611 0.122442
0.081393 0.097494 0.129694
0.090229 0.105990 0.137511
0.099737 0.115132 0.145921
0.109950 0.124952 0.154956
0.120901 0.135482 0.164643
0.132620 0.146750 0.175010
0.145134 0.158783 0.186080
0.037267 0.055064 0.090659
0.042514 0.060109 0.095301
0.048208 0.065584 0.100337
0.054381 0.071520 0.105798
0.061066 0.077948 0.111712
0.068297 0.084901 0.118109
0.076108 0.092412 0.125019
0.084535 0.100514 0.132473
0.093611 0.109241 0.140502
0.103372 0.118627 0.149137
0.113850 0.128702 0.158406
0.125077 0.139497 0.168337
0.137082 0.151041 0.178957
0.149893 0.163358 0.190290
0.163531 0.176472 0.202354
0.178014 0.190398 0.215166
0.193356 0.205150 0.228738
0.056753 0.073801 0.107897
0.063633 0.080417 0.113983
0.071072 0.087569 0.120563
0.079103 0.095291 0.127668
0.087762 0.103617 0.135328
0.097084 0.112580 0.143574
0.107102 0.122213 0.152436
0.117849 0.132547 0.161943
0.129356 0.143611 0.172123
0.141652 0.155434 0.182999
0.154761 0.168039 0.194596
0.168705 0.181447 0.206931
0.183500 0.195673 0.220019
0.199156 0.210727 0.233869
0.215677 0.226613 0.248484
0.233060 0.243327 0.263861
0.251293 0.260858 0.279990
0.082181 0.098251 0.130391
0.091077 0.106805 0.138261
0.100648 0.116008 0.146727
0.110928 0.125892 0.155821
0.121949 0.136489 0.165570
0.133740 0.147827 0.176000
0.146329 0.159932 0.187137
0.159740 0.172827 0.199001
0.173992 0.186531 0.211608
0.189099 0.201057 0.224973
0.205071 0.216414 0.239101
0.221906 0.232602 0.253994
0.239600 0.249616 0.269647
0.258138 0.267440 0.286045
0.277494 0.286052 0.303168
0.297636 0.305419 0.320985
0.318519 0.325499 0.339459
0.114853 0.129666 0.159293
0.126151 0.140529 0.169287
0.138229 0.152143 0.179972
0.151115 0.164534 0.191371
0.164830 0.177721 0.203504
0.179392 0.191723 0.216386
0.194814 0.206552 0.230028
0.211100 0.222212 0.244435
0.228249 0.238701 0.259605
0.246253 0.256012 0.275531
0.265091 0.274126 0.292196
0.284738 0.293017 0.309576
0.305155 0.312649 0.327637
0.326296 0.332977 0.346339
0.348104 0.353946 0.365631
0.370512 0.375492 0.385453
0.393445 0.397543 0.405740
0.156011 0.169241 0.195702
0.170033 0.182724 0.208106
0.184907 0.197026 0.221264
0.200643 0.212157 0.235184
0.217244 0.228119 0.249870
0.234706 0.244909 0.265317
0.253016 0.262515 0.281514
0.272152 0.280915 0.298442
0.292084 0.300081 0.316074
0.312771 0.319972 0.334374
0.334162 0.340540 0.353297
0.356196 0.361727 0.372789
0.378805 0.383466 0.392789
0.401908 0.405681 0.413226
0.425420 0.428288 0.434025
0.449248 0.451200 0.455104
0.473292 0.474319 0.476374
0.206587 0.217872 0.240442
0.223502 0.234136 0.255406
0.241274 0.251225 0.271127
0.259888 0.269123 0.287593
0.279318 0.287806 0.304782
0.299531 0.307241 0.322662
0.320480 0.327385 0.341194
0.342113 0.348185 0.360331
0.364365 0.369582 0.380015
0.387163 0.391503 0.400182
0.410425 0.413871 0.420761
0.434063 0.436599 0.441671
0.457982 0.459598 0.462830
0.482080 0.482769 0.484148
0.506015 0.506015 0.506015
0.529235 0.529235 0.529235
0.552330 0.552330 0.552330
0.266869 0.275836 0.293769
0.286589 0.294797 0.311213
0.307075 0.314495 0.329335
0.328280 0.334885 0.348094
0.350146 0.355910 0.367437
0.372606 0.377505 0.387305
0.395583 0.399599 0.407631
0.418993 0.422108 0.428340
0.442744 0.444946 0.449350
0.466739 0.468019 0.470577
0.490878 0.491229 0.491931
0.514477 0.514477 0.514477
0.537663 0.537663 0.537663
0.560687 0.560687 0.560687
0.583452 0.583452 0.583452
0.605868 0.605868 0.605868
0.627846 0.627846 0.627846
0.336167 0.342469 0.355071
0.358258 0.363709 0.374613
0.380915 0.385495 0.394656
0.404060 0.407750 0.415130
0.427605 0.430389 0.435958
0.451457 0.453324 0.457058
0.475516 0.476458 0.478341
0.499682 0.499694 0.499718
0.522931 0.522931 0.522931
0.546069 0.546069 0.546069
0.569010 0.569010 0.569010
0.591658 0.591658 0.591658
0.613924 0.613924 0.613924
0.635723 0.635723 0.635723
0.656979 0.656979 0.656979
0.677624 0.677624 0.677624
0.697598 0.697598 0.697598
0.412590 0.415952 0.422676
0.436258 0.438710 0.443613
0.460197 0.461728 0.464790
0.484307 0.484911 0.486118
0.508159 0.508159 0.508159
0.531371 0.531371 0.531371
0.554449 0.554449 0.554449
0.577294 0.577294 0.577294
0.599813 0.599813 0.599813
0.621919 0.621919 0.621919
0.643529 0.643529 0.643529
0.664570 0.664570 0.664570
0.684977 0.684977 0.684977
0.704694 0.704694 0.704694
0.723675 0.723675 0.723675
0.741882 0.741882 0.741882
0.759289 0.759289 0.759289
0.493107 0.493372 0.493902
0.516619 0.516619 0.516619
0.539794 0.539794 0.539794
0.562798 0.562798 0.562798
0.585535 0.585535 0.585535
0.607913 0.607913 0.607913
0.629847 0.629847 0.629847
0.651258 0.651258 0.651258
0.672076 0.672076 0.672076
0.692237 0.692237 0.692237
0.711691 0.711691 0.711691
0.730394 0.730394 0.730394
0.748313 0.748313 0.748313
0.765424 0.765424 0.765424
0.781711 0.781711 0.781711
0.797166 0.797166 0.797166
0.811791 0.811791 0.811791
0.571112 0.571112 0.571112
0.593728 0.593728 0.593728
0.615955 0.615955 0.615955
0.637707 0.637707 0.637707
0.658909 0.658909 0.658909
0.679495 0.679495 0.679495
0.699404 0.699404 0.699404
0.718589 0.718589 0.718589
0.737010 0.737010 0.737010
0.754637 0.754637 0.754637
0.771449 0.771449 0.771449
0.787434 0.787434 0.787434
0.802586 0.802586 0.802586
0.816910 0.816910 0.816910
0.830414 0.830414 0.830414
0.843113 0.843113 0.843113
0.855027 0.855027 0.855027
0.645493 0.645493 0.645493
0.666478 0.666478 0.666478
0.686824 0.686824 0.686824
0.706475 0.706475 0.706475
0.725386 0.725386 0.725386
0.743521 0.743521 0.743521
0.760853 0.760853 0.760853
0.777365 0.777365 0.777365
0.793046 0.793046 0.793046
0.807897 0.807897 0.807897
0.821920 0.821920 0.821920
0.835129 0.835129 0.835129
0.847540 0.847540 0.847540
0.859174 0.859174 0.859174
0.870057 0.870057 0.870057
0.880216 0.880216 0.880216
0.889681 0.889681 0.889681
0.713448 0.713448 0.713448
0.732080 0.732080 0.732080
0.749925 0.749925 0.749925
0.766960 0.766960 0.766960
0.783170 0.783170 0.783170
0.798549 0.798549 0.798549
0.813097 0.813097 0.813097
0.826823 0.826823 0.826823
0.839739 0.839739 0.839739
0.851864 0.851864 0.851864
0.863222 0.863222 0.863222
0.873838 0.873838 0.873838
0.883740 0.883740 0.883740
0.892961 0.892961 0.892961
0.901532 0.901532 0.901532
0.909486 0.909486 0.909486
0.916857 0.916857 0.916857
0.772958 0.772958 0.772958
0.788865 0.788865 0.788865
0.803941 0.803941 0.803941
0.818189 0.818189 0.818189
0.831618 0.831618 0.831618
0.844244 0.844244 0.844244
0.856087 0.856087 0.856087
0.867171 0.867171 0.867171
0.877524 0.877524 0.877524
0.887175 0.887175 0.887175
0.896155 0.896155 0.896155
0.904497 0.904497 0.904497
0.912235 0.912235 0.912235
0.919402 0.919402 0.919402
0.926031 0.926031 0.926031
0.932155 0.932155 0.932155
0.937806 0.937806 0.937806
0.823172 0.823172 0.823172
0.836307 0.836307 0.836307
0.848645 0.848645 0.848645
0.860209 0.860209 0.860209
0.871023 0.871023 0.871023
0.881117 0.881117 0.881117
0.890520 0.890520 0.890520
0.899264 0.899264 0.899264
0.907383 0.907383 0.907383
0.914909 0.914909 0.914909
0.921876 0.921876 0.921876
0.928317 0.928317 0.928317
0.934266 0.934266 0.934266
0.939752 0.939752 0.939752
0.944808 0.944808 0.944808
0.949462 0.949462 0.949462
0.953743 0.953743 0.953743
0.012411 0.031164 0.068671
0.015462 0.034098 0.071370
0.018790 0.037298 0.074314
0.022417 0.040786 0.077523
0.026367 0.044584 0.081017
0.030667 0.048718 0.084821
0.035343 0.053214 0.088957
0.040424 0.058100 0.093452
0.045940 0.063404 0.098332
0.051923 0.069157 0.103624
0.058405 0.075390 0.109359
0.065420 0.082135 0.115564
0.073002 0.089425 0.122271
0.081185 0.097294 0.129510
0.090005 0.105774 0.137312
0.099496 0.114900 0.145708
0.109691 0.124703 0.154727
0.023816 0.042131 0.078761
0.027891 0.046049 0.082365
0.032324 0.050312 0.086287
0.037144 0.054946 0.090550
0.042380 0.059981 0.095182
0.048063 0.065445 0.100209
0.054224 0.071369 0.105659
0.060896 0.077784 0.111562
0.068113 0.084724 0.117946
0.075910 0.092221 0.124843
0.084321 0.100309 0.132284
0.093381 0.109020 0.140299
0.103125 0.118389 0.148918
0.113585 0.128447 0.158171
0.124793 0.139224 0.168086
0.136779 0.150749 0.178689
0.149570 0.163048 0.190004
0.039001 0.056731 0.092193
0.044396 0.061919 0.096965
0.050249 0.067547 0.102143
0.056592 0.073646 0.107754
0.063458 0.080249 0.113829
0.070883 0.087387 0.120396
0.078899 0.095095 0.127488
0.087542 0.103406 0.135134
0.096847 0.112353 0.143365
0.106848 0.121969 0.152212
0.117577 0.132286 0.161703
0.129065 0.143332 0.171865
0.141341 0.155136 0.182725
0.154430 0.167721 0.194304
0.168354 0.181109 0.206621
0.183128 0.195315 0.219690
0.198763 0.210349 0.233521
0.059029 0.075990 0.109911
0.066095 0.082784 0.116161
0.073731 0.090126 0.122916
0.081971 0.098049 0.130206
0.090852 0.106588 0.138061
0.100406 0.115775 0.146513
0.110668 0.125642 0.155591
0.121670 0.136221 0.165323
0.133442 0.147540 0.175737
0.146011 0.159626 0.186856
0.159402 0.172502 0.198702
0.173633 0.186186 0.211291
0.188720 0.200692 0.224637
0.204670 0.216028 0.238746
0.221484 0.232196 0.253621
0.239157 0.249190 0.269255
0.257674 0.266995 0.285635
0.085129 0.101085 0.132998
0.094250 0.109856 0.141068
0.104058 0.119287 0.149744
0.114586 0.129410 0.159057
0.125865 0.140255 0.169034
0.137924 0.151850 0.179702
0.150790 0.164221 0.191083
0.164485 0.177389 0.203198
0.179026 0.191371 0.216062
0.194426 0.206179 0.229685
0.210691 0.221819 0.244073
0.227820 0.238288 0.259225
0.245802 0.255579 0.275133
0.264621 0.273674 0.291780
0.284248 0.292546 0.309142
0.304647 0.312161 0.327188
0.325771 0.332472 0.345874
0.118604 0.133273 0.162611
0.130164 0.144388 0.172837
0.142514 0.156263 0.183762
0.155679 0.168922 0.195408
0.169680 0.182385 0.207794
0.184533 0.196666 0.220933
0.200248 0.211777 0.234834
0.216827 0.227719 0.249501
0.234268 0.244489 0.264930
0.252558 0.262075 0.281109
0.271674 0.280456 0.298020
0.291587 0.299603 0.315635
0.312256 0.319477 0.333919
0.333631 0.340030 0.352827
0.355650 0.361202 0.372306
0.378245 0.382928 0.392294
0.401338 0.405132 0.412722
0.160678 0.173729 0.199831
0.174988 0.187489 0.212489
0.190154 0.202071 0.225905
0.206184 0.217484 0.240086
0.223078 0.233729 0.255030
0.240830 0.250798 0.270734
0.259423 0.268676 0.287182
0.278834 0.287340 0.304353
0.299027 0.306757 0.322216
0.319959 0.326884 0.340733
0.341576 0.347669 0.359856
0.363814 0.369052 0.379527
0.386599 0.390961 0.399684
0.409852 0.413319 0.420253
0.433481 0.436040 0.441157
0.457394 0.459033 0.462310
0.481489 0.482201 0.483625
0.212234 0.223302 0.245438
0.229442 0.239848 0.260660
0.247502 0.257214 0.276637
0.266397 0.275382 0.293351
0.286097 0.294324 0.310778
0.306565 0.314005 0.328884
0.327753 0.334378 0.347628
0.349604 0.355388 0.366957
0.372050 0.376971 0.386813
0.395015 0.399053 0.407129
0.418415 0.421553 0.427829
0.442160 0.444384 0.448833
0.466150 0.467452 0.470056
0.490287 0.490660 0.491408
0.513909 0.513909 0.513909
0.537097 0.537097 0.537097
0.560126 0.560126 0.560126
0.273477 0.282190 0.299615
0.293462 0.301406 0.317293
0.314198 0.321344 0.335637
0.335635 0.341957 0.354600
0.357710 0.363183 0.374128
0.380355 0.384957 0.394160
0.403489 0.407201 0.414625
0.427025 0.429832 0.435445
0.450870 0.452760 0.456539
0.474926 0.475891 0.477819
0.499090 0.499125 0.499195
0.522363 0.522363 0.522363
0.545505 0.545505 0.545505
0.568452 0.568452 0.568452
0.591109 0.591109 0.591109
0.613385 0.613385 0.613385
0.635196 0.635196 0.635196
0.343601 0.349617 0.361647
0.365893 0.371051 0.381367
0.388725 0.393005 0.401564
0.412016 0.415400 0.422168
0.435676 0.438150 0.443098
0.459609 0.461163 0.464270
0.483716 0.484343 0.485595
0.507590 0.507590 0.507590
0.530805 0.530805 0.530805
0.553887 0.553887 0.553887
0.576739 0.576739 0.576739
0.599267 0.599267 0.599267
0.621384 0.621384 0.621384
0.643007 0.643007 0.643007
0.664062 0.664062 0.664062
0.684485 0.684485 0.684485
0.704220 0.704220 0.704220
0.420592 0.423646 0.429754
0.444363 0.446502 0.450782
0.468371 0.469588 0.472021
0.492516 0.492804 0.493379
0.516051 0.516051 0.516051
0.539229 0.539229 0.539229
0.562238 0.562238 0.562238
0.584983 0.584983 0.584983
0.607371 0.607371 0.607371
0.629317 0.629317 0.629317
0.650741 0.650741 0.650741
0.671574 0.671574 0.671574
0.691752 0.691752 0.691752
0.711224 0.711224 0.711224
0.729946 0.729946 0.729946
0.747885 0.747885 0.747885
0.765015 0.765015 0.765015
0.501269 0.501269 0.501269
0.524502 0.524502 0.524502
0.547630 0.547630 0.547630
0.570554 0.570554 0.570554
0.593180 0.593180 0.593180
0.615416 0.615416 0.615416
0.637181 0.637181 0.637181
0.658398 0.658398 0.658398
0.678999 0.678999 0.678999
0.698926 0.698926 0.698926
0.718129 0.718129 0.718129
0.736569 0.736569 0.736569
0.754216 0.754216 0.754216
0.771048 0.771048 0.771048
0.787053 0.787053 0.787053
0.802226 0.802226 0.802226
0.816569 0.816569 0.816569
0.578831 0.578831 0.578831
0.601325 0.601325 0.601325
0.623399 0.623399 0.623399
0.644973 0.644973 0.644973
0.665972 0.665972 0.665972
0.686334 0.686334 0.686334
0.706003 0.706003 0.706003
0.724933 0.724933 0.724933
0.743087 0.743087 0.743087
0.760439 0.760439 0.760439
0.776971 0.776971 0.776971
0.792673 0.792673 0.792673
0.807543 0.807543 0.807543
0.821587 0.821587 0.821587
0.834816 0.834816 0.834816
0.847246 0.847246 0.847246
0.858899 0.858899 0.858899
0.652688 0.652688 0.652688
0.673462 0.673462 0.673462
0.693578 0.693578 0.693578
0.712982 0.712982 0.712982
0.731633 0.731633 0.731633
0.749498 0.749498 0.749498
0.766553 0.766553 0.766553
0.782784 0.782784 0.782784
0.798183 0.798183 0.798183
0.812751 0.812751 0.812751
0.826497 0.826497 0.826497
0.839433 0.839433 0.839433
0.851577 0.851577 0.851577
0.862953 0.862953 0.862953
0.873587 0.873587 0.873587
0.883506 0.883506 0.883506
0.892743 0.892743 0.892743
0.719862 0.719862 0.719862
0.738230 0.738230 0.738230
0.755802 0.755802 0.755802
0.772558 0.772558 0.772558
0.788486 0.788486 0.788486
0.803583 0.803583 0.803583
0.817850 0.817850 0.817850
0.831299 0.831299 0.831299
0.843944 0.843944 0.843944
0.855806 0.855806 0.855806
0.866909 0.866909 0.866909
0.877279 0.877279 0.877279
0.886947 0.886947 0.886947
0.895943 0.895943 0.895943
0.904301 0.904301 0.904301
0.912053 0.912053 0.912053
0.919233 0.919233 0.919233
0.778453 0.778453 0.778453
0.794079 0.794079 0.794079
0.808872 0.808872 0.808872
0.822841 0.822841 0.822841
0.835995 0.835995 0.835995
0.848353 0.848353 0.848353
0.859935 0.859935 0.859935
0.870768 0.870768 0.870768
0.880878 0.880878 0.880878
0.890298 0.890298 0.890298
0.899058 0.899058 0.899058
0.907191 0.907191 0.907191
0.914731 0.914731 0.914731
0.921712 0.921712 0.921712
0.928166 0.928166 0.928166
0.934126 0.934126 0.934126
0.939623 0.939623 0.939623
0.827723 0.827723 0.827723
0.840585 0.840585 0.840585
0.852658 0.852658 0.852658
0.863964 0.863964 0.863964
0.874531 0.874531 0.874531
0.884386 0.884386 0.884386
0.893562 0.893562 0.893562
0.902090 0.902090 0.902090
0.910003 0.910003 0.910003
0.917336 0.917336 0.917336
0.924121 0.924121 0.924121
0.930391 0.930391 0.930391
0.936179 0.936179 0.936179
0.941516 0.941516 0.941516
0.946432 0.946432 0.946432
0.950957 0.950957 0.950957
0.955117 0.955117 0.955117
0.013417 0.032132 0.069562
0.016560 0.035154 0.072342
0.019987 0.038449 0.075373
0.023721 0.042039 0.078676
0.027787 0.045949 0.082273
0.032211 0.050203 0.086187
0.037021 0.054828 0.090442
0.042247 0.059853 0.095064
0.047918 0.065306 0.100081
0.054067 0.071218 0.105521
0.060726 0.077621 0.111412
0.067930 0.084548 0.117784
0.075712 0.092031 0.124668
0.084108 0.100104 0.132095
0.093151 0.108800 0.140096
