assets/luts/pastel.cube
# Pastel: soft tones, lifestyle/wellness.
# Generated procedurally by videokit gen-luts.py
TITLE "pastel"
LUT_3D_SIZE 5
DOMAIN_MIN 0.0 0.0 0.0
DOMAIN_MAX 1.0 1.0 1.0
0.120000 0.120000 0.120000
0.290000 0.141250 0.141250
0.460000 0.162500 0.162500
0.630000 0.183750 0.183750
0.800000 0.205000 0.205000
0.141250 0.290000 0.141250
0.311250 0.311250 0.162500
0.481250 0.332500 0.183750
0.651250 0.353750 0.205000
0.821250 0.375000 0.226250
0.162500 0.460000 0.162500
0.332500 0.481250 0.183750
0.502500 0.502500 0.205000
0.672500 0.523750 0.226250
0.842500 0.545000 0.247500
0.183750 0.630000 0.183750
0.353750 0.651250 0.205000
0.523750 0.672500 0.226250
0.693750 0.693750 0.247500
0.863750 0.715000 0.268750
0.205000 0.800000 0.205000
0.375000 0.821250 0.226250
0.545000 0.842500 0.247500
0.715000 0.863750 0.268750
0.885000 0.885000 0.290000
0.141250 0.141250 0.290000
0.311250 0.162500 0.311250
0.481250 0.183750 0.332500
0.651250 0.205000 0.353750
0.821250 0.226250 0.375000
0.162500 0.311250 0.311250
0.332500 0.332500 0.332500
0.502500 0.353750 0.353750
0.672500 0.375000 0.375000
0.842500 0.396250 0.396250
0.183750 0.481250 0.332500
0.353750 0.502500 0.353750
0.523750 0.523750 0.375000
0.693750 0.545000 0.396250
0.863750 0.566250 0.417500
0.205000 0.651250 0.353750
0.375000 0.672500 0.375000
0.545000 0.693750 0.396250
0.715000 0.715000 0.417500
0.885000 0.736250 0.438750
0.226250 0.821250 0.375000
0.396250 0.842500 0.396250
0.566250 0.863750 0.417500
0.736250 0.885000 0.438750
0.906250 0.906250 0.460000
0.162500 0.162500 0.460000
0.332500 0.183750 0.481250
0.502500 0.205000 0.502500
0.672500 0.226250 0.523750
0.842500 0.247500 0.545000
0.183750 0.332500 0.481250
0.353750 0.353750 0.502500
0.523750 0.375000 0.523750
0.693750 0.396250 0.545000
0.863750 0.417500 0.566250
0.205000 0.502500 0.502500
0.375000 0.523750 0.523750
0.545000 0.545000 0.545000
0.715000 0.566250 0.566250
0.885000 0.587500 0.587500
0.226250 0.672500 0.523750
0.396250 0.693750 0.545000
0.566250 0.715000 0.566250
0.736250 0.736250 0.587500
0.906250 0.757500 0.608750
0.247500 0.842500 0.545000
0.417500 0.863750 0.566250
0.587500 0.885000 0.587500
0.757500 0.906250 0.608750
0.927500 0.927500 0.630000
0.183750 0.183750 0.630000
0.353750 0.205000 0.651250
0.523750 0.226250 0.672500
0.693750 0.247500 0.693750
0.863750 0.268750 0.715000
0.205000 0.353750 0.651250
0.375000 0.375000 0.672500
0.545000 0.396250 0.693750
0.715000 0.417500 0.715000
0.885000 0.438750 0.736250
0.226250 0.523750 0.672500
0.396250 0.545000 0.693750
0.566250 0.566250 0.715000
0.736250 0.587500 0.736250
0.906250 0.608750 0.757500
0.247500 0.693750 0.693750
0.417500 0.715000 0.715000
0.587500 0.736250 0.736250
0.757500 0.757500 0.757500
0.927500 0.778750 0.778750
0.268750 0.863750 0.715000
0.438750 0.885000 0.736250
0.608750 0.906250 0.757500
0.778750 0.927500 0.778750
0.948750 0.948750 0.800000
0.205000 0.205000 0.800000
0.375000 0.226250 0.821250
0.545000 0.247500 0.842500
0.715000 0.268750 0.863750
0.885000 0.290000 0.885000
0.226250 0.375000 0.821250
0.396250 0.396250 0.842500
0.566250 0.417500 0.863750
0.736250 0.438750 0.885000
0.906250 0.460000 0.906250
0.247500 0.545000 0.842500
0.417500 0.566250 0.863750
0.587500 0.587500 0.885000
0.757500 0.608750 0.906250
0.927500 0.630000 0.927500
0.268750 0.715000 0.863750
0.438750 0.736250 0.885000
0.608750 0.757500 0.906250
0.778750 0.778750 0.927500
0.948750 0.800000 0.948750
0.290000 0.885000 0.885000
0.460000 0.906250 0.906250
0.630000 0.927500 0.927500
0.800000 0.948750 0.948750
0.970000 0.970000 0.970000
