assets/luts/pastel.cube
# Pastel: soft tones, lifestyle/wellness.
# Generated procedurally by videokit gen-luts.py
TITLE "pastel"
LUT_3D_SIZE 9
DOMAIN_MIN 0.0 0.0 0.0
DOMAIN_MAX 1.0 1.0 1.0
0.120000 0.120000 0.120000
0.205000 0.130625 0.130625
0.290000 0.141250 0.141250
0.375000 0.151875 0.151875
0.460000 0.162500 0.162500
0.545000 0.173125 0.173125
0.630000 0.183750 0.183750
0.715000 0.194375 0.194375
0.800000 0.205000 0.205000
0.130625 0.205000 0.130625
0.215625 0.215625 0.141250
0.300625 0.226250 0.151875
0.385625 0.236875 0.162500
0.470625 0.247500 0.173125
0.555625 0.258125 0.183750
0.640625 0.268750 0.194375
0.725625 0.279375 0.205000
0.810625 0.290000 0.215625
0.141250 0.290000 0.141250
0.226250 0.300625 0.151875
0.311250 0.311250 0.162500
0.396250 0.321875 0.173125
0.481250 0.332500 0.183750
0.566250 0.343125 0.194375
0.651250 0.353750 0.205000
0.736250 0.364375 0.215625
0.821250 0.375000 0.226250
0.151875 0.375000 0.151875
0.236875 0.385625 0.162500
0.321875 0.396250 0.173125
0.406875 0.406875 0.183750
0.491875 0.417500 0.194375
0.576875 0.428125 0.205000
0.661875 0.438750 0.215625
0.746875 0.449375 0.226250
0.831875 0.460000 0.236875
0.162500 0.460000 0.162500
0.247500 0.470625 0.173125
0.332500 0.481250 0.183750
0.417500 0.491875 0.194375
0.502500 0.502500 0.205000
0.587500 0.513125 0.215625
0.672500 0.523750 0.226250
0.757500 0.534375 0.236875
0.842500 0.545000 0.247500
0.173125 0.545000 0.173125
0.258125 0.555625 0.183750
0.343125 0.566250 0.194375
0.428125 0.576875 0.205000
0.513125 0.587500 0.215625
0.598125 0.598125 0.226250
0.683125 0.608750 0.236875
0.768125 0.619375 0.247500
0.853125 0.630000 0.258125
0.183750 0.630000 0.183750
0.268750 0.640625 0.194375
0.353750 0.651250 0.205000
0.438750 0.661875 0.215625
0.523750 0.672500 0.226250
0.608750 0.683125 0.236875
0.693750 0.693750 0.247500
0.778750 0.704375 0.258125
0.863750 0.715000 0.268750
0.194375 0.715000 0.194375
0.279375 0.725625 0.205000
0.364375 0.736250 0.215625
0.449375 0.746875 0.226250
0.534375 0.757500 0.236875
0.619375 0.768125 0.247500
0.704375 0.778750 0.258125
0.789375 0.789375 0.268750
0.874375 0.800000 0.279375
0.205000 0.800000 0.205000
0.290000 0.810625 0.215625
0.375000 0.821250 0.226250
0.460000 0.831875 0.236875
0.545000 0.842500 0.247500
0.630000 0.853125 0.258125
0.715000 0.863750 0.268750
0.800000 0.874375 0.279375
0.885000 0.885000 0.290000
0.130625 0.130625 0.205000
0.215625 0.141250 0.215625
0.300625 0.151875 0.226250
0.385625 0.162500 0.236875
0.470625 0.173125 0.247500
0.555625 0.183750 0.258125
0.640625 0.194375 0.268750
0.725625 0.205000 0.279375
0.810625 0.215625 0.290000
0.141250 0.215625 0.215625
0.226250 0.226250 0.226250
0.311250 0.236875 0.236875
0.396250 0.247500 0.247500
0.481250 0.258125 0.258125
0.566250 0.268750 0.268750
0.651250 0.279375 0.279375
0.736250 0.290000 0.290000
0.821250 0.300625 0.300625
0.151875 0.300625 0.226250
0.236875 0.311250 0.236875
0.321875 0.321875 0.247500
0.406875 0.332500 0.258125
0.491875 0.343125 0.268750
0.576875 0.353750 0.279375
0.661875 0.364375 0.290000
0.746875 0.375000 0.300625
0.831875 0.385625 0.311250
0.162500 0.385625 0.236875
0.247500 0.396250 0.247500
0.332500 0.406875 0.258125
0.417500 0.417500 0.268750
0.502500 0.428125 0.279375
0.587500 0.438750 0.290000
0.672500 0.449375 0.300625
0.757500 0.460000 0.311250
0.842500 0.470625 0.321875
0.173125 0.470625 0.247500
0.258125 0.481250 0.258125
0.343125 0.491875 0.268750
0.428125 0.502500 0.279375
0.513125 0.513125 0.290000
0.598125 0.523750 0.300625
0.683125 0.534375 0.311250
0.768125 0.545000 0.321875
0.853125 0.555625 0.332500
0.183750 0.555625 0.258125
0.268750 0.566250 0.268750
0.353750 0.576875 0.279375
0.438750 0.587500 0.290000
0.523750 0.598125 0.300625
0.608750 0.608750 0.311250
0.693750 0.619375 0.321875
0.778750 0.630000 0.332500
0.863750 0.640625 0.343125
0.194375 0.640625 0.268750
0.279375 0.651250 0.279375
0.364375 0.661875 0.290000
0.449375 0.672500 0.300625
0.534375 0.683125 0.311250
0.619375 0.693750 0.321875
0.704375 0.704375 0.332500
0.789375 0.715000 0.343125
0.874375 0.725625 0.353750
0.205000 0.725625 0.279375
0.290000 0.736250 0.290000
0.375000 0.746875 0.300625
0.460000 0.757500 0.311250
0.545000 0.768125 0.321875
0.630000 0.778750 0.332500
0.715000 0.789375 0.343125
0.800000 0.800000 0.353750
0.885000 0.810625 0.364375
0.215625 0.810625 0.290000
0.300625 0.821250 0.300625
0.385625 0.831875 0.311250
0.470625 0.842500 0.321875
0.555625 0.853125 0.332500
0.640625 0.863750 0.343125
0.725625 0.874375 0.353750
0.810625 0.885000 0.364375
0.895625 0.895625 0.375000
0.141250 0.141250 0.290000
0.226250 0.151875 0.300625
0.311250 0.162500 0.311250
0.396250 0.173125 0.321875
0.481250 0.183750 0.332500
0.566250 0.194375 0.343125
0.651250 0.205000 0.353750
0.736250 0.215625 0.364375
0.821250 0.226250 0.375000
0.151875 0.226250 0.300625
0.236875 0.236875 0.311250
0.321875 0.247500 0.321875
0.406875 0.258125 0.332500
0.491875 0.268750 0.343125
0.576875 0.279375 0.353750
0.661875 0.290000 0.364375
0.746875 0.300625 0.375000
0.831875 0.311250 0.385625
0.162500 0.311250 0.311250
0.247500 0.321875 0.321875
0.332500 0.332500 0.332500
0.417500 0.343125 0.343125
0.502500 0.353750 0.353750
0.587500 0.364375 0.364375
0.672500 0.375000 0.375000
0.757500 0.385625 0.385625
0.842500 0.396250 0.396250
0.173125 0.396250 0.321875
0.258125 0.406875 0.332500
0.343125 0.417500 0.343125
0.428125 0.428125 0.353750
0.513125 0.438750 0.364375
0.598125 0.449375 0.375000
0.683125 0.460000 0.385625
0.768125 0.470625 0.396250
0.853125 0.481250 0.406875
0.183750 0.481250 0.332500
0.268750 0.491875 0.343125
0.353750 0.502500 0.353750
0.438750 0.513125 0.364375
0.523750 0.523750 0.375000
0.608750 0.534375 0.385625
0.693750 0.545000 0.396250
0.778750 0.555625 0.406875
0.863750 0.566250 0.417500
0.194375 0.566250 0.343125
0.279375 0.576875 0.353750
0.364375 0.587500 0.364375
0.449375 0.598125 0.375000
0.534375 0.608750 0.385625
0.619375 0.619375 0.396250
0.704375 0.630000 0.406875
0.789375 0.640625 0.417500
0.874375 0.651250 0.428125
0.205000 0.651250 0.353750
0.290000 0.661875 0.364375
0.375000 0.672500 0.375000
0.460000 0.683125 0.385625
0.545000 0.693750 0.396250
0.630000 0.704375 0.406875
0.715000 0.715000 0.417500
0.800000 0.725625 0.428125
0.885000 0.736250 0.438750
0.215625 0.736250 0.364375
0.300625 0.746875 0.375000
0.385625 0.757500 0.385625
0.470625 0.768125 0.396250
0.555625 0.778750 0.406875
0.640625 0.789375 0.417500
0.725625 0.800000 0.428125
0.810625 0.810625 0.438750
0.895625 0.821250 0.449375
0.226250 0.821250 0.375000
0.311250 0.831875 0.385625
0.396250 0.842500 0.396250
0.481250 0.853125 0.406875
0.566250 0.863750 0.417500
0.651250 0.874375 0.428125
0.736250 0.885000 0.438750
0.821250 0.895625 0.449375
0.906250 0.906250 0.460000
0.151875 0.151875 0.375000
0.236875 0.162500 0.385625
0.321875 0.173125 0.396250
0.406875 0.183750 0.406875
0.491875 0.194375 0.417500
0.576875 0.205000 0.428125
0.661875 0.215625 0.438750
0.746875 0.226250 0.449375
0.831875 0.236875 0.460000
0.162500 0.236875 0.385625
0.247500 0.247500 0.396250
0.332500 0.258125 0.406875
0.417500 0.268750 0.417500
0.502500 0.279375 0.428125
0.587500 0.290000 0.438750
0.672500 0.300625 0.449375
0.757500 0.311250 0.460000
0.842500 0.321875 0.470625
0.173125 0.321875 0.396250
0.258125 0.332500 0.406875
0.343125 0.343125 0.417500
0.428125 0.353750 0.428125
0.513125 0.364375 0.438750
0.598125 0.375000 0.449375
0.683125 0.385625 0.460000
0.768125 0.396250 0.470625
0.853125 0.406875 0.481250
0.183750 0.406875 0.406875
0.268750 0.417500 0.417500
0.353750 0.428125 0.428125
0.438750 0.438750 0.438750
0.523750 0.449375 0.449375
0.608750 0.460000 0.460000
0.693750 0.470625 0.470625
0.778750 0.481250 0.481250
0.863750 0.491875 0.491875
0.194375 0.491875 0.417500
0.279375 0.502500 0.428125
0.364375 0.513125 0.438750
0.449375 0.523750 0.449375
0.534375 0.534375 0.460000
0.619375 0.545000 0.470625
0.704375 0.555625 0.481250
0.789375 0.566250 0.491875
0.874375 0.576875 0.502500
0.205000 0.576875 0.428125
0.290000 0.587500 0.438750
0.375000 0.598125 0.449375
0.460000 0.608750 0.460000
0.545000 0.619375 0.470625
0.630000 0.630000 0.481250
0.715000 0.640625 0.491875
0.800000 0.651250 0.502500
0.885000 0.661875 0.513125
0.215625 0.661875 0.438750
0.300625 0.672500 0.449375
0.385625 0.683125 0.460000
0.470625 0.693750 0.470625
0.555625 0.704375 0.481250
0.640625 0.715000 0.491875
0.725625 0.725625 0.502500
0.810625 0.736250 0.513125
0.895625 0.746875 0.523750
0.226250 0.746875 0.449375
0.311250 0.757500 0.460000
0.396250 0.768125 0.470625
0.481250 0.778750 0.481250
0.566250 0.789375 0.491875
0.651250 0.800000 0.502500
0.736250 0.810625 0.513125
0.821250 0.821250 0.523750
0.906250 0.831875 0.534375
0.236875 0.831875 0.460000
0.321875 0.842500 0.470625
0.406875 0.853125 0.481250
0.491875 0.863750 0.491875
0.576875 0.874375 0.502500
0.661875 0.885000 0.513125
0.746875 0.895625 0.523750
0.831875 0.906250 0.534375
0.916875 0.916875 0.545000
0.162500 0.162500 0.460000
0.247500 0.173125 0.470625
0.332500 0.183750 0.481250
0.417500 0.194375 0.491875
0.502500 0.205000 0.502500
0.587500 0.215625 0.513125
0.672500 0.226250 0.523750
0.757500 0.236875 0.534375
0.842500 0.247500 0.545000
0.173125 0.247500 0.470625
0.258125 0.258125 0.481250
0.343125 0.268750 0.491875
0.428125 0.279375 0.502500
0.513125 0.290000 0.513125
0.598125 0.300625 0.523750
0.683125 0.311250 0.534375
0.768125 0.321875 0.545000
0.853125 0.332500 0.555625
0.183750 0.332500 0.481250
0.268750 0.343125 0.491875
0.353750 0.353750 0.502500
0.438750 0.364375 0.513125
0.523750 0.375000 0.523750
0.608750 0.385625 0.534375
0.693750 0.396250 0.545000
0.778750 0.406875 0.555625
0.863750 0.417500 0.566250
0.194375 0.417500 0.491875
0.279375 0.428125 0.502500
0.364375 0.438750 0.513125
0.449375 0.449375 0.523750
0.534375 0.460000 0.534375
0.619375 0.470625 0.545000
0.704375 0.481250 0.555625
0.789375 0.491875 0.566250
0.874375 0.502500 0.576875
0.205000 0.502500 0.502500
0.290000 0.513125 0.513125
0.375000 0.523750 0.523750
0.460000 0.534375 0.534375
0.545000 0.545000 0.545000
0.630000 0.555625 0.555625
0.715000 0.566250 0.566250
0.800000 0.576875 0.576875
0.885000 0.587500 0.587500
0.215625 0.587500 0.513125
0.300625 0.598125 0.523750
0.385625 0.608750 0.534375
0.470625 0.619375 0.545000
0.555625 0.630000 0.555625
0.640625 0.640625 0.566250
0.725625 0.651250 0.576875
0.810625 0.661875 0.587500
0.895625 0.672500 0.598125
0.226250 0.672500 0.523750
0.311250 0.683125 0.534375
0.396250 0.693750 0.545000
0.481250 0.704375 0.555625
0.566250 0.715000 0.566250
0.651250 0.725625 0.576875
0.736250 0.736250 0.587500
0.821250 0.746875 0.598125
0.906250 0.757500 0.608750
0.236875 0.757500 0.534375
0.321875 0.768125 0.545000
0.406875 0.778750 0.555625
0.491875 0.789375 0.566250
0.576875 0.800000 0.576875
0.661875 0.810625 0.587500
0.746875 0.821250 0.598125
0.831875 0.831875 0.608750
0.916875 0.842500 0.619375
0.247500 0.842500 0.545000
0.332500 0.853125 0.555625
0.417500 0.863750 0.566250
0.502500 0.874375 0.576875
0.587500 0.885000 0.587500
0.672500 0.895625 0.598125
0.757500 0.906250 0.608750
0.842500 0.916875 0.619375
0.927500 0.927500 0.630000
0.173125 0.173125 0.545000
0.258125 0.183750 0.555625
0.343125 0.194375 0.566250
0.428125 0.205000 0.576875
0.513125 0.215625 0.587500
0.598125 0.226250 0.598125
0.683125 0.236875 0.608750
0.768125 0.247500 0.619375
0.853125 0.258125 0.630000
0.183750 0.258125 0.555625
0.268750 0.268750 0.566250
0.353750 0.279375 0.576875
0.438750 0.290000 0.587500
0.523750 0.300625 0.598125
0.608750 0.311250 0.608750
0.693750 0.321875 0.619375
0.778750 0.332500 0.630000
0.863750 0.343125 0.640625
0.194375 0.343125 0.566250
0.279375 0.353750 0.576875
0.364375 0.364375 0.587500
0.449375 0.375000 0.598125
0.534375 0.385625 0.608750
0.619375 0.396250 0.619375
0.704375 0.406875 0.630000
0.789375 0.417500 0.640625
0.874375 0.428125 0.651250
0.205000 0.428125 0.576875
0.290000 0.438750 0.587500
0.375000 0.449375 0.598125
0.460000 0.460000 0.608750
0.545000 0.470625 0.619375
0.630000 0.481250 0.630000
0.715000 0.491875 0.640625
0.800000 0.502500 0.651250
0.885000 0.513125 0.661875
0.215625 0.513125 0.587500
0.300625 0.523750 0.598125
0.385625 0.534375 0.608750
0.470625 0.545000 0.619375
0.555625 0.555625 0.630000
0.640625 0.566250 0.640625
0.725625 0.576875 0.651250
0.810625 0.587500 0.661875
0.895625 0.598125 0.672500
0.226250 0.598125 0.598125
0.311250 0.608750 0.608750
0.396250 0.619375 0.619375
0.481250 0.630000 0.630000
0.566250 0.640625 0.640625
0.651250 0.651250 0.651250
0.736250 0.661875 0.661875
0.821250 0.672500 0.672500
0.906250 0.683125 0.683125
0.236875 0.683125 0.608750
0.321875 0.693750 0.619375
0.406875 0.704375 0.630000
0.491875 0.715000 0.640625
0.576875 0.725625 0.651250
0.661875 0.736250 0.661875
0.746875 0.746875 0.672500
0.831875 0.757500 0.683125
0.916875 0.768125 0.693750
0.247500 0.768125 0.619375
0.332500 0.778750 0.630000
0.417500 0.789375 0.640625
0.502500 0.800000 0.651250
0.587500 0.810625 0.661875
0.672500 0.821250 0.672500
0.757500 0.831875 0.683125
0.842500 0.842500 0.693750
0.927500 0.853125 0.704375
0.258125 0.853125 0.630000
0.343125 0.863750 0.640625
0.428125 0.874375 0.651250
0.513125 0.885000 0.661875
0.598125 0.895625 0.672500
0.683125 0.906250 0.683125
0.768125 0.916875 0.693750
0.853125 0.927500 0.704375
0.938125 0.938125 0.715000
0.183750 0.183750 0.630000
0.268750 0.194375 0.640625
0.353750 0.205000 0.651250
0.438750 0.215625 0.661875
0.523750 0.226250 0.672500
0.608750 0.236875 0.683125
0.693750 0.247500 0.693750
0.778750 0.258125 0.704375
0.863750 0.268750 0.715000
0.194375 0.268750 0.640625
0.279375 0.279375 0.651250
0.364375 0.290000 0.661875
0.449375 0.300625 0.672500
0.534375 0.311250 0.683125
0.619375 0.321875 0.693750
0.704375 0.332500 0.704375
0.789375 0.343125 0.715000
0.874375 0.353750 0.725625
0.205000 0.353750 0.651250
0.290000 0.364375 0.661875
0.375000 0.375000 0.672500
0.460000 0.385625 0.683125
0.545000 0.396250 0.693750
0.630000 0.406875 0.704375
0.715000 0.417500 0.715000
0.800000 0.428125 0.725625
0.885000 0.438750 0.736250
0.215625 0.438750 0.661875
0.300625 0.449375 0.672500
0.385625 0.460000 0.683125
0.470625 0.470625 0.693750
0.555625 0.481250 0.704375
0.640625 0.491875 0.715000
0.725625 0.502500 0.725625
0.810625 0.513125 0.736250
0.895625 0.523750 0.746875
0.226250 0.523750 0.672500
0.311250 0.534375 0.683125
0.396250 0.545000 0.693750
0.481250 0.555625 0.704375
0.566250 0.566250 0.715000
0.651250 0.576875 0.725625
0.736250 0.587500 0.736250
0.821250 0.598125 0.746875
0.906250 0.608750 0.757500
0.236875 0.608750 0.683125
0.321875 0.619375 0.693750
0.406875 0.630000 0.704375
0.491875 0.640625 0.715000
0.576875 0.651250 0.725625
0.661875 0.661875 0.736250
0.746875 0.672500 0.746875
0.831875 0.683125 0.757500
0.916875 0.693750 0.768125
0.247500 0.693750 0.693750
0.332500 0.704375 0.704375
0.417500 0.715000 0.715000
0.502500 0.725625 0.725625
0.587500 0.736250 0.736250
0.672500 0.746875 0.746875
0.757500 0.757500 0.757500
0.842500 0.768125 0.768125
0.927500 0.778750 0.778750
0.258125 0.778750 0.704375
0.343125 0.789375 0.715000
0.428125 0.800000 0.725625
0.513125 0.810625 0.736250
0.598125 0.821250 0.746875
0.683125 0.831875 0.757500
0.768125 0.842500 0.768125
0.853125 0.853125 0.778750
0.938125 0.863750 0.789375
0.268750 0.863750 0.715000
0.353750 0.874375 0.725625
0.438750 0.885000 0.736250
0.523750 0.895625 0.746875
0.608750 0.906250 0.757500
0.693750 0.916875 0.768125
0.778750 0.927500 0.778750
0.863750 0.938125 0.789375
0.948750 0.948750 0.800000
0.194375 0.194375 0.715000
0.279375 0.205000 0.725625
0.364375 0.215625 0.736250
0.449375 0.226250 0.746875
0.534375 0.236875 0.757500
0.619375 0.247500 0.768125
0.704375 0.258125 0.778750
0.789375 0.268750 0.789375
0.874375 0.279375 0.800000
0.205000 0.279375 0.725625
0.290000 0.290000 0.736250
0.375000 0.300625 0.746875
0.460000 0.311250 0.757500
0.545000 0.321875 0.768125
0.630000 0.332500 0.778750
0.715000 0.343125 0.789375
0.800000 0.353750 0.800000
0.885000 0.364375 0.810625
0.215625 0.364375 0.736250
0.300625 0.375000 0.746875
0.385625 0.385625 0.757500
0.470625 0.396250 0.768125
0.555625 0.406875 0.778750
0.640625 0.417500 0.789375
0.725625 0.428125 0.800000
0.810625 0.438750 0.810625
0.895625 0.449375 0.821250
0.226250 0.449375 0.746875
0.311250 0.460000 0.757500
0.396250 0.470625 0.768125
0.481250 0.481250 0.778750
0.566250 0.491875 0.789375
0.651250 0.502500 0.800000
0.736250 0.513125 0.810625
0.821250 0.523750 0.821250
0.906250 0.534375 0.831875
0.236875 0.534375 0.757500
0.321875 0.545000 0.768125
0.406875 0.555625 0.778750
0.491875 0.566250 0.789375
0.576875 0.576875 0.800000
0.661875 0.587500 0.810625
0.746875 0.598125 0.821250
0.831875 0.608750 0.831875
0.916875 0.619375 0.842500
0.247500 0.619375 0.768125
0.332500 0.630000 0.778750
0.417500 0.640625 0.789375
0.502500 0.651250 0.800000
0.587500 0.661875 0.810625
0.672500 0.672500 0.821250
0.757500 0.683125 0.831875
0.842500 0.693750 0.842500
0.927500 0.704375 0.853125
0.258125 0.704375 0.778750
0.343125 0.715000 0.789375
0.428125 0.725625 0.800000
0.513125 0.736250 0.810625
0.598125 0.746875 0.821250
0.683125 0.757500 0.831875
0.768125 0.768125 0.842500
0.853125 0.778750 0.853125
0.938125 0.789375 0.863750
0.268750 0.789375 0.789375
0.353750 0.800000 0.800000
0.438750 0.810625 0.810625
0.523750 0.821250 0.821250
0.608750 0.831875 0.831875
0.693750 0.842500 0.842500
0.778750 0.853125 0.853125
0.863750 0.863750 0.863750
0.948750 0.874375 0.874375
0.279375 0.874375 0.800000
0.364375 0.885000 0.810625
0.449375 0.895625 0.821250
0.534375 0.906250 0.831875
0.619375 0.916875 0.842500
0.704375 0.927500 0.853125
0.789375 0.938125 0.863750
0.874375 0.948750 0.874375
0.959375 0.959375 0.885000
0.205000 0.205000 0.800000
0.290000 0.215625 0.810625
0.375000 0.226250 0.821250
0.460000 0.236875 0.831875
0.545000 0.247500 0.842500
0.630000 0.258125 0.853125
0.715000 0.268750 0.863750
0.800000 0.279375 0.874375
0.885000 0.290000 0.885000
0.215625 0.290000 0.810625
0.300625 0.300625 0.821250
0.385625 0.311250 0.831875
0.470625 0.321875 0.842500
0.555625 0.332500 0.853125
0.640625 0.343125 0.863750
0.725625 0.353750 0.874375
0.810625 0.364375 0.885000
0.895625 0.375000 0.895625
0.226250 0.375000 0.821250
0.311250 0.385625 0.831875
0.396250 0.396250 0.842500
0.481250 0.406875 0.853125
0.566250 0.417500 0.863750
0.651250 0.428125 0.874375
0.736250 0.438750 0.885000
0.821250 0.449375 0.895625
0.906250 0.460000 0.906250
0.236875 0.460000 0.831875
0.321875 0.470625 0.842500
0.406875 0.481250 0.853125
0.491875 0.491875 0.863750
0.576875 0.502500 0.874375
0.661875 0.513125 0.885000
0.746875 0.523750 0.895625
0.831875 0.534375 0.906250
0.916875 0.545000 0.916875
0.247500 0.545000 0.842500
0.332500 0.555625 0.853125
0.417500 0.566250 0.863750
0.502500 0.576875 0.874375
0.587500 0.587500 0.885000
0.672500 0.598125 0.895625
0.757500 0.608750 0.906250
0.842500 0.619375 0.916875
0.927500 0.630000 0.927500
0.258125 0.630000 0.853125
0.343125 0.640625 0.863750
0.428125 0.651250 0.874375
0.513125 0.661875 0.885000
0.598125 0.672500 0.895625
0.683125 0.683125 0.906250
0.768125 0.693750 0.916875
0.853125 0.704375 0.927500
0.938125 0.715000 0.938125
0.268750 0.715000 0.863750
0.353750 0.725625 0.874375
0.438750 0.736250 0.885000
0.523750 0.746875 0.895625
0.608750 0.757500 0.906250
0.693750 0.768125 0.916875
0.778750 0.778750 0.927500
0.863750 0.789375 0.938125
0.948750 0.800000 0.948750
0.279375 0.800000 0.874375
0.364375 0.810625 0.885000
0.449375 0.821250 0.895625
0.534375 0.831875 0.906250
0.619375 0.842500 0.916875
0.704375 0.853125 0.927500
0.789375 0.863750 0.938125
0.874375 0.874375 0.948750
0.959375 0.885000 0.959375
0.290000 0.885000 0.885000
0.375000 0.895625 0.895625
0.460000 0.906250 0.906250
0.545000 0.916875 0.916875
0.630000 0.927500 0.927500
0.715000 0.938125 0.938125
0.800000 0.948750 0.948750
0.885000 0.959375 0.959375
0.970000 0.970000 0.970000
