assets/luts/pastel.cube
# Pastel: soft tones, lifestyle/wellness.
# Generated procedurally by videokit gen-luts.py
TITLE "pastel"
LUT_3D_SIZE 17
DOMAIN_MIN 0.0 0.0 0.0
DOMAIN_MAX 1.0 1.0 1.0
0.120000 0.120000 0.120000
0.162500 0.125312 0.125312
0.205000 0.130625 0.130625
0.247500 0.135937 0.135937
0.290000 0.141250 0.141250
0.332500 0.146562 0.146562
0.375000 0.151875 0.151875
0.417500 0.157187 0.157187
0.460000 0.162500 0.162500
0.502500 0.167813 0.167813
0.545000 0.173125 0.173125
0.587500 0.178437 0.178437
0.630000 0.183750 0.183750
0.672500 0.189062 0.189062
0.715000 0.194375 0.194375
0.757500 0.199687 0.199687
0.800000 0.205000 0.205000
0.125312 0.162500 0.125312
0.167813 0.167813 0.130625
0.210313 0.173125 0.135937
0.252812 0.178437 0.141250
0.295312 0.183750 0.146562
0.337812 0.189062 0.151875
0.380312 0.194375 0.157187
0.422812 0.199688 0.162500
0.465312 0.205000 0.167813
0.507812 0.210313 0.173125
0.550312 0.215625 0.178437
0.592812 0.220938 0.183750
0.635312 0.226250 0.189062
0.677812 0.231563 0.194375
0.720312 0.236875 0.199687
0.762812 0.242188 0.205000
0.805312 0.247500 0.210313
0.130625 0.205000 0.130625
0.173125 0.210313 0.135937
0.215625 0.215625 0.141250
0.258125 0.220938 0.146562
0.300625 0.226250 0.151875
0.343125 0.231563 0.157187
0.385625 0.236875 0.162500
0.428125 0.242188 0.167813
0.470625 0.247500 0.173125
0.513125 0.252812 0.178438
0.555625 0.258125 0.183750
0.598125 0.263438 0.189063
0.640625 0.268750 0.194375
0.683125 0.274062 0.199687
0.725625 0.279375 0.205000
0.768125 0.284688 0.210313
0.810625 0.290000 0.215625
0.135937 0.247500 0.135937
0.178437 0.252812 0.141250
0.220938 0.258125 0.146562
0.263437 0.263437 0.151875
0.305937 0.268750 0.157187
0.348437 0.274062 0.162500
0.390937 0.279375 0.167813
0.433437 0.284687 0.173125
0.475937 0.290000 0.178437
0.518437 0.295312 0.183750
0.560937 0.300625 0.189063
0.603437 0.305937 0.194375
0.645937 0.311250 0.199687
0.688437 0.316562 0.205000
0.730938 0.321875 0.210313
0.773438 0.327188 0.215625
0.815937 0.332500 0.220937
0.141250 0.290000 0.141250
0.183750 0.295312 0.146562
0.226250 0.300625 0.151875
0.268750 0.305937 0.157187
0.311250 0.311250 0.162500
0.353750 0.316563 0.167813
0.396250 0.321875 0.173125
0.438750 0.327188 0.178438
0.481250 0.332500 0.183750
0.523750 0.337813 0.189063
0.566250 0.343125 0.194375
0.608750 0.348438 0.199687
0.651250 0.353750 0.205000
0.693750 0.359063 0.210313
0.736250 0.364375 0.215625
0.778750 0.369688 0.220938
0.821250 0.375000 0.226250
0.146562 0.332500 0.146562
0.189062 0.337812 0.151875
0.231563 0.343125 0.157187
0.274062 0.348437 0.162500
0.316563 0.353750 0.167813
0.359063 0.359063 0.173125
0.401562 0.364375 0.178437
0.444062 0.369688 0.183750
0.486562 0.375000 0.189062
0.529062 0.380312 0.194375
0.571562 0.385625 0.199687
0.614062 0.390937 0.205000
0.656562 0.396250 0.210313
0.699062 0.401562 0.215625
0.741563 0.406875 0.220938
0.784062 0.412187 0.226250
0.826562 0.417500 0.231563
0.151875 0.375000 0.151875
0.194375 0.380312 0.157187
0.236875 0.385625 0.162500
0.279375 0.390937 0.167813
0.321875 0.396250 0.173125
0.364375 0.401562 0.178437
0.406875 0.406875 0.183750
0.449375 0.412187 0.189063
0.491875 0.417500 0.194375
0.534375 0.422812 0.199687
0.576875 0.428125 0.205000
0.619375 0.433437 0.210313
0.661875 0.438750 0.215625
0.704375 0.444062 0.220937
0.746875 0.449375 0.226250
0.789375 0.454687 0.231563
0.831875 0.460000 0.236875
0.157187 0.417500 0.157187
0.199688 0.422812 0.162500
0.242188 0.428125 0.167813
0.284687 0.433437 0.173125
0.327188 0.438750 0.178438
0.369688 0.444062 0.183750
0.412187 0.449375 0.189063
0.454688 0.454688 0.194375
0.497187 0.460000 0.199687
0.539687 0.465313 0.205000
0.582187 0.470625 0.210313
0.624687 0.475938 0.215625
0.667187 0.481250 0.220937
0.709687 0.486563 0.226250
0.752188 0.491875 0.231563
0.794687 0.497188 0.236875
0.837187 0.502500 0.242188
0.162500 0.460000 0.162500
0.205000 0.465312 0.167813
0.247500 0.470625 0.173125
0.290000 0.475937 0.178437
0.332500 0.481250 0.183750
0.375000 0.486562 0.189062
0.417500 0.491875 0.194375
0.460000 0.497187 0.199687
0.502500 0.502500 0.205000
0.545000 0.507812 0.210313
0.587500 0.513125 0.215625
0.630000 0.518437 0.220937
0.672500 0.523750 0.226250
0.715000 0.529062 0.231563
0.757500 0.534375 0.236875
0.800000 0.539687 0.242188
0.842500 0.545000 0.247500
0.167813 0.502500 0.167813
0.210313 0.507812 0.173125
0.252812 0.513125 0.178438
0.295312 0.518437 0.183750
0.337813 0.523750 0.189063
0.380312 0.529062 0.194375
0.422812 0.534375 0.199687
0.465313 0.539687 0.205000
0.507812 0.545000 0.210313
0.550312 0.550312 0.215625
0.592812 0.555625 0.220938
0.635312 0.560937 0.226250
0.677812 0.566250 0.231563
0.720312 0.571562 0.236875
0.762813 0.576875 0.242188
0.805312 0.582188 0.247500
0.847812 0.587500 0.252812
0.173125 0.545000 0.173125
0.215625 0.550312 0.178437
0.258125 0.555625 0.183750
0.300625 0.560937 0.189063
0.343125 0.566250 0.194375
0.385625 0.571562 0.199687
0.428125 0.576875 0.205000
0.470625 0.582187 0.210313
0.513125 0.587500 0.215625
0.555625 0.592812 0.220938
0.598125 0.598125 0.226250
0.640625 0.603437 0.231563
0.683125 0.608750 0.236875
0.725625 0.614062 0.242188
0.768125 0.619375 0.247500
0.810625 0.624687 0.252812
0.853125 0.630000 0.258125
0.178437 0.587500 0.178437
0.220938 0.592812 0.183750
0.263438 0.598125 0.189063
0.305937 0.603437 0.194375
0.348438 0.608750 0.199687
0.390937 0.614062 0.205000
0.433437 0.619375 0.210313
0.475938 0.624687 0.215625
0.518437 0.630000 0.220937
0.560937 0.635312 0.226250
0.603437 0.640625 0.231563
0.645938 0.645938 0.236875
0.688438 0.651250 0.242188
0.730937 0.656562 0.247500
0.773438 0.661875 0.252812
0.815937 0.667188 0.258125
0.858437 0.672500 0.263438
0.183750 0.630000 0.183750
0.226250 0.635312 0.189062
0.268750 0.640625 0.194375
0.311250 0.645937 0.199687
0.353750 0.651250 0.205000
0.396250 0.656562 0.210313
0.438750 0.661875 0.215625
0.481250 0.667187 0.220937
0.523750 0.672500 0.226250
0.566250 0.677812 0.231563
0.608750 0.683125 0.236875
0.651250 0.688438 0.242188
0.693750 0.693750 0.247500
0.736250 0.699062 0.252812
0.778750 0.704375 0.258125
0.821250 0.709687 0.263438
0.863750 0.715000 0.268750
0.189062 0.672500 0.189062
0.231563 0.677812 0.194375
0.274062 0.683125 0.199687
0.316562 0.688437 0.205000
0.359063 0.693750 0.210313
0.401562 0.699062 0.215625
0.444062 0.704375 0.220937
0.486563 0.709687 0.226250
0.529062 0.715000 0.231563
0.571562 0.720312 0.236875
0.614062 0.725625 0.242188
0.656562 0.730937 0.247500
0.699062 0.736250 0.252812
0.741562 0.741562 0.258125
0.784062 0.746875 0.263438
0.826562 0.752188 0.268750
0.869062 0.757500 0.274062
0.194375 0.715000 0.194375
0.236875 0.720312 0.199687
0.279375 0.725625 0.205000
0.321875 0.730938 0.210313
0.364375 0.736250 0.215625
0.406875 0.741563 0.220938
0.449375 0.746875 0.226250
0.491875 0.752188 0.231563
0.534375 0.757500 0.236875
0.576875 0.762813 0.242188
0.619375 0.768125 0.247500
0.661875 0.773438 0.252812
0.704375 0.778750 0.258125
0.746875 0.784062 0.263438
0.789375 0.789375 0.268750
0.831875 0.794687 0.274063
0.874375 0.800000 0.279375
0.199687 0.757500 0.199687
0.242188 0.762812 0.205000
0.284688 0.768125 0.210313
0.327188 0.773438 0.215625
0.369688 0.778750 0.220938
0.412187 0.784062 0.226250
0.454687 0.789375 0.231563
0.497188 0.794687 0.236875
0.539687 0.800000 0.242188
0.582188 0.805312 0.247500
0.624687 0.810625 0.252812
0.667188 0.815937 0.258125
0.709687 0.821250 0.263438
0.752188 0.826562 0.268750
0.794687 0.831875 0.274063
0.837187 0.837187 0.279375
0.879687 0.842500 0.284688
0.205000 0.800000 0.205000
0.247500 0.805312 0.210313
0.290000 0.810625 0.215625
0.332500 0.815937 0.220937
0.375000 0.821250 0.226250
0.417500 0.826562 0.231563
0.460000 0.831875 0.236875
0.502500 0.837187 0.242188
0.545000 0.842500 0.247500
0.587500 0.847812 0.252812
0.630000 0.853125 0.258125
0.672500 0.858437 0.263438
0.715000 0.863750 0.268750
0.757500 0.869062 0.274062
0.800000 0.874375 0.279375
0.842500 0.879687 0.284688
0.885000 0.885000 0.290000
0.125312 0.125312 0.162500
0.167813 0.130625 0.167813
0.210313 0.135937 0.173125
0.252812 0.141250 0.178437
0.295312 0.146562 0.183750
0.337812 0.151875 0.189062
0.380312 0.157187 0.194375
0.422812 0.162500 0.199688
0.465312 0.167813 0.205000
0.507812 0.173125 0.210313
0.550312 0.178437 0.215625
0.592812 0.183750 0.220938
0.635312 0.189062 0.226250
0.677812 0.194375 0.231563
0.720313 0.199688 0.236875
0.762812 0.205000 0.242188
0.805312 0.210312 0.247500
0.130625 0.167813 0.167813
0.173125 0.173125 0.173125
0.215625 0.178437 0.178437
0.258125 0.183750 0.183750
0.300625 0.189062 0.189062
0.343125 0.194375 0.194375
0.385625 0.199688 0.199688
0.428125 0.205000 0.205000
0.470625 0.210313 0.210313
0.513125 0.215625 0.215625
0.555625 0.220938 0.220938
0.598125 0.226250 0.226250
0.640625 0.231563 0.231563
0.683125 0.236875 0.236875
0.725625 0.242188 0.242188
0.768125 0.247500 0.247500
0.810625 0.252812 0.252812
0.135937 0.210313 0.173125
0.178437 0.215625 0.178437
0.220938 0.220938 0.183750
0.263437 0.226250 0.189062
0.305938 0.231563 0.194375
0.348437 0.236875 0.199688
0.390937 0.242188 0.205000
0.433437 0.247500 0.210313
0.475937 0.252812 0.215625
0.518437 0.258125 0.220938
0.560937 0.263437 0.226250
0.603437 0.268750 0.231563
0.645937 0.274062 0.236875
0.688437 0.279375 0.242188
0.730938 0.284688 0.247500
0.773438 0.290000 0.252812
0.815937 0.295313 0.258125
0.141250 0.252812 0.178437
0.183750 0.258125 0.183750
0.226250 0.263437 0.189062
0.268750 0.268750 0.194375
0.311250 0.274062 0.199688
0.353750 0.279375 0.205000
0.396250 0.284687 0.210313
0.438750 0.290000 0.215625
0.481250 0.295312 0.220938
0.523750 0.300625 0.226250
0.566250 0.305937 0.231563
0.608750 0.311250 0.236875
0.651250 0.316562 0.242188
0.693750 0.321875 0.247500
0.736250 0.327187 0.252812
0.778750 0.332500 0.258125
0.821250 0.337812 0.263437
0.146562 0.295312 0.183750
0.189062 0.300625 0.189062
0.231563 0.305938 0.194375
0.274062 0.311250 0.199688
0.316563 0.316563 0.205000
0.359063 0.321875 0.210313
0.401562 0.327188 0.215625
0.444063 0.332500 0.220938
0.486562 0.337813 0.226250
0.529062 0.343125 0.231563
0.571562 0.348438 0.236875
0.614062 0.353750 0.242188
0.656562 0.359063 0.247500
0.699062 0.364375 0.252812
0.741563 0.369688 0.258125
0.784062 0.375000 0.263438
0.826562 0.380313 0.268750
0.151875 0.337812 0.189062
0.194375 0.343125 0.194375
0.236875 0.348437 0.199688
0.279375 0.353750 0.205000
0.321875 0.359063 0.210313
0.364375 0.364375 0.215625
0.406875 0.369688 0.220938
0.449375 0.375000 0.226250
0.491875 0.380312 0.231563
0.534375 0.385625 0.236875
0.576875 0.390937 0.242188
0.619375 0.396250 0.247500
0.661875 0.401562 0.252812
0.704375 0.406875 0.258125
0.746875 0.412187 0.263438
0.789375 0.417500 0.268750
0.831875 0.422812 0.274062
0.157187 0.380312 0.194375
0.199688 0.385625 0.199688
0.242188 0.390937 0.205000
0.284687 0.396250 0.210313
0.327188 0.401562 0.215625
0.369688 0.406875 0.220938
0.412187 0.412187 0.226250
0.454688 0.417500 0.231563
0.497187 0.422812 0.236875
0.539687 0.428125 0.242188
0.582187 0.433437 0.247500
0.624687 0.438750 0.252812
0.667187 0.444062 0.258125
0.709687 0.449375 0.263437
0.752188 0.454687 0.268750
0.794687 0.460000 0.274062
0.837187 0.465312 0.279375
0.162500 0.422812 0.199688
0.205000 0.428125 0.205000
0.247500 0.433437 0.210313
0.290000 0.438750 0.215625
0.332500 0.444063 0.220938
0.375000 0.449375 0.226250
0.417500 0.454688 0.231563
0.460000 0.460000 0.236875
0.502500 0.465313 0.242188
0.545000 0.470625 0.247500
0.587500 0.475938 0.252812
0.630000 0.481250 0.258125
0.672500 0.486563 0.263437
0.715000 0.491875 0.268750
0.757500 0.497188 0.274062
0.800000 0.502500 0.279375
0.842500 0.507812 0.284687
0.167813 0.465312 0.205000
0.210313 0.470625 0.210313
0.252812 0.475937 0.215625
0.295312 0.481250 0.220938
0.337813 0.486562 0.226250
0.380312 0.491875 0.231563
0.422812 0.497187 0.236875
0.465313 0.502500 0.242188
0.507812 0.507812 0.247500
0.550312 0.513125 0.252812
0.592812 0.518437 0.258125
0.635312 0.523750 0.263437
0.677812 0.529062 0.268750
0.720312 0.534375 0.274062
0.762813 0.539687 0.279375
0.805312 0.545000 0.284687
0.847812 0.550312 0.290000
0.173125 0.507812 0.210313
0.215625 0.513125 0.215625
0.258125 0.518437 0.220938
0.300625 0.523750 0.226250
0.343125 0.529062 0.231563
0.385625 0.534375 0.236875
0.428125 0.539687 0.242188
0.470625 0.545000 0.247500
0.513125 0.550312 0.252812
0.555625 0.555625 0.258125
0.598125 0.560937 0.263438
0.640625 0.566250 0.268750
0.683125 0.571562 0.274062
0.725625 0.576875 0.279375
0.768125 0.582188 0.284687
0.810625 0.587500 0.290000
0.853125 0.592812 0.295313
0.178437 0.550312 0.215625
0.220938 0.555625 0.220938
0.263437 0.560937 0.226250
0.305937 0.566250 0.231563
0.348438 0.571562 0.236875
0.390937 0.576875 0.242188
0.433437 0.582187 0.247500
0.475938 0.587500 0.252812
0.518437 0.592812 0.258125
0.560937 0.598125 0.263438
0.603437 0.603437 0.268750
0.645937 0.608750 0.274062
0.688437 0.614062 0.279375
0.730938 0.619375 0.284687
0.773438 0.624687 0.290000
0.815937 0.630000 0.295313
0.858437 0.635312 0.300625
0.183750 0.592812 0.220938
0.226250 0.598125 0.226250
0.268750 0.603437 0.231563
0.311250 0.608750 0.236875
0.353750 0.614062 0.242188
0.396250 0.619375 0.247500
0.438750 0.624687 0.252812
0.481250 0.630000 0.258125
0.523750 0.635312 0.263437
0.566250 0.640625 0.268750
0.608750 0.645937 0.274062
0.651250 0.651250 0.279375
0.693750 0.656562 0.284687
0.736250 0.661875 0.290000
0.778750 0.667188 0.295313
0.821250 0.672500 0.300625
0.863750 0.677812 0.305938
0.189062 0.635312 0.226250
0.231563 0.640625 0.231563
0.274062 0.645937 0.236875
0.316562 0.651250 0.242188
0.359063 0.656562 0.247500
0.401562 0.661875 0.252812
0.444062 0.667187 0.258125
0.486563 0.672500 0.263437
0.529062 0.677812 0.268750
0.571562 0.683125 0.274062
0.614062 0.688437 0.279375
0.656562 0.693750 0.284687
0.699062 0.699062 0.290000
0.741562 0.704375 0.295312
0.784062 0.709687 0.300625
0.826562 0.715000 0.305938
0.869062 0.720312 0.311250
0.194375 0.677812 0.231563
0.236875 0.683125 0.236875
0.279375 0.688437 0.242188
0.321875 0.693750 0.247500
0.364375 0.699062 0.252812
0.406875 0.704375 0.258125
0.449375 0.709687 0.263437
0.491875 0.715000 0.268750
0.534375 0.720312 0.274062
0.576875 0.725625 0.279375
0.619375 0.730938 0.284687
0.661875 0.736250 0.290000
0.704375 0.741562 0.295312
0.746875 0.746875 0.300625
0.789375 0.752188 0.305938
0.831875 0.757500 0.311250
0.874375 0.762812 0.316563
0.199688 0.720313 0.236875
0.242188 0.725625 0.242188
0.284688 0.730938 0.247500
0.327187 0.736250 0.252812
0.369688 0.741563 0.258125
0.412187 0.746875 0.263438
0.454687 0.752188 0.268750
0.497188 0.757500 0.274062
0.539687 0.762813 0.279375
0.582188 0.768125 0.284687
0.624687 0.773438 0.290000
0.667188 0.778750 0.295313
0.709687 0.784062 0.300625
0.752188 0.789375 0.305938
0.794687 0.794687 0.311250
0.837187 0.800000 0.316563
0.879687 0.805312 0.321875
0.205000 0.762812 0.242188
0.247500 0.768125 0.247500
0.290000 0.773438 0.252812
0.332500 0.778750 0.258125
0.375000 0.784062 0.263438
0.417500 0.789375 0.268750
0.460000 0.794687 0.274062
0.502500 0.800000 0.279375
0.545000 0.805312 0.284687
0.587500 0.810625 0.290000
0.630000 0.815937 0.295313
0.672500 0.821250 0.300625
0.715000 0.826562 0.305938
0.757500 0.831875 0.311250
0.800000 0.837187 0.316563
0.842500 0.842500 0.321875
0.885000 0.847812 0.327188
0.210312 0.805312 0.247500
0.252812 0.810625 0.252812
0.295313 0.815937 0.258125
0.337812 0.821250 0.263437
0.380313 0.826562 0.268750
0.422812 0.831875 0.274062
0.465312 0.837187 0.279375
0.507812 0.842500 0.284687
0.550312 0.847812 0.290000
0.592812 0.853125 0.295313
0.635312 0.858437 0.300625
0.677812 0.863750 0.305938
0.720312 0.869062 0.311250
0.762812 0.874375 0.316563
0.805312 0.879687 0.321875
0.847812 0.885000 0.327188
0.890313 0.890313 0.332500
0.130625 0.130625 0.205000
0.173125 0.135937 0.210312
0.215625 0.141250 0.215625
0.258125 0.146562 0.220938
0.300625 0.151875 0.226250
0.343125 0.157188 0.231563
0.385625 0.162500 0.236875
0.428125 0.167813 0.242188
0.470625 0.173125 0.247500
0.513125 0.178437 0.252812
0.555625 0.183750 0.258125
0.598125 0.189062 0.263437
0.640625 0.194375 0.268750
0.683125 0.199687 0.274062
0.725625 0.205000 0.279375
0.768125 0.210313 0.284688
0.810625 0.215625 0.290000
0.135937 0.173125 0.210312
0.178437 0.178437 0.215625
0.220938 0.183750 0.220938
0.263437 0.189062 0.226250
0.305938 0.194375 0.231563
0.348437 0.199688 0.236875
0.390937 0.205000 0.242188
0.433438 0.210313 0.247500
0.475937 0.215625 0.252812
0.518437 0.220938 0.258125
0.560937 0.226250 0.263437
0.603437 0.231563 0.268750
0.645937 0.236875 0.274062
0.688437 0.242188 0.279375
0.730938 0.247500 0.284688
0.773438 0.252813 0.290000
0.815937 0.258125 0.295313
0.141250 0.215625 0.215625
0.183750 0.220938 0.220938
0.226250 0.226250 0.226250
0.268750 0.231563 0.231563
0.311250 0.236875 0.236875
0.353750 0.242188 0.242188
0.396250 0.247500 0.247500
0.438750 0.252812 0.252812
0.481250 0.258125 0.258125
0.523750 0.263438 0.263438
0.566250 0.268750 0.268750
0.608750 0.274063 0.274063
0.651250 0.279375 0.279375
0.693750 0.284688 0.284688
0.736250 0.290000 0.290000
0.778750 0.295313 0.295313
0.821250 0.300625 0.300625
0.146562 0.258125 0.220938
0.189062 0.263437 0.226250
0.231563 0.268750 0.231563
0.274062 0.274062 0.236875
0.316563 0.279375 0.242188
0.359063 0.284687 0.247500
0.401562 0.290000 0.252812
0.444063 0.295312 0.258125
0.486562 0.300625 0.263437
0.529062 0.305937 0.268750
0.571562 0.311250 0.274063
0.614062 0.316562 0.279375
0.656562 0.321875 0.284688
0.699062 0.327187 0.290000
0.741563 0.332500 0.295313
0.784062 0.337813 0.300625
0.826562 0.343125 0.305938
0.151875 0.300625 0.226250
0.194375 0.305938 0.231563
0.236875 0.311250 0.236875
0.279375 0.316563 0.242188
0.321875 0.321875 0.247500
0.364375 0.327188 0.252812
0.406875 0.332500 0.258125
0.449375 0.337813 0.263438
0.491875 0.343125 0.268750
0.534375 0.348438 0.274063
0.576875 0.353750 0.279375
0.619375 0.359063 0.284688
0.661875 0.364375 0.290000
0.704375 0.369688 0.295313
0.746875 0.375000 0.300625
0.789375 0.380313 0.305938
0.831875 0.385625 0.311250
0.157188 0.343125 0.231563
0.199688 0.348437 0.236875
0.242188 0.353750 0.242188
0.284687 0.359063 0.247500
0.327188 0.364375 0.252812
0.369688 0.369688 0.258125
0.412187 0.375000 0.263437
0.454688 0.380312 0.268750
0.497187 0.385625 0.274062
0.539687 0.390937 0.279375
0.582187 0.396250 0.284688
0.624687 0.401562 0.290000
0.667187 0.406875 0.295313
0.709687 0.412187 0.300625
0.752188 0.417500 0.305938
0.794687 0.422813 0.311250
0.837187 0.428125 0.316562
0.162500 0.385625 0.236875
0.205000 0.390937 0.242188
0.247500 0.396250 0.247500
0.290000 0.401562 0.252812
0.332500 0.406875 0.258125
0.375000 0.412187 0.263437
0.417500 0.417500 0.268750
0.460000 0.422812 0.274063
0.502500 0.428125 0.279375
0.545000 0.433437 0.284688
0.587500 0.438750 0.290000
0.630000 0.444062 0.295313
0.672500 0.449375 0.300625
0.715000 0.454687 0.305938
0.757500 0.460000 0.311250
0.800000 0.465312 0.316562
0.842500 0.470625 0.321875
0.167813 0.428125 0.242188
0.210313 0.433438 0.247500
0.252812 0.438750 0.252812
0.295312 0.444063 0.258125
0.337813 0.449375 0.263438
0.380312 0.454688 0.268750
0.422812 0.460000 0.274063
0.465313 0.465313 0.279375
0.507812 0.470625 0.284688
0.550312 0.475938 0.290000
0.592812 0.481250 0.295313
0.635312 0.486563 0.300625
0.677812 0.491875 0.305938
0.720312 0.497188 0.311250
0.762813 0.502500 0.316563
0.805312 0.507812 0.321875
0.847812 0.513125 0.327188
0.173125 0.470625 0.247500
0.215625 0.475937 0.252812
0.258125 0.481250 0.258125
0.300625 0.486562 0.263437
0.343125 0.491875 0.268750
0.385625 0.497187 0.274062
0.428125 0.502500 0.279375
0.470625 0.507812 0.284688
0.513125 0.513125 0.290000
0.555625 0.518437 0.295313
0.598125 0.523750 0.300625
0.640625 0.529062 0.305938
0.683125 0.534375 0.311250
0.725625 0.539687 0.316562
0.768125 0.545000 0.321875
0.810625 0.550312 0.327188
0.853125 0.555625 0.332500
0.178437 0.513125 0.252812
0.220938 0.518437 0.258125
0.263438 0.523750 0.263438
0.305937 0.529062 0.268750
0.348438 0.534375 0.274063
0.390937 0.539687 0.279375
0.433437 0.545000 0.284688
0.475938 0.550312 0.290000
0.518437 0.555625 0.295313
0.560937 0.560937 0.300625
0.603437 0.566250 0.305938
0.645938 0.571562 0.311250
0.688437 0.576875 0.316562
0.730938 0.582188 0.321875
0.773438 0.587500 0.327188
0.815937 0.592812 0.332500
0.858437 0.598125 0.337813
0.183750 0.555625 0.258125
0.226250 0.560937 0.263437
0.268750 0.566250 0.268750
0.311250 0.571562 0.274063
0.353750 0.576875 0.279375
0.396250 0.582187 0.284688
0.438750 0.587500 0.290000
0.481250 0.592812 0.295313
0.523750 0.598125 0.300625
0.566250 0.603437 0.305938
0.608750 0.608750 0.311250
0.651250 0.614062 0.316562
0.693750 0.619375 0.321875
0.736250 0.624687 0.327188
0.778750 0.630000 0.332500
0.821250 0.635312 0.337813
0.863750 0.640625 0.343125
0.189062 0.598125 0.263437
0.231563 0.603437 0.268750
0.274063 0.608750 0.274063
0.316562 0.614062 0.279375
0.359063 0.619375 0.284688
0.401562 0.624687 0.290000
0.444062 0.630000 0.295313
0.486563 0.635312 0.300625
0.529062 0.640625 0.305938
0.571562 0.645938 0.311250
0.614062 0.651250 0.316562
0.656562 0.656562 0.321875
0.699062 0.661875 0.327188
0.741562 0.667188 0.332500
0.784062 0.672500 0.337813
0.826562 0.677812 0.343125
0.869062 0.683125 0.348438
0.194375 0.640625 0.268750
0.236875 0.645937 0.274062
0.279375 0.651250 0.279375
0.321875 0.656562 0.284688
0.364375 0.661875 0.290000
0.406875 0.667187 0.295313
0.449375 0.672500 0.300625
0.491875 0.677812 0.305938
0.534375 0.683125 0.311250
0.576875 0.688437 0.316562
0.619375 0.693750 0.321875
0.661875 0.699062 0.327188
0.704375 0.704375 0.332500
0.746875 0.709687 0.337813
0.789375 0.715000 0.343125
0.831875 0.720312 0.348438
0.874375 0.725625 0.353750
0.199687 0.683125 0.274062
0.242188 0.688437 0.279375
0.284688 0.693750 0.284688
0.327187 0.699062 0.290000
0.369688 0.704375 0.295313
0.412187 0.709687 0.300625
0.454687 0.715000 0.305938
0.497188 0.720312 0.311250
0.539687 0.725625 0.316562
0.582188 0.730938 0.321875
0.624687 0.736250 0.327188
0.667188 0.741562 0.332500
0.709687 0.746875 0.337813
0.752188 0.752188 0.343125
0.794687 0.757500 0.348438
0.837187 0.762812 0.353750
0.879687 0.768125 0.359063
0.205000 0.725625 0.279375
0.247500 0.730938 0.284688
0.290000 0.736250 0.290000
0.332500 0.741563 0.295313
0.375000 0.746875 0.300625
0.417500 0.752188 0.305938
0.460000 0.757500 0.311250
0.502500 0.762813 0.316563
0.545000 0.768125 0.321875
0.587500 0.773438 0.327188
0.630000 0.778750 0.332500
0.672500 0.784062 0.337813
0.715000 0.789375 0.343125
0.757500 0.794687 0.348438
0.800000 0.800000 0.353750
0.842500 0.805312 0.359063
0.885000 0.810625 0.364375
0.210313 0.768125 0.284688
0.252813 0.773438 0.290000
0.295313 0.778750 0.295313
0.337813 0.784062 0.300625
0.380313 0.789375 0.305938
0.422813 0.794687 0.311250
0.465312 0.800000 0.316562
0.507812 0.805312 0.321875
0.550312 0.810625 0.327188
0.592812 0.815937 0.332500
0.635312 0.821250 0.337813
0.677812 0.826562 0.343125
0.720312 0.831875 0.348438
0.762812 0.837187 0.353750
0.805312 0.842500 0.359063
0.847812 0.847812 0.364375
0.890312 0.853125 0.369688
0.215625 0.810625 0.290000
0.258125 0.815937 0.295313
0.300625 0.821250 0.300625
0.343125 0.826562 0.305938
0.385625 0.831875 0.311250
0.428125 0.837187 0.316562
0.470625 0.842500 0.321875
0.513125 0.847812 0.327188
0.555625 0.853125 0.332500
0.598125 0.858437 0.337813
0.640625 0.863750 0.343125
0.683125 0.869062 0.348438
0.725625 0.874375 0.353750
0.768125 0.879687 0.359063
0.810625 0.885000 0.364375
0.853125 0.890312 0.369688
0.895625 0.895625 0.375000
0.135937 0.135937 0.247500
0.178437 0.141250 0.252812
0.220938 0.146562 0.258125
0.263437 0.151875 0.263437
0.305938 0.157188 0.268750
0.348437 0.162500 0.274062
0.390937 0.167813 0.279375
0.433437 0.173125 0.284687
0.475937 0.178437 0.290000
0.518437 0.183750 0.295312
0.560937 0.189062 0.300625
0.603437 0.194375 0.305937
0.645937 0.199687 0.311250
0.688437 0.205000 0.316562
0.730938 0.210313 0.321875
