assets/luts/teal-cool.cube
# Teal cool: saturated cold tones, modern tech.
# Generated procedurally by videokit gen-luts.py
TITLE "teal-cool"
LUT_3D_SIZE 17
DOMAIN_MIN 0.0 0.0 0.0
DOMAIN_MAX 1.0 1.0 1.0
0.119203 0.127862 0.162465
0.120301 0.127846 0.162381
0.149520 0.127801 0.162133
0.184463 0.127728 0.161732
0.225533 0.127628 0.161185
0.272824 0.127503 0.160503
0.326000 0.127354 0.159695
0.384207 0.127184 0.158770
0.446068 0.126993 0.157739
0.509775 0.126784 0.156612
0.573282 0.126557 0.155397
0.634562 0.126314 0.154105
0.691858 0.126058 0.152746
0.743864 0.125789 0.151328
0.789812 0.125509 0.149861
0.829447 0.125220 0.148355
0.862932 0.124922 0.146817
0.119203 0.158224 0.161549
0.121046 0.158094 0.160952
0.150722 0.157934 0.160223
0.186226 0.157746 0.159371
0.227952 0.157534 0.158407
0.275966 0.157297 0.157340
0.329884 0.157038 0.156179
0.388791 0.156760 0.154935
0.451240 0.156464 0.153618
0.515357 0.156151 0.152236
0.579056 0.155824 0.150799
0.640295 0.155485 0.149317
0.697338 0.155135 0.147798
0.748922 0.154776 0.146251
0.794337 0.154410 0.144686
0.833384 0.154039 0.143109
0.866277 0.153665 0.141529
0.119203 0.193777 0.159033
0.122601 0.193516 0.158030
0.152841 0.193228 0.156927
0.189009 0.192915 0.155735
0.231477 0.192579 0.154463
0.280271 0.192223 0.153121
0.334951 0.191849 0.151718
0.394529 0.191458 0.150264
0.457486 0.191054 0.148768
0.521891 0.190637 0.147238
0.585626 0.190211 0.145683
0.646654 0.189778 0.144112
0.703274 0.189339 0.142534
0.754283 0.188897 0.140955
0.799036 0.188453 0.139384
0.837394 0.188011 0.137828
0.869621 0.187571 0.136293
0.119203 0.234702 0.155281
0.124823 0.234306 0.153982
0.155707 0.233887 0.152617
0.192607 0.233447 0.151194
0.235865 0.232990 0.149724
0.285458 0.232517 0.148214
0.340879 0.232032 0.146674
0.401065 0.231536 0.145113
0.464428 0.231032 0.143538
0.528987 0.230523 0.141959
0.592606 0.230011 0.140382
0.653270 0.229498 0.138815
0.709328 0.228987 0.137266
0.759647 0.228480 0.135742
0.803651 0.227979 0.134248
0.841263 0.227488 0.132793
0.872791 0.227007 0.131381
0.119203 0.280927 0.150664
0.127569 0.280404 0.149178
0.159146 0.279865 0.147656
0.196809 0.279311 0.146108
0.240864 0.278747 0.144541
0.291233 0.278175 0.142963
0.347336 0.277598 0.141384
0.408037 0.277017 0.139810
0.471682 0.276437 0.138249
0.536254 0.275860 0.136708
0.599615 0.275288 0.135194
0.659786 0.274725 0.133714
0.715179 0.274172 0.132273
0.764733 0.273633 0.130879
0.807944 0.273110 0.129537
0.844793 0.272606 0.128253
0.875625 0.272123 0.127032
0.119203 0.332057 0.145539
0.130692 0.331432 0.143967
0.162973 0.330798 0.142388
0.201393 0.330160 0.140810
0.246212 0.329519 0.139240
0.297291 0.328880 0.137685
0.353980 0.328244 0.136153
0.415073 0.327616 0.134651
0.478861 0.326997 0.133184
0.543305 0.326391 0.131760
0.606282 0.325801 0.130384
0.665859 0.325230 0.129063
0.720517 0.324681 0.127801
0.769274 0.324156 0.126604
0.811690 0.323658 0.125478
0.847798 0.323191 0.124428
0.877974 0.322757 0.123459
0.119203 0.387338 0.140237
0.134034 0.386650 0.138671
0.166995 0.385965 0.137124
0.206122 0.385284 0.135602
0.251628 0.384612 0.134112
0.303312 0.383952 0.132661
0.360456 0.383306 0.131254
0.421793 0.382679 0.129897
0.485575 0.382072 0.128596
0.549756 0.381490 0.127358
0.612241 0.380935 0.126186
0.671154 0.380411 0.125087
0.725051 0.379921 0.124066
0.773018 0.379467 0.123127
0.814679 0.379054 0.122276
0.850105 0.378683 0.121518
0.879696 0.378359 0.120857
0.119203 0.445661 0.135056
0.137420 0.444964 0.133579
0.170998 0.444280 0.132143
0.210742 0.443612 0.130753
0.256816 0.442964 0.129416
0.308961 0.442340 0.128138
0.366397 0.441741 0.126923
0.427812 0.441172 0.125777
0.491435 0.440637 0.124706
0.555227 0.440137 0.123714
0.617136 0.439678 0.122807
0.675351 0.439261 0.121989
0.728495 0.438890 0.121266
0.775722 0.438569 0.120642
0.816704 0.438301 0.120123
0.851543 0.438090 0.119715
0.880651 0.437937 0.119421
0.119203 0.505630 0.130260
0.140665 0.504982 0.128944
0.174755 0.504358 0.127688
0.214984 0.503762 0.126498
0.261466 0.503197 0.125378
0.313889 0.502667 0.124335
0.371429 0.502174 0.123374
0.432741 0.501723 0.122498
0.496049 0.501317 0.121714
0.559343 0.500959 0.121027
0.620619 0.500652 0.120441
0.678131 0.500400 0.119961
0.730571 0.500207 0.119594
0.777144 0.500075 0.119344
0.817560 0.500008 0.119218
0.851953 0.500000 0.119203
0.880797 0.500000 0.119203
0.119203 0.565671 0.126082
0.143564 0.565128 0.124989
0.178024 0.564619 0.123975
0.218563 0.564150 0.123045
0.265254 0.563722 0.122202
0.317742 0.563339 0.121453
0.375172 0.563004 0.120801
0.436188 0.562722 0.120254
0.499031 0.562494 0.119815
0.561729 0.562326 0.119489
0.622339 0.562219 0.119284
0.679177 0.562177 0.119204
0.731059 0.562177 0.119203
0.777300 0.562177 0.119203
0.817574 0.562177 0.119203
0.851953 0.562177 0.119203
0.880797 0.562177 0.119203
0.119203 0.624189 0.122727
0.145907 0.623796 0.121918
0.180552 0.623447 0.121204
0.221187 0.623145 0.120590
0.267850 0.622895 0.120081
0.320159 0.622698 0.119683
0.377246 0.622557 0.119400
0.437766 0.622478 0.119240
0.500000 0.622459 0.119203
0.562177 0.622459 0.119203
0.622459 0.622459 0.119203
0.679179 0.622459 0.119203
0.731059 0.622459 0.119203
0.777300 0.622459 0.119203
0.817574 0.622459 0.119203
0.851953 0.622459 0.119203
0.880797 0.622459 0.119203
0.119203 0.679725 0.120392
0.147473 0.679510 0.119923
0.182082 0.679346 0.119566
0.222563 0.679236 0.119328
0.268929 0.679183 0.119213
0.320821 0.679179 0.119203
0.377541 0.679179 0.119203
0.437823 0.679179 0.119203
0.500000 0.679179 0.119203
0.562177 0.679179 0.119203
0.622459 0.679179 0.119203
0.679179 0.679179 0.119203
0.731059 0.679179 0.119203
0.777300 0.679179 0.119203
0.817574 0.679179 0.119203
0.851953 0.679179 0.119203
0.880797 0.679179 0.119203
0.119203 0.731087 0.119271
0.148047 0.731059 0.119203
0.182426 0.731059 0.119203
0.222700 0.731059 0.119203
0.268941 0.731059 0.119203
0.320821 0.731059 0.119203
0.377541 0.731059 0.119203
0.437823 0.731059 0.119203
0.500000 0.731059 0.119203
0.562177 0.731059 0.119203
0.622459 0.731059 0.119203
0.679179 0.731059 0.119203
0.731059 0.731059 0.119203
0.777300 0.731059 0.119203
0.817574 0.731059 0.119203
0.851953 0.731059 0.119203
0.880797 0.731059 0.119203
0.119203 0.777300 0.119203
0.148047 0.777300 0.119203
0.182426 0.777300 0.119203
0.222700 0.777300 0.119203
0.268941 0.777300 0.119203
0.320821 0.777300 0.119203
0.377541 0.777300 0.119203
0.437823 0.777300 0.119203
0.500000 0.777300 0.119203
0.562177 0.777300 0.119203
0.622459 0.777300 0.119203
0.679179 0.777300 0.119203
0.731059 0.777300 0.119203
0.777300 0.777300 0.119203
0.817574 0.777300 0.119203
0.851953 0.777300 0.119203
0.880797 0.777300 0.119203
0.119203 0.817574 0.119203
0.148047 0.817574 0.119203
0.182426 0.817574 0.119203
0.222700 0.817574 0.119203
0.268941 0.817574 0.119203
0.320821 0.817574 0.119203
0.377541 0.817574 0.119203
0.437823 0.817574 0.119203
0.500000 0.817574 0.119203
0.562177 0.817574 0.119203
0.622459 0.817574 0.119203
0.679179 0.817574 0.119203
0.731059 0.817574 0.119203
0.777300 0.817574 0.119203
0.817574 0.817574 0.119203
0.851953 0.817574 0.119203
0.880797 0.817574 0.119203
0.119203 0.851953 0.119203
0.148047 0.851953 0.119203
0.182426 0.851953 0.119203
0.222700 0.851953 0.119203
0.268941 0.851953 0.119203
0.320821 0.851953 0.119203
0.377541 0.851953 0.119203
0.437823 0.851953 0.119203
0.500000 0.851953 0.119203
0.562177 0.851953 0.119203
0.622459 0.851953 0.119203
0.679179 0.851953 0.119203
0.731059 0.851953 0.119203
0.777300 0.851953 0.119203
0.817574 0.851953 0.119203
0.851953 0.851953 0.119203
0.880797 0.851953 0.119203
0.119203 0.880797 0.119203
0.148047 0.880797 0.119203
0.182426 0.880797 0.119203
0.222700 0.880797 0.119203
0.268941 0.880797 0.119203
0.320821 0.880797 0.119203
0.377541 0.880797 0.119203
0.437823 0.880797 0.119203
0.500000 0.880797 0.119203
0.562177 0.880797 0.119203
0.622459 0.880797 0.119203
0.679179 0.880797 0.119203
0.731059 0.880797 0.119203
0.777300 0.880797 0.119203
0.817574 0.880797 0.119203
0.851953 0.880797 0.119203
0.880797 0.880797 0.119203
0.119203 0.127860 0.199396
0.120335 0.127834 0.199231
0.149594 0.127779 0.198878
0.184588 0.127697 0.198348
0.225720 0.127588 0.197651
0.273081 0.127455 0.196798
0.326329 0.127299 0.195801
0.384607 0.127121 0.194671
0.446531 0.126924 0.193418
0.510284 0.126708 0.192055
0.573818 0.126476 0.190592
0.635102 0.126229 0.189041
0.692380 0.125968 0.187413
0.744352 0.125695 0.185719
0.790253 0.125412 0.183970
0.829834 0.125120 0.182175
0.863264 0.124820 0.180346
0.119203 0.158183 0.198113
0.121169 0.158043 0.197358
0.150897 0.157873 0.196451
0.186464 0.157677 0.195404
0.228261 0.157456 0.194228
0.276352 0.157212 0.192934
0.330347 0.156946 0.191533
0.389324 0.156661 0.190037
0.451828 0.156359 0.188457
0.515980 0.156042 0.186804
0.579689 0.155710 0.185088
0.640915 0.155367 0.183321
0.697922 0.155014 0.181513
0.749455 0.154652 0.179674
0.794808 0.154284 0.177813
0.833789 0.153912 0.175942
0.866617 0.153537 0.174069
0.119203 0.193691 0.194990
0.122797 0.193421 0.193770
0.153100 0.193124 0.192436
0.189339 0.192803 0.190999
0.231885 0.192461 0.189471
0.280760 0.192098 0.187863
0.335516 0.191718 0.186186
0.395159 0.191322 0.184450
0.458162 0.190914 0.182667
0.522589 0.190494 0.180846
0.586318 0.190065 0.178998
0.647316 0.189629 0.177133
0.703885 0.189189 0.175260
0.754829 0.188746 0.173388
0.799509 0.188303 0.171526
0.837795 0.187861 0.169684
0.869952 0.187423 0.167869
0.119203 0.234570 0.190453
0.125078 0.234166 0.188894
0.156032 0.233740 0.187260
0.193007 0.233294 0.185560
0.236346 0.232831 0.183806
0.286019 0.232354 0.182008
0.341512 0.231865 0.180176
0.401756 0.231366 0.178321
0.465153 0.230860 0.176451
0.529719 0.230349 0.174578
0.593319 0.229837 0.172709
0.653938 0.229324 0.170853
0.709933 0.228814 0.169020
0.760178 0.228309 0.167217
0.804103 0.227811 0.165452
0.841638 0.227323 0.163734
0.873095 0.226847 0.162069
0.119203 0.280752 0.184927
0.127870 0.280223 0.183156
0.159517 0.279678 0.181344
0.197258 0.279121 0.179503
0.241393 0.278554 0.177641
0.291837 0.277979 0.175769
0.348004 0.277401 0.173896
0.408751 0.276820 0.172031
0.472417 0.276241 0.170183
0.536982 0.275665 0.168359
0.600310 0.275096 0.166570
0.660425 0.274536 0.164821
0.715746 0.273987 0.163121
0.765220 0.273453 0.161478
0.808350 0.272936 0.159898
0.845123 0.272439 0.158388
0.875887 0.271964 0.156955
0.119203 0.331846 0.178827
0.131023 0.331217 0.176960
0.163374 0.330582 0.175087
0.201868 0.329942 0.173216
0.246760 0.329302 0.171356
0.297906 0.328663 0.169516
0.354647 0.328030 0.167704
0.415772 0.327404 0.165928
0.479567 0.326790 0.164196
0.543990 0.326189 0.162516
0.606921 0.325605 0.160895
0.666434 0.325041 0.159340
0.721016 0.324500 0.157857
0.769692 0.323984 0.156453
0.812030 0.323496 0.155135
0.848065 0.323040 0.153910
0.878179 0.322618 0.152782
0.119203 0.387104 0.172537
0.134377 0.386417 0.170683
0.167403 0.385733 0.168852
0.206597 0.385055 0.167053
0.252167 0.384387 0.165292
0.303905 0.383731 0.163578
0.361086 0.383091 0.161919
0.422439 0.382470 0.160321
0.486212 0.381872 0.158791
0.550359 0.381298 0.157336
0.612789 0.380754 0.155963
0.671633 0.380241 0.154678
0.725452 0.379762 0.153488
0.773342 0.379322 0.152397
0.814930 0.378923 0.151414
0.850292 0.378568 0.150544
0.879830 0.378260 0.149792
0.119203 0.445423 0.166407
0.137758 0.444730 0.164662
0.171392 0.444051 0.162967
0.211192 0.443390 0.161330
0.257316 0.442749 0.159756
0.309497 0.442133 0.158252
0.366953 0.441545 0.156827
0.428365 0.440987 0.155485
0.491963 0.440463 0.154233
0.555710 0.439977 0.153079
0.617558 0.439531 0.152027
0.675701 0.439130 0.151084
0.728771 0.438776 0.150256
0.775928 0.438472 0.149549
0.816847 0.438223 0.148971
0.851634 0.438031 0.148526
0.880700 0.437900 0.148223
0.119203 0.505407 0.160749
0.140976 0.504767 0.159200
0.175111 0.504152 0.157724
0.215380 0.503566 0.156328
0.261893 0.503013 0.155018
0.314333 0.502495 0.153802
0.371872 0.502016 0.152683
0.433162 0.501580 0.151670
0.496431 0.501190 0.150769
0.559668 0.500849 0.149984
0.620878 0.500560 0.149324
0.678321 0.500328 0.148793
0.730693 0.500155 0.148399
0.777207 0.500045 0.148149
0.817573 0.500001 0.148049
0.851953 0.500000 0.148047
0.880797 0.500000 0.148047
0.119203 0.565483 0.155841
0.143830 0.564951 0.154564
0.178317 0.564455 0.153383
0.218876 0.563999 0.152302
0.265575 0.563586 0.151329
0.318057 0.563220 0.150469
0.375463 0.562902 0.149729
0.436439 0.562638 0.149115
0.499227 0.562430 0.148633
0.561860 0.562282 0.148291
0.622401 0.562197 0.148094
0.679179 0.562177 0.148047
0.731059 0.562177 0.148047
0.777300 0.562177 0.148047
0.817574 0.562177 0.148047
0.851953 0.562177 0.148047
0.880797 0.562177 0.148047
0.119203 0.624051 0.151935
0.146104 0.623672 0.151002
0.180756 0.623339 0.150186
0.221387 0.623054 0.149491
0.268033 0.622821 0.148924
0.320309 0.622643 0.148492
0.377348 0.622523 0.148202
0.437806 0.622465 0.148061
0.500000 0.622459 0.148047
0.562177 0.622459 0.148047
0.622459 0.622459 0.148047
0.679179 0.622459 0.148047
0.731059 0.622459 0.148047
0.777300 0.622459 0.148047
0.817574 0.622459 0.148047
0.851953 0.622459 0.148047
0.880797 0.622459 0.148047
0.119203 0.679646 0.149269
0.147580 0.679448 0.148751
0.182171 0.679302 0.148370
0.222622 0.679212 0.148133
0.268941 0.679179 0.148047
0.320821 0.679179 0.148047
0.377541 0.679179 0.148047
0.437823 0.679179 0.148047
0.500000 0.679179 0.148047
0.562177 0.679179 0.148047
0.622459 0.679179 0.148047
0.679179 0.679179 0.148047
0.731059 0.679179 0.148047
0.777300 0.679179 0.148047
0.817574 0.679179 0.148047
0.851953 0.679179 0.148047
0.880797 0.679179 0.148047
0.119203 0.731071 0.148084
0.148047 0.731059 0.148047
0.182426 0.731059 0.148047
0.222700 0.731059 0.148047
0.268941 0.731059 0.148047
0.320821 0.731059 0.148047
0.377541 0.731059 0.148047
0.437823 0.731059 0.148047
0.500000 0.731059 0.148047
0.562177 0.731059 0.148047
0.622459 0.731059 0.148047
0.679179 0.731059 0.148047
0.731059 0.731059 0.148047
0.777300 0.731059 0.148047
0.817574 0.731059 0.148047
0.851953 0.731059 0.148047
0.880797 0.731059 0.148047
0.119203 0.777300 0.148047
0.148047 0.777300 0.148047
0.182426 0.777300 0.148047
0.222700 0.777300 0.148047
0.268941 0.777300 0.148047
0.320821 0.777300 0.148047
0.377541 0.777300 0.148047
0.437823 0.777300 0.148047
0.500000 0.777300 0.148047
0.562177 0.777300 0.148047
0.622459 0.777300 0.148047
0.679179 0.777300 0.148047
0.731059 0.777300 0.148047
0.777300 0.777300 0.148047
0.817574 0.777300 0.148047
0.851953 0.777300 0.148047
0.880797 0.777300 0.148047
0.119203 0.817574 0.148047
0.148047 0.817574 0.148047
0.182426 0.817574 0.148047
0.222700 0.817574 0.148047
0.268941 0.817574 0.148047
0.320821 0.817574 0.148047
0.377541 0.817574 0.148047
0.437823 0.817574 0.148047
0.500000 0.817574 0.148047
0.562177 0.817574 0.148047
0.622459 0.817574 0.148047
0.679179 0.817574 0.148047
0.731059 0.817574 0.148047
0.777300 0.817574 0.148047
0.817574 0.817574 0.148047
0.851953 0.817574 0.148047
0.880797 0.817574 0.148047
0.119203 0.851953 0.148047
0.148047 0.851953 0.148047
0.182426 0.851953 0.148047
0.222700 0.851953 0.148047
0.268941 0.851953 0.148047
0.320821 0.851953 0.148047
0.377541 0.851953 0.148047
0.437823 0.851953 0.148047
0.500000 0.851953 0.148047
0.562177 0.851953 0.148047
0.622459 0.851953 0.148047
0.679179 0.851953 0.148047
0.731059 0.851953 0.148047
0.777300 0.851953 0.148047
0.817574 0.851953 0.148047
0.851953 0.851953 0.148047
0.880797 0.851953 0.148047
0.119203 0.880797 0.148047
0.148047 0.880797 0.148047
0.182426 0.880797 0.148047
0.222700 0.880797 0.148047
0.268941 0.880797 0.148047
0.320821 0.880797 0.148047
0.377541 0.880797 0.148047
0.437823 0.880797 0.148047
0.500000 0.880797 0.148047
0.562177 0.880797 0.148047
0.622459 0.880797 0.148047
0.679179 0.880797 0.148047
0.731059 0.880797 0.148047
0.777300 0.880797 0.148047
0.817574 0.880797 0.148047
0.851953 0.880797 0.148047
0.880797 0.880797 0.148047
0.119203 0.127854 0.242268
0.120379 0.127819 0.242003
0.149680 0.127754 0.241526
0.184726 0.127663 0.240850
0.225920 0.127546 0.239985
0.273351 0.127405 0.238945
0.326673 0.127241 0.237743
0.385023 0.127057 0.236390
0.447007 0.126853 0.234900
0.510807 0.126631 0.233286
0.574365 0.126394 0.231560
0.635651 0.126142 0.229735
0.692911 0.125876 0.227823
0.744846 0.125600 0.225838
0.790699 0.125313 0.223790
0.830225 0.125019 0.221692
0.863598 0.124717 0.219556
0.119203 0.158139 0.240556
0.121300 0.157988 0.239626
0.151081 0.157809 0.238525
0.186712 0.157605 0.237267
0.228582 0.157375 0.235863
0.276750 0.157124 0.234326
0.330822 0.156851 0.232670
0.389868 0.156561 0.230906
0.452426 0.156253 0.229048
0.516613 0.155930 0.227108
0.580331 0.155595 0.225099
0.641541 0.155248 0.223031
0.698510 0.154892 0.220919
0.749990 0.154528 0.218772
0.795280 0.154158 0.216602
0.834195 0.153785 0.214420
0.866958 0.153409 0.212238
0.119203 0.193603 0.236772
0.123000 0.193323 0.235318
0.153366 0.193018 0.233736
0.189677 0.192689 0.232039
0.232301 0.192340 0.230240
0.281257 0.191971 0.228351
0.336089 0.191585 0.226384
0.395796 0.191185 0.224352
0.458844 0.190772 0.222267
0.523291 0.190349 0.220140
0.587015 0.189918 0.217984
0.647981 0.189480 0.215808
0.704497 0.189039 0.213626
0.755375 0.188595 0.211446
0.799982 0.188152 0.209279
0.838194 0.187711 0.207136
0.870281 0.187275 0.205027
0.119203 0.234436 0.231396
0.125340 0.234023 0.229562
0.156361 0.233590 0.227643
0.193414 0.233138 0.225651
0.236833 0.232671 0.223598
0.286586 0.232189 0.221497
0.342151 0.231696 0.219358
0.402450 0.231195 0.217193
0.465880 0.230687 0.215014
0.530453 0.230175 0.212831
0.594031 0.229662 0.210655
0.654605 0.229150 0.208496
0.710536 0.228642 0.206364
0.760705 0.228139 0.204269
0.804551 0.227644 0.202220
0.842009 0.227160 0.200226
0.873396 0.226688 0.198296
0.119203 0.280574 0.224910
0.128174 0.280039 0.222838
0.159893 0.279490 0.220722
0.197711 0.278929 0.218572
0.241925 0.278359 0.216401
0.292443 0.277783 0.214219
0.348673 0.277204 0.212038
0.409464 0.276623 0.209866
0.473150 0.276045 0.207716
0.537708 0.275471 0.205597
0.601001 0.274905 0.203517
0.661059 0.274348 0.201487
0.716307 0.273804 0.199515
0.765702 0.273276 0.197611
0.808751 0.272765 0.195781
0.845447 0.272275 0.194036
0.876143 0.271808 0.192382
0.119203 0.331633 0.217784
0.131355 0.331002 0.215607
0.163776 0.330365 0.213424
0.202344 0.329725 0.211245
0.247309 0.329085 0.209081
0.298520 0.328448 0.206940
0.355313 0.327816 0.204834
0.416467 0.327194 0.202772
0.480267 0.326584 0.200762
0.544668 0.325989 0.198814
0.607553 0.325411 0.196935
0.667001 0.324855 0.195136
0.721507 0.324321 0.193423
0.770102 0.323815 0.191804
0.812361 0.323338 0.190288
0.848325 0.322893 0.188882
0.878377 0.322483 0.187593
0.119203 0.386871 0.210455
0.134720 0.386184 0.208298
0.167811 0.385502 0.206169
0.207072 0.384827 0.204078
0.252704 0.384162 0.202033
0.304493 0.383512 0.200045
0.361710 0.382878 0.198121
0.423077 0.382264 0.196271
0.486840 0.381674 0.194502
0.550952 0.381110 0.192822
0.613326 0.380576 0.191240
0.672100 0.380074 0.189763
0.725843 0.379608 0.188399
0.773656 0.379182 0.187155
0.815172 0.378797 0.186039
0.850471 0.378458 0.185058
0.879956 0.378167 0.184220
0.119203 0.445186 0.203328
0.138093 0.444498 0.201303
0.171784 0.443825 0.199337
0.211638 0.443170 0.197439
0.257809 0.442537 0.195617
0.310025 0.441930 0.193879
0.367499 0.441351 0.192234
0.428907 0.440805 0.190690
0.492479 0.440293 0.189253
0.556179 0.439821 0.187932
0.617965 0.439390 0.186733
0.676036 0.439004 0.185666
0.729033 0.438667 0.184736
0.776121 0.438381 0.183952
0.816978 0.438151 0.183321
0.851713 0.437979 0.182851
0.880738 0.437869 0.182551
0.119203 0.505187 0.196766
0.141285 0.504555 0.194974
0.175463 0.503950 0.193269
0.215769 0.503374 0.191660
0.262311 0.502833 0.190154
0.314765 0.502328 0.188758
0.372301 0.501863 0.187481
0.433569 0.501442 0.186329
0.496795 0.501068 0.185311
0.559976 0.500745 0.184433
0.621119 0.500475 0.183704
0.678493 0.500262 0.183131
0.730798 0.500110 0.182722
0.777254 0.500022 0.182485
0.817574 0.500000 0.182426
0.851953 0.500000 0.182426
0.880797 0.500000 0.182426
0.119203 0.565298 0.191099
0.144089 0.564778 0.189633
0.178602 0.564296 0.188279
0.219179 0.563854 0.187047
0.265884 0.563456 0.185943
0.318357 0.563106 0.184975
0.375737 0.562807 0.184150
0.436670 0.562561 0.183477
0.499401 0.562373 0.182962
0.561968 0.562246 0.182615
0.622441 0.562183 0.182443
0.679179 0.562177 0.182426
0.731059 0.562177 0.182426
0.777300 0.562177 0.182426
0.817574 0.562177 0.182426
0.851953 0.562177 0.182426
0.880797 0.562177 0.182426
0.119203 0.623917 0.186629
0.146293 0.623554 0.185574
0.180949 0.623237 0.184657
0.221575 0.622969 0.183887
0.268201 0.622755 0.183271
0.320441 0.622596 0.182816
0.377429 0.622497 0.182532
0.437823 0.622460 0.182426
0.500000 0.622459 0.182426
0.562177 0.622459 0.182426
0.622459 0.622459 0.182426
0.679179 0.622459 0.182426
0.731059 0.622459 0.182426
0.777300 0.622459 0.182426
0.817574 0.622459 0.182426
0.851953 0.622459 0.182426
0.880797 0.622459 0.182426
0.119203 0.679573 0.183644
0.147676 0.679393 0.183086
0.182248 0.679265 0.182693
0.222664 0.679194 0.182472
0.268941 0.679179 0.182426
0.320821 0.679179 0.182426
0.377541 0.679179 0.182426
0.437823 0.679179 0.182426
0.500000 0.679179 0.182426
0.562177 0.679179 0.182426
0.622459 0.679179 0.182426
0.679179 0.679179 0.182426
0.731059 0.679179 0.182426
0.777300 0.679179 0.182426
0.817574 0.679179 0.182426
0.851953 0.679179 0.182426
0.880797 0.679179 0.182426
0.119203 0.731062 0.182437
0.148047 0.731059 0.182426
0.182426 0.731059 0.182426
0.222700 0.731059 0.182426
0.268941 0.731059 0.182426
0.320821 0.731059 0.182426
0.377541 0.731059 0.182426
0.437823 0.731059 0.182426
0.500000 0.731059 0.182426
0.562177 0.731059 0.182426
0.622459 0.731059 0.182426
0.679179 0.731059 0.182426
0.731059 0.731059 0.182426
0.777300 0.731059 0.182426
0.817574 0.731059 0.182426
0.851953 0.731059 0.182426
0.880797 0.731059 0.182426
0.119203 0.777300 0.182426
0.148047 0.777300 0.182426
0.182426 0.777300 0.182426
0.222700 0.777300 0.182426
0.268941 0.777300 0.182426
0.320821 0.777300 0.182426
0.377541 0.777300 0.182426
0.437823 0.777300 0.182426
0.500000 0.777300 0.182426
0.562177 0.777300 0.182426
0.622459 0.777300 0.182426
0.679179 0.777300 0.182426
0.731059 0.777300 0.182426
0.777300 0.777300 0.182426
0.817574 0.777300 0.182426
0.851953 0.777300 0.182426
0.880797 0.777300 0.182426
0.119203 0.817574 0.182426
0.148047 0.817574 0.182426
0.182426 0.817574 0.182426
0.222700 0.817574 0.182426
0.268941 0.817574 0.182426
0.320821 0.817574 0.182426
0.377541 0.817574 0.182426
0.437823 0.817574 0.182426
0.500000 0.817574 0.182426
0.562177 0.817574 0.182426
0.622459 0.817574 0.182426
0.679179 0.817574 0.182426
0.731059 0.817574 0.182426
0.777300 0.817574 0.182426
0.817574 0.817574 0.182426
0.851953 0.817574 0.182426
0.880797 0.817574 0.182426
0.119203 0.851953 0.182426
0.148047 0.851953 0.182426
0.182426 0.851953 0.182426
0.222700 0.851953 0.182426
0.268941 0.851953 0.182426
0.320821 0.851953 0.182426
0.377541 0.851953 0.182426
0.437823 0.851953 0.182426
0.500000 0.851953 0.182426
0.562177 0.851953 0.182426
0.622459 0.851953 0.182426
0.679179 0.851953 0.182426
0.731059 0.851953 0.182426
0.777300 0.851953 0.182426
0.817574 0.851953 0.182426
0.851953 0.851953 0.182426
0.880797 0.851953 0.182426
0.119203 0.880797 0.182426
0.148047 0.880797 0.182426
0.182426 0.880797 0.182426
0.222700 0.880797 0.182426
0.268941 0.880797 0.182426
0.320821 0.880797 0.182426
0.377541 0.880797 0.182426
0.437823 0.880797 0.182426
0.500000 0.880797 0.182426
0.562177 0.880797 0.182426
0.622459 0.880797 0.182426
0.679179 0.880797 0.182426
0.731059 0.880797 0.182426
0.777300 0.880797 0.182426
0.817574 0.880797 0.182426
0.851953 0.880797 0.182426
0.880797 0.880797 0.182426
0.119203 0.127846 0.290977
0.120432 0.127800 0.290597
0.149776 0.127726 0.289983
0.184876 0.127626 0.289149
0.226134 0.127500 0.288107
0.273636 0.127351 0.286873
0.327032 0.127181 0.285459
0.385453 0.126989 0.283880
0.447498 0.126779 0.282149
0.511342 0.126552 0.280282
0.574923 0.126310 0.278292
0.636210 0.126053 0.276192
0.693448 0.125784 0.273997
0.745346 0.125504 0.271721
0.791148 0.125214 0.269376
