assets/luts/teal-cool.cube
# Teal cool: saturated cold tones, modern tech.
# Generated procedurally by videokit gen-luts.py
TITLE "teal-cool"
LUT_3D_SIZE 9
DOMAIN_MIN 0.0 0.0 0.0
DOMAIN_MAX 1.0 1.0 1.0
0.119203 0.127862 0.162465
0.149520 0.127801 0.162133
0.225533 0.127628 0.161185
0.326000 0.127354 0.159695
0.446068 0.126993 0.157739
0.573282 0.126557 0.155397
0.691858 0.126058 0.152746
0.789812 0.125509 0.149861
0.862932 0.124922 0.146817
0.119203 0.193777 0.159033
0.152841 0.193228 0.156927
0.231477 0.192579 0.154463
0.334951 0.191849 0.151718
0.457486 0.191054 0.148768
0.585626 0.190211 0.145683
0.703274 0.189339 0.142534
0.799036 0.188453 0.139384
0.869621 0.187571 0.136293
0.119203 0.280927 0.150664
0.159146 0.279865 0.147656
0.240864 0.278747 0.144541
0.347336 0.277598 0.141384
0.471682 0.276437 0.138249
0.599615 0.275288 0.135194
0.715179 0.274172 0.132273
0.807944 0.273110 0.129537
0.875625 0.272123 0.127032
0.119203 0.387338 0.140237
0.166995 0.385965 0.137124
0.251628 0.384612 0.134112
0.360456 0.383306 0.131254
0.485575 0.382072 0.128596
0.612241 0.380935 0.126186
0.725051 0.379921 0.124066
0.814679 0.379054 0.122276
0.879696 0.378359 0.120857
0.119203 0.505630 0.130260
0.174755 0.504358 0.127688
0.261466 0.503197 0.125378
0.371429 0.502174 0.123374
0.496049 0.501317 0.121714
0.620619 0.500652 0.120441
0.730571 0.500207 0.119594
0.817560 0.500008 0.119218
0.880797 0.500000 0.119203
0.119203 0.624189 0.122727
0.180552 0.623447 0.121204
0.267850 0.622895 0.120081
0.377246 0.622557 0.119400
0.500000 0.622459 0.119203
0.622459 0.622459 0.119203
0.731059 0.622459 0.119203
0.817574 0.622459 0.119203
0.880797 0.622459 0.119203
0.119203 0.731087 0.119271
0.182426 0.731059 0.119203
0.268941 0.731059 0.119203
0.377541 0.731059 0.119203
0.500000 0.731059 0.119203
0.622459 0.731059 0.119203
0.731059 0.731059 0.119203
0.817574 0.731059 0.119203
0.880797 0.731059 0.119203
0.119203 0.817574 0.119203
0.182426 0.817574 0.119203
0.268941 0.817574 0.119203
0.377541 0.817574 0.119203
0.500000 0.817574 0.119203
0.622459 0.817574 0.119203
0.731059 0.817574 0.119203
0.817574 0.817574 0.119203
0.880797 0.817574 0.119203
0.119203 0.880797 0.119203
0.182426 0.880797 0.119203
0.268941 0.880797 0.119203
0.377541 0.880797 0.119203
0.500000 0.880797 0.119203
0.622459 0.880797 0.119203
0.731059 0.880797 0.119203
0.817574 0.880797 0.119203
0.880797 0.880797 0.119203
0.119203 0.127854 0.242268
0.149680 0.127754 0.241526
0.225920 0.127546 0.239985
0.326673 0.127241 0.237743
0.447007 0.126853 0.234900
0.574365 0.126394 0.231560
0.692911 0.125876 0.227823
0.790699 0.125313 0.223790
0.863598 0.124717 0.219556
0.119203 0.193603 0.236772
0.153366 0.193018 0.233736
0.232301 0.192340 0.230240
0.336089 0.191585 0.226384
0.458844 0.190772 0.222267
0.587015 0.189918 0.217984
0.704497 0.189039 0.213626
0.799982 0.188152 0.209279
0.870281 0.187275 0.205027
0.119203 0.280574 0.224910
0.159893 0.279490 0.220722
0.241925 0.278359 0.216401
0.348673 0.277204 0.212038
0.473150 0.276045 0.207716
0.601001 0.274905 0.203517
0.716307 0.273804 0.199515
0.808751 0.272765 0.195781
0.876143 0.271808 0.192382
0.119203 0.386871 0.210455
0.167811 0.385502 0.206169
0.252704 0.384162 0.202033
0.361710 0.382878 0.198121
0.486840 0.381674 0.194502
0.613326 0.380576 0.191240
0.725843 0.379608 0.188399
0.815172 0.378797 0.186039
0.879956 0.378167 0.184220
0.119203 0.505187 0.196766
0.175463 0.503950 0.193269
0.262311 0.502833 0.190154
0.372301 0.501863 0.187481
0.496795 0.501068 0.185311
0.621119 0.500475 0.183704
0.730798 0.500110 0.182722
0.817574 0.500000 0.182426
0.880797 0.500000 0.182426
0.119203 0.623917 0.186629
0.180949 0.623237 0.184657
0.268201 0.622755 0.183271
0.377429 0.622497 0.182532
0.500000 0.622459 0.182426
0.622459 0.622459 0.182426
0.731059 0.622459 0.182426
0.817574 0.622459 0.182426
0.880797 0.622459 0.182426
0.119203 0.731062 0.182437
0.182426 0.731059 0.182426
0.268941 0.731059 0.182426
0.377541 0.731059 0.182426
0.500000 0.731059 0.182426
0.622459 0.731059 0.182426
0.731059 0.731059 0.182426
0.817574 0.731059 0.182426
0.880797 0.731059 0.182426
0.119203 0.817574 0.182426
0.182426 0.817574 0.182426
0.268941 0.817574 0.182426
0.377541 0.817574 0.182426
0.500000 0.817574 0.182426
0.622459 0.817574 0.182426
0.731059 0.817574 0.182426
0.817574 0.817574 0.182426
0.880797 0.817574 0.182426
0.119203 0.880797 0.182426
0.182426 0.880797 0.182426
0.268941 0.880797 0.182426
0.377541 0.880797 0.182426
0.500000 0.880797 0.182426
0.622459 0.880797 0.182426
0.731059 0.880797 0.182426
0.817574 0.880797 0.182426
0.880797 0.880797 0.182426
0.119203 0.127833 0.344989
0.149883 0.127695 0.343728
0.226361 0.127452 0.341518
0.327406 0.127118 0.338478
0.448003 0.126704 0.334726
0.575493 0.126224 0.330384
0.693993 0.125690 0.325571
0.791601 0.125114 0.320406
0.864271 0.124509 0.315003
0.119203 0.193416 0.337188
0.153919 0.192797 0.333208
0.233159 0.192091 0.328680
0.337259 0.191315 0.323725
0.460227 0.190486 0.318460
0.588417 0.189621 0.312999
0.705723 0.188738 0.307454
0.800923 0.187853 0.301933
0.870932 0.186982 0.296539
0.119203 0.280212 0.321838
0.160655 0.279110 0.316489
0.242997 0.277969 0.310984
0.350016 0.276809 0.305436
0.474612 0.275654 0.299949
0.602369 0.274525 0.294626
0.717413 0.273443 0.289565
0.809534 0.272430 0.284860
0.876640 0.271506 0.280600
0.119203 0.386404 0.303425
0.168626 0.385042 0.297987
0.253768 0.383719 0.292748
0.362940 0.382459 0.287806
0.488066 0.381288 0.283253
0.614365 0.380231 0.279177
0.726588 0.379314 0.275664
0.815624 0.378561 0.272800
0.880182 0.377998 0.270668
0.119203 0.504755 0.286099
0.176148 0.503555 0.281709
0.263118 0.502486 0.277828
0.373117 0.501572 0.274542
0.497472 0.500843 0.271934
0.621545 0.500324 0.270090
0.730957 0.500043 0.269094
0.817574 0.500000 0.268941
0.880797 0.500000 0.268941
0.119203 0.623666 0.273510
0.181304 0.623050 0.271170
0.268487 0.622641 0.269624
0.377525 0.622464 0.268960
0.500000 0.622459 0.268941
0.622459 0.622459 0.268941
0.731059 0.622459 0.268941
0.817574 0.622459 0.268941
0.880797 0.622459 0.268941
0.119203 0.731059 0.268941
0.182426 0.731059 0.268941
0.268941 0.731059 0.268941
0.377541 0.731059 0.268941
0.500000 0.731059 0.268941
0.622459 0.731059 0.268941
0.731059 0.731059 0.268941
0.817574 0.731059 0.268941
0.880797 0.731059 0.268941
0.119203 0.817574 0.268941
0.182426 0.817574 0.268941
0.268941 0.817574 0.268941
0.377541 0.817574 0.268941
0.500000 0.817574 0.268941
0.622459 0.817574 0.268941
0.731059 0.817574 0.268941
0.817574 0.817574 0.268941
0.880797 0.817574 0.268941
0.119203 0.880797 0.268941
0.182426 0.880797 0.268941
0.268941 0.880797 0.268941
0.377541 0.880797 0.268941
0.500000 0.880797 0.268941
0.622459 0.880797 0.268941
0.731059 0.880797 0.268941
0.817574 0.880797 0.268941
0.880797 0.880797 0.268941
0.119203 0.127799 0.464427
0.150128 0.127624 0.462668
0.226852 0.127348 0.459900
0.328194 0.126986 0.456249
0.449051 0.126548 0.451839
0.576663 0.126048 0.446794
0.695103 0.125498 0.441240
0.792518 0.124911 0.435302
0.864948 0.124299 0.429104
0.119203 0.193217 0.454725
0.154499 0.192566 0.450069
0.234047 0.191834 0.444824
0.338460 0.191038 0.439116
0.461632 0.190195 0.433069
0.589829 0.189322 0.426807
0.706948 0.188436 0.420454
0.801857 0.187554 0.414132
0.871573 0.186693 0.407959
0.119203 0.279844 0.436947
0.161430 0.278726 0.430808
0.244079 0.277576 0.424499
0.351360 0.276416 0.418143
0.476064 0.275267 0.411861
0.603718 0.274152 0.405772
0.718492 0.273091 0.399993
0.810292 0.272105 0.394637
0.877115 0.271216 0.389816
0.119203 0.385939 0.415841
0.169436 0.384587 0.409616
0.254817 0.383282 0.403627
0.364142 0.382050 0.397988
0.489251 0.380915 0.392814
0.615355 0.379903 0.388215
0.727285 0.379039 0.384300
0.816034 0.378348 0.381178
0.880376 0.377855 0.378955
0.119203 0.504335 0.396045
0.176809 0.503176 0.391068
0.263884 0.502156 0.386705
0.373874 0.501303 0.383066
0.498075 0.500642 0.380258
0.621893 0.500201 0.378390
0.731043 0.500007 0.377569
0.817574 0.500000 0.377541
0.880797 0.500000 0.377541
0.119203 0.623435 0.381942
0.181614 0.622886 0.379464
0.268705 0.622553 0.377964
0.377541 0.622459 0.377541
0.500000 0.622459 0.377541
0.622459 0.622459 0.377541
0.731059 0.622459 0.377541
0.817574 0.622459 0.377541
0.880797 0.622459 0.377541
0.119203 0.731059 0.377541
0.182426 0.731059 0.377541
0.268941 0.731059 0.377541
0.377541 0.731059 0.377541
0.500000 0.731059 0.377541
0.622459 0.731059 0.377541
0.731059 0.731059 0.377541
0.817574 0.731059 0.377541
0.880797 0.731059 0.377541
0.119203 0.817574 0.377541
0.182426 0.817574 0.377541
0.268941 0.817574 0.377541
0.377541 0.817574 0.377541
0.500000 0.817574 0.377541
0.622459 0.817574 0.377541
0.731059 0.817574 0.377541
0.817574 0.817574 0.377541
0.880797 0.817574 0.377541
0.119203 0.880797 0.377541
0.182426 0.880797 0.377541
0.268941 0.880797 0.377541
0.377541 0.880797 0.377541
0.500000 0.880797 0.377541
0.622459 0.880797 0.377541
0.731059 0.880797 0.377541
0.817574 0.880797 0.377541
0.880797 0.880797 0.377541
0.119203 0.127751 0.587963
0.150414 0.127541 0.585900
0.227393 0.127234 0.582887
0.329035 0.126845 0.579039
0.450150 0.126385 0.574467
0.577871 0.125866 0.569286
0.696237 0.125302 0.563612
0.793445 0.124705 0.557562
0.865627 0.124087 0.551255
0.119203 0.193006 0.577452
0.155106 0.192326 0.572645
0.234965 0.191570 0.567271
0.339687 0.190756 0.561447
0.463057 0.189901 0.555289
0.591249 0.189022 0.548919
0.708169 0.188136 0.542456
0.802781 0.187259 0.536025
0.872203 0.186407 0.529748
0.119203 0.279469 0.559237
0.162216 0.278338 0.552988
0.245169 0.277182 0.546570
0.352704 0.276023 0.540105
0.477504 0.274883 0.533715
0.605043 0.273784 0.527526
0.719544 0.272746 0.521661
0.811022 0.271791 0.516246
0.877567 0.270939 0.511403
0.119203 0.385476 0.537763
0.170240 0.384138 0.531432
0.255850 0.382854 0.525347
0.365313 0.381652 0.519631
0.490392 0.380556 0.514410
0.616293 0.379592 0.509807
0.727930 0.378783 0.505945
0.816399 0.378157 0.502949
0.880534 0.377737 0.500939
0.119203 0.503927 0.517667
0.177445 0.502813 0.512656
0.264607 0.501847 0.508309
0.374570 0.501055 0.504748
0.498603 0.500466 0.502096
0.622161 0.500106 0.500476
0.731059 0.500000 0.500000
0.817574 0.500000 0.500000
0.880797 0.500000 0.500000
0.119203 0.623226 0.503671
0.181877 0.622748 0.501380
0.268854 0.622494 0.500166
0.377541 0.622459 0.500000
0.500000 0.622459 0.500000
0.622459 0.622459 0.500000
0.731059 0.622459 0.500000
0.817574 0.622459 0.500000
0.880797 0.622459 0.500000
0.119203 0.731059 0.500000
0.182426 0.731059 0.500000
0.268941 0.731059 0.500000
0.377541 0.731059 0.500000
0.500000 0.731059 0.500000
0.622459 0.731059 0.500000
0.731059 0.731059 0.500000
0.817574 0.731059 0.500000
0.880797 0.731059 0.500000
0.119203 0.817574 0.500000
0.182426 0.817574 0.500000
0.268941 0.817574 0.500000
0.377541 0.817574 0.500000
0.500000 0.817574 0.500000
0.622459 0.817574 0.500000
0.731059 0.817574 0.500000
0.817574 0.817574 0.500000
0.880797 0.817574 0.500000
0.119203 0.880797 0.500000
0.182426 0.880797 0.500000
0.268941 0.880797 0.500000
0.377541 0.880797 0.500000
0.500000 0.880797 0.500000
0.622459 0.880797 0.500000
0.731059 0.880797 0.500000
0.817574 0.880797 0.500000
0.880797 0.880797 0.500000
0.119203 0.127691 0.701223
0.150738 0.127447 0.699147
0.227980 0.127111 0.696276
0.329927 0.126696 0.692700
0.451295 0.126214 0.688510
0.579115 0.125679 0.683799
0.697392 0.125103 0.678663
0.794382 0.124497 0.673199
0.866309 0.123875 0.667509
0.119203 0.192785 0.691240
0.155738 0.192077 0.686850
0.235910 0.191300 0.681973
0.340938 0.190470 0.676706
0.464496 0.189605 0.671148
0.592673 0.188721 0.665402
0.709385 0.187836 0.659575
0.803694 0.186966 0.653778
0.872820 0.186127 0.648126
0.119203 0.279089 0.674711
0.163011 0.277947 0.669072
0.246263 0.276788 0.663284
0.354043 0.275633 0.657455
0.478928 0.274505 0.651697
0.606342 0.273424 0.646127
0.720565 0.272412 0.640861
0.811722 0.271489 0.636022
0.877994 0.270677 0.631731
0.119203 0.385017 0.655344
0.171035 0.383694 0.649641
0.256864 0.382436 0.644168
0.366450 0.381267 0.639044
0.491485 0.380213 0.634390
0.617177 0.379298 0.630329
0.728521 0.378549 0.626984
0.816718 0.377990 0.624477
0.880656 0.377646 0.622931
0.119203 0.503534 0.637288
0.178052 0.502467 0.632836
0.265284 0.501557 0.629022
0.375200 0.500831 0.625968
0.499051 0.500316 0.623797
0.622345 0.500040 0.622630
0.731059 0.500000 0.622459
0.817574 0.500000 0.622459
0.880797 0.500000 0.622459
0.119203 0.623040 0.625069
0.182091 0.622635 0.623250
0.268931 0.622463 0.622478
0.377541 0.622459 0.622459
0.500000 0.622459 0.622459
0.622459 0.622459 0.622459
0.731059 0.622459 0.622459
0.817574 0.622459 0.622459
0.880797 0.622459 0.622459
0.119203 0.731059 0.622459
0.182426 0.731059 0.622459
0.268941 0.731059 0.622459
0.377541 0.731059 0.622459
0.500000 0.731059 0.622459
0.622459 0.731059 0.622459
0.731059 0.731059 0.622459
0.817574 0.731059 0.622459
0.880797 0.731059 0.622459
0.119203 0.817574 0.622459
0.182426 0.817574 0.622459
0.268941 0.817574 0.622459
0.377541 0.817574 0.622459
0.500000 0.817574 0.622459
0.622459 0.817574 0.622459
0.731059 0.817574 0.622459
0.817574 0.817574 0.622459
0.880797 0.817574 0.622459
0.119203 0.880797 0.622459
0.182426 0.880797 0.622459
0.268941 0.880797 0.622459
0.377541 0.880797 0.622459
0.500000 0.880797 0.622459
0.622459 0.880797 0.622459
0.731059 0.880797 0.622459
0.817574 0.880797 0.622459
0.880797 0.880797 0.622459
0.119203 0.127619 0.794165
0.151099 0.127342 0.792327
0.228613 0.126978 0.789886
0.330868 0.126539 0.786909
0.452483 0.126038 0.783463
0.580392 0.125488 0.779616
0.698566 0.124900 0.775439
0.795325 0.124287 0.771008
0.866990 0.123662 0.766401
0.119203 0.192553 0.785705
0.156393 0.191820 0.782105
0.236879 0.191023 0.778129
0.342211 0.190179 0.773851
0.465949 0.189306 0.769346
0.594098 0.188420 0.764696
0.710593 0.187538 0.759986
0.804593 0.186677 0.755307
0.873424 0.185852 0.750754
0.119203 0.278704 0.772233
0.163814 0.277554 0.767666
0.247361 0.276394 0.762984
0.355375 0.275246 0.758274
0.480332 0.274131 0.753630
0.607613 0.273071 0.749147
0.721552 0.272087 0.744927
0.812392 0.271200 0.741074
0.878395 0.270430 0.737694
0.119203 0.384562 0.756571
0.171821 0.383258 0.751974
0.257855 0.382028 0.747575
0.367550 0.380895 0.743476
0.492527 0.379885 0.739783
0.618002 0.379024 0.736603
0.729057 0.378337 0.734043
0.816990 0.377847 0.732212
0.880741 0.377582 0.731215
0.119203 0.503156 0.742079
0.178629 0.502139 0.738560
0.265913 0.501288 0.735593
0.375762 0.500631 0.733286
0.499416 0.500195 0.731747
0.622443 0.500006 0.731079
0.731059 0.500000 0.731059
0.817574 0.500000 0.731059
0.880797 0.500000 0.731059
0.119203 0.622878 0.732632
0.182254 0.622549 0.731397
0.268941 0.622459 0.731059
0.377541 0.622459 0.731059
0.500000 0.622459 0.731059
0.622459 0.622459 0.731059
0.731059 0.622459 0.731059
0.817574 0.622459 0.731059
0.880797 0.622459 0.731059
0.119203 0.731059 0.731059
0.182426 0.731059 0.731059
0.268941 0.731059 0.731059
0.377541 0.731059 0.731059
0.500000 0.731059 0.731059
0.622459 0.731059 0.731059
0.731059 0.731059 0.731059
0.817574 0.731059 0.731059
0.880797 0.731059 0.731059
0.119203 0.817574 0.731059
0.182426 0.817574 0.731059
0.268941 0.817574 0.731059
0.377541 0.817574 0.731059
0.500000 0.817574 0.731059
0.622459 0.817574 0.731059
0.731059 0.817574 0.731059
0.817574 0.817574 0.731059
0.880797 0.817574 0.731059
0.119203 0.880797 0.731059
0.182426 0.880797 0.731059
0.268941 0.880797 0.731059
0.377541 0.880797 0.731059
0.500000 0.880797 0.731059
0.622459 0.880797 0.731059
0.731059 0.880797 0.731059
0.817574 0.880797 0.731059
0.880797 0.880797 0.731059
0.119203 0.127536 0.863756
0.151496 0.127228 0.862281
0.229288 0.126837 0.860386
0.331853 0.126375 0.858115
0.453713 0.125856 0.855514
0.581697 0.125291 0.852631
0.699755 0.124694 0.849515
0.796273 0.124076 0.846220
0.867669 0.123449 0.842804
0.119203 0.192312 0.857204
0.157069 0.191556 0.854495
0.237872 0.190741 0.851521
0.343503 0.189885 0.848333
0.467411 0.189005 0.844987
0.595521 0.188119 0.841542
0.711789 0.187242 0.838061
0.805477 0.186392 0.834612
0.874012 0.185583 0.831268
0.119203 0.278316 0.847130
0.164624 0.277160 0.843741
0.248458 0.276001 0.840275
0.356698 0.274862 0.836797
0.481715 0.273764 0.833378
0.608851 0.272728 0.830091
0.722505 0.271774 0.827015
0.813029 0.270924 0.824231
0.878770 0.270199 0.821823
0.119203 0.384113 0.835542
0.172594 0.382831 0.832162
0.258822 0.381631 0.828943
0.368609 0.380537 0.825963
0.493515 0.379575 0.823307
0.618767 0.378770 0.821057
0.729535 0.378147 0.819299
0.817212 0.377731 0.818117
0.880788 0.377547 0.817594
0.119203 0.502793 0.824954
0.179173 0.501830 0.822436
0.266490 0.501042 0.820355
0.376253 0.500457 0.818798
0.499696 0.500101 0.817846
0.622459 0.500000 0.817574
0.731059 0.500000 0.817574
0.817574 0.500000 0.817574
0.880797 0.500000 0.817574
0.119203 0.622741 0.818377
0.182364 0.622492 0.817666
0.268941 0.622459 0.817574
0.377541 0.622459 0.817574
0.500000 0.622459 0.817574
0.622459 0.622459 0.817574
0.731059 0.622459 0.817574
0.817574 0.622459 0.817574
0.880797 0.622459 0.817574
0.119203 0.731059 0.817574
0.182426 0.731059 0.817574
0.268941 0.731059 0.817574
0.377541 0.731059 0.817574
0.500000 0.731059 0.817574
0.622459 0.731059 0.817574
0.731059 0.731059 0.817574
0.817574 0.731059 0.817574
0.880797 0.731059 0.817574
0.119203 0.817574 0.817574
0.182426 0.817574 0.817574
0.268941 0.817574 0.817574
0.377541 0.817574 0.817574
0.500000 0.817574 0.817574
0.622459 0.817574 0.817574
0.731059 0.817574 0.817574
0.817574 0.817574 0.817574
0.880797 0.817574 0.817574
0.119203 0.880797 0.817574
0.182426 0.880797 0.817574
0.268941 0.880797 0.817574
0.377541 0.880797 0.817574
0.500000 0.880797 0.817574
0.622459 0.880797 0.817574
0.731059 0.880797 0.817574
0.817574 0.880797 0.817574
0.880797 0.880797 0.817574
0.119203 0.127441 0.880797
0.151928 0.127104 0.880797
0.230005 0.126687 0.880797
0.332882 0.126205 0.880797
0.454980 0.125669 0.880797
0.583028 0.125092 0.880797
0.700957 0.124486 0.880797
0.797224 0.123863 0.880797
0.868346 0.123236 0.880797
0.119203 0.192063 0.880797
0.157766 0.191284 0.880797
0.238884 0.190454 0.880797
0.344810 0.189588 0.880797
0.468879 0.188704 0.880797
0.596939 0.187819 0.880797
0.712972 0.186950 0.880797
0.806345 0.186112 0.880797
0.874584 0.185321 0.880797
0.119203 0.277925 0.880797
0.165437 0.276766 0.880797
0.249554 0.275611 0.880797
0.358007 0.274484 0.880797
0.483072 0.273404 0.880797
0.610054 0.272393 0.880797
0.723420 0.271473 0.880797
0.813631 0.270663 0.880797
0.879117 0.269985 0.880797
0.119203 0.383670 0.880797
0.173354 0.382413 0.880797
0.259761 0.381246 0.880797
0.369625 0.380194 0.880797
0.494446 0.379283 0.880797
0.619468 0.378537 0.880797
0.729952 0.377981 0.880797
0.817383 0.377641 0.880797
0.880797 0.377541 0.880797
0.119203 0.502448 0.880797
0.179683 0.501541 0.880797
0.267013 0.500819 0.880797
0.376670 0.500309 0.880797
0.499887 0.500038 0.880797
0.622459 0.500000 0.880797
0.731059 0.500000 0.880797
0.817574 0.500000 0.880797
0.880797 0.500000 0.880797
0.119203 0.622630 0.880797
0.182419 0.622463 0.880797
0.268941 0.622459 0.880797
0.377541 0.622459 0.880797
0.500000 0.622459 0.880797
0.622459 0.622459 0.880797
0.731059 0.622459 0.880797
0.817574 0.622459 0.880797
0.880797 0.622459 0.880797
0.119203 0.731059 0.880797
0.182426 0.731059 0.880797
0.268941 0.731059 0.880797
0.377541 0.731059 0.880797
0.500000 0.731059 0.880797
0.622459 0.731059 0.880797
0.731059 0.731059 0.880797
0.817574 0.731059 0.880797
0.880797 0.731059 0.880797
0.119203 0.817574 0.880797
0.182426 0.817574 0.880797
0.268941 0.817574 0.880797
0.377541 0.817574 0.880797
0.500000 0.817574 0.880797
0.622459 0.817574 0.880797
0.731059 0.817574 0.880797
0.817574 0.817574 0.880797
0.880797 0.817574 0.880797
0.119203 0.880797 0.880797
0.182426 0.880797 0.880797
0.268941 0.880797 0.880797
0.377541 0.880797 0.880797
0.500000 0.880797 0.880797
0.622459 0.880797 0.880797
0.731059 0.880797 0.880797
0.817574 0.880797 0.880797
0.880797 0.880797 0.880797
