assets/luts/teal-cool.cube
# Teal cool: saturated cold tones, modern tech.
# Generated procedurally by videokit gen-luts.py
TITLE "teal-cool"
LUT_3D_SIZE 5
DOMAIN_MIN 0.0 0.0 0.0
DOMAIN_MAX 1.0 1.0 1.0
0.119203 0.127862 0.162465
0.225533 0.127628 0.161185
0.446068 0.126993 0.157739
0.691858 0.126058 0.152746
0.862932 0.124922 0.146817
0.119203 0.280927 0.150664
0.240864 0.278747 0.144541
0.471682 0.276437 0.138249
0.715179 0.274172 0.132273
0.875625 0.272123 0.127032
0.119203 0.505630 0.130260
0.261466 0.503197 0.125378
0.496049 0.501317 0.121714
0.730571 0.500207 0.119594
0.880797 0.500000 0.119203
0.119203 0.731087 0.119271
0.268941 0.731059 0.119203
0.500000 0.731059 0.119203
0.731059 0.731059 0.119203
0.880797 0.731059 0.119203
0.119203 0.880797 0.119203
0.268941 0.880797 0.119203
0.500000 0.880797 0.119203
0.731059 0.880797 0.119203
0.880797 0.880797 0.119203
0.119203 0.127833 0.344989
0.226361 0.127452 0.341518
0.448003 0.126704 0.334726
0.693993 0.125690 0.325571
0.864271 0.124509 0.315003
0.119203 0.280212 0.321838
0.242997 0.277969 0.310984
0.474612 0.275654 0.299949
0.717413 0.273443 0.289565
0.876640 0.271506 0.280600
0.119203 0.504755 0.286099
0.263118 0.502486 0.277828
0.497472 0.500843 0.271934
0.730957 0.500043 0.269094
0.880797 0.500000 0.268941
0.119203 0.731059 0.268941
0.268941 0.731059 0.268941
0.500000 0.731059 0.268941
0.731059 0.731059 0.268941
0.880797 0.731059 0.268941
0.119203 0.880797 0.268941
0.268941 0.880797 0.268941
0.500000 0.880797 0.268941
0.731059 0.880797 0.268941
0.880797 0.880797 0.268941
0.119203 0.127751 0.587963
0.227393 0.127234 0.582887
0.450150 0.126385 0.574467
0.696237 0.125302 0.563612
0.865627 0.124087 0.551255
0.119203 0.279469 0.559237
0.245169 0.277182 0.546570
0.477504 0.274883 0.533715
0.719544 0.272746 0.521661
0.877567 0.270939 0.511403
0.119203 0.503927 0.517667
0.264607 0.501847 0.508309
0.498603 0.500466 0.502096
0.731059 0.500000 0.500000
0.880797 0.500000 0.500000
0.119203 0.731059 0.500000
0.268941 0.731059 0.500000
0.500000 0.731059 0.500000
0.731059 0.731059 0.500000
0.880797 0.731059 0.500000
0.119203 0.880797 0.500000
0.268941 0.880797 0.500000
0.500000 0.880797 0.500000
0.731059 0.880797 0.500000
0.880797 0.880797 0.500000
0.119203 0.127619 0.794165
0.228613 0.126978 0.789886
0.452483 0.126038 0.783463
0.698566 0.124900 0.775439
0.866990 0.123662 0.766401
0.119203 0.278704 0.772233
0.247361 0.276394 0.762984
0.480332 0.274131 0.753630
0.721552 0.272087 0.744927
0.878395 0.270430 0.737694
0.119203 0.503156 0.742079
0.265913 0.501288 0.735593
0.499416 0.500195 0.731747
0.731059 0.500000 0.731059
0.880797 0.500000 0.731059
0.119203 0.731059 0.731059
0.268941 0.731059 0.731059
0.500000 0.731059 0.731059
0.731059 0.731059 0.731059
0.880797 0.731059 0.731059
0.119203 0.880797 0.731059
0.268941 0.880797 0.731059
0.500000 0.880797 0.731059
0.731059 0.880797 0.731059
0.880797 0.880797 0.731059
0.119203 0.127441 0.880797
0.230005 0.126687 0.880797
0.454980 0.125669 0.880797
0.700957 0.124486 0.880797
0.868346 0.123236 0.880797
0.119203 0.277925 0.880797
0.249554 0.275611 0.880797
0.483072 0.273404 0.880797
0.723420 0.271473 0.880797
0.879117 0.269985 0.880797
0.119203 0.502448 0.880797
0.267013 0.500819 0.880797
0.499887 0.500038 0.880797
0.731059 0.500000 0.880797
0.880797 0.500000 0.880797
0.119203 0.731059 0.880797
0.268941 0.731059 0.880797
0.500000 0.731059 0.880797
0.731059 0.731059 0.880797
0.880797 0.731059 0.880797
0.119203 0.880797 0.880797
0.268941 0.880797 0.880797
0.500000 0.880797 0.880797
0.731059 0.880797 0.880797
0.880797 0.880797 0.880797
