assets/luts/vibrant.cube
# Vibrant: high saturation, energetic content.
# Generated procedurally by videokit gen-luts.py
TITLE "vibrant"
LUT_3D_SIZE 9
DOMAIN_MIN 0.0 0.0 0.0
DOMAIN_MAX 1.0 1.0 1.0
0.141851 0.141851 0.141851
0.228818 0.141851 0.141851
0.347511 0.141851 0.141851
0.488752 0.141851 0.141851
0.631812 0.141851 0.141851
0.754915 0.141851 0.141851
0.846836 0.141851 0.141851
0.858149 0.141851 0.141851
0.858149 0.141851 0.141851
0.141851 0.228818 0.141851
0.217125 0.217125 0.141851
0.332367 0.205870 0.141851
0.471905 0.195054 0.141851
0.615975 0.184673 0.141851
0.742213 0.174725 0.141851
0.837875 0.165205 0.141851
0.858149 0.156105 0.141851
0.858149 0.147418 0.141851
0.141851 0.347511 0.141851
0.205870 0.332367 0.141851
0.317562 0.317562 0.141851
0.455121 0.303117 0.141851
0.599888 0.289050 0.141851
0.729088 0.275379 0.141851
0.828495 0.262116 0.141851
0.858149 0.249272 0.141851
0.858149 0.236855 0.141851
0.141851 0.488752 0.141851
0.195054 0.471905 0.141851
0.303117 0.455121 0.141851
0.438439 0.438439 0.141851
0.583583 0.421895 0.141851
0.715551 0.405524 0.141851
0.818690 0.389361 0.141851
0.858149 0.373437 0.141851
0.858149 0.357783 0.141851
0.141851 0.631812 0.141851
0.184673 0.615975 0.141851
0.289050 0.599888 0.141851
0.421895 0.583583 0.141851
0.567093 0.567093 0.141851
0.701615 0.550453 0.141851
0.808455 0.533699 0.141851
0.858149 0.516869 0.141851
0.858149 0.500000 0.141851
0.141851 0.754915 0.141851
0.174725 0.742213 0.141851
0.275379 0.729088 0.141851
0.405524 0.715551 0.141851
0.550453 0.701615 0.141851
0.687294 0.687294 0.141851
0.797784 0.672607 0.141851
0.858149 0.657574 0.141851
0.858149 0.642217 0.141851
0.141851 0.846836 0.141851
0.165205 0.837875 0.141851
0.262116 0.828495 0.141851
0.389361 0.818690 0.141851
0.533699 0.808455 0.141851
0.672607 0.797784 0.141851
0.786675 0.786675 0.141851
0.858149 0.775129 0.141851
0.858149 0.763145 0.141851
0.141851 0.858149 0.141851
0.156105 0.858149 0.141851
0.249272 0.858149 0.141851
0.373437 0.858149 0.141851
0.516869 0.858149 0.141851
0.657574 0.858149 0.141851
0.775129 0.858149 0.141851
0.858149 0.858149 0.141851
0.858149 0.852582 0.141851
0.141851 0.858149 0.141851
0.147418 0.858149 0.141851
0.236855 0.858149 0.141851
0.357783 0.858149 0.141851
0.500000 0.858149 0.141851
0.642217 0.858149 0.141851
0.763145 0.858149 0.141851
0.852582 0.858149 0.141851
0.858149 0.858149 0.141851
0.141851 0.141851 0.228818
0.217125 0.141851 0.217125
0.332367 0.141851 0.205870
0.471905 0.141851 0.195054
0.615975 0.141851 0.184673
0.742213 0.141851 0.174725
0.837875 0.141851 0.165205
0.858149 0.141851 0.156105
0.858149 0.141851 0.147418
0.141851 0.217125 0.217125
0.205870 0.205870 0.205870
0.317562 0.195054 0.195054
0.455121 0.184673 0.184673
0.599888 0.174725 0.174725
0.729088 0.165205 0.165205
0.828495 0.156105 0.156105
0.858149 0.147418 0.147418
0.858149 0.141851 0.141851
0.141851 0.332367 0.205870
0.195054 0.317562 0.195054
0.303117 0.303117 0.184673
0.438439 0.289050 0.174725
0.583583 0.275379 0.165205
0.715551 0.262116 0.156105
0.818690 0.249272 0.147418
0.858149 0.236855 0.141851
0.858149 0.224871 0.141851
0.141851 0.471905 0.195054
0.184673 0.455121 0.184673
0.289050 0.438439 0.174725
0.421895 0.421895 0.165205
0.567093 0.405524 0.156105
0.701615 0.389361 0.147418
0.808455 0.373437 0.141851
0.858149 0.357783 0.141851
0.858149 0.342426 0.141851
0.141851 0.615975 0.184673
0.174725 0.599888 0.174725
0.275379 0.583583 0.165205
0.405524 0.567093 0.156105
0.550453 0.550453 0.147418
0.687294 0.533699 0.141851
0.797784 0.516869 0.141851
0.858149 0.500000 0.141851
0.858149 0.483131 0.141851
0.141851 0.742213 0.174725
0.165205 0.729088 0.165205
0.262116 0.715551 0.156105
0.389361 0.701615 0.147418
0.533699 0.687294 0.141851
0.672607 0.672607 0.141851
0.786675 0.657574 0.141851
0.858149 0.642217 0.141851
0.858149 0.626563 0.141851
0.141851 0.837875 0.165205
0.156105 0.828495 0.156105
0.249272 0.818690 0.147418
0.373437 0.808455 0.141851
0.516869 0.797784 0.141851
0.657574 0.786675 0.141851
0.775129 0.775129 0.141851
0.858149 0.763145 0.141851
0.858149 0.750728 0.141851
0.141851 0.858149 0.156105
0.147418 0.858149 0.147418
0.236855 0.858149 0.141851
0.357783 0.858149 0.141851
0.500000 0.858149 0.141851
0.642217 0.858149 0.141851
0.763145 0.858149 0.141851
0.852582 0.852582 0.141851
0.858149 0.843895 0.141851
0.141851 0.858149 0.147418
0.141851 0.858149 0.141851
0.224871 0.858149 0.141851
0.342426 0.858149 0.141851
0.483131 0.858149 0.141851
0.626563 0.858149 0.141851
0.750728 0.858149 0.141851
0.843895 0.858149 0.141851
0.858149 0.858149 0.141851
0.141851 0.141851 0.347511
0.205870 0.141851 0.332367
0.317562 0.141851 0.317562
0.455121 0.141851 0.303117
0.599888 0.141851 0.289050
0.729088 0.141851 0.275379
0.828495 0.141851 0.262116
0.858149 0.141851 0.249272
0.858149 0.141851 0.236855
0.141851 0.205870 0.332367
0.195054 0.195054 0.317562
0.303117 0.184673 0.303117
0.438439 0.174725 0.289050
0.583583 0.165205 0.275379
0.715551 0.156105 0.262116
0.818690 0.147418 0.249272
0.858149 0.141851 0.236855
0.858149 0.141851 0.224871
0.141851 0.317562 0.317562
0.184673 0.303117 0.303117
0.289050 0.289050 0.289050
0.421895 0.275379 0.275379
0.567093 0.262116 0.262116
0.701615 0.249272 0.249272
0.808455 0.236855 0.236855
0.858149 0.224871 0.224871
0.858149 0.213325 0.213325
0.141851 0.455121 0.303117
0.174725 0.438439 0.289050
0.275379 0.421895 0.275379
0.405524 0.405524 0.262116
0.550453 0.389361 0.249272
0.687294 0.373437 0.236855
0.797784 0.357783 0.224871
0.858149 0.342426 0.213325
0.858149 0.327393 0.202216
0.141851 0.599888 0.289050
0.165205 0.583583 0.275379
0.262116 0.567093 0.262116
0.389361 0.550453 0.249272
0.533699 0.533699 0.236855
0.672607 0.516869 0.224871
0.786675 0.500000 0.213325
0.858149 0.483131 0.202216
0.858149 0.466301 0.191545
0.141851 0.729088 0.275379
0.156105 0.715551 0.262116
0.249272 0.701615 0.249272
0.373437 0.687294 0.236855
0.516869 0.672607 0.224871
0.657574 0.657574 0.213325
0.775129 0.642217 0.202216
0.858149 0.626563 0.191545
0.858149 0.610639 0.181310
0.141851 0.828495 0.262116
0.147418 0.818690 0.249272
0.236855 0.808455 0.236855
0.357783 0.797784 0.224871
0.500000 0.786675 0.213325
0.642217 0.775129 0.202216
0.763145 0.763145 0.191545
0.852582 0.750728 0.181310
0.858149 0.737884 0.171505
0.141851 0.858149 0.249272
0.141851 0.858149 0.236855
0.224871 0.858149 0.224871
0.342426 0.858149 0.213325
0.483131 0.858149 0.202216
0.626563 0.858149 0.191545
0.750728 0.852582 0.181310
0.843895 0.843895 0.171505
0.858149 0.834795 0.162125
0.141851 0.858149 0.236855
0.141851 0.858149 0.224871
0.213325 0.858149 0.213325
0.327393 0.858149 0.202216
0.466301 0.858149 0.191545
0.610639 0.858149 0.181310
0.737884 0.858149 0.171505
0.834795 0.858149 0.162125
0.858149 0.858149 0.153164
0.141851 0.141851 0.488752
0.195054 0.141851 0.471905
0.303117 0.141851 0.455121
0.438439 0.141851 0.438439
0.583583 0.141851 0.421895
0.715551 0.141851 0.405524
0.818690 0.141851 0.389361
0.858149 0.141851 0.373437
0.858149 0.141851 0.357783
0.141851 0.195054 0.471905
0.184673 0.184673 0.455121
0.289050 0.174725 0.438439
0.421895 0.165205 0.421895
0.567093 0.156105 0.405524
0.701615 0.147418 0.389361
0.808455 0.141851 0.373437
0.858149 0.141851 0.357783
0.858149 0.141851 0.342426
0.141851 0.303117 0.455121
0.174725 0.289050 0.438439
0.275379 0.275379 0.421895
0.405524 0.262116 0.405524
0.550453 0.249272 0.389361
0.687294 0.236855 0.373437
0.797784 0.224871 0.357783
0.858149 0.213325 0.342426
0.858149 0.202216 0.327393
0.141851 0.438439 0.438439
0.165205 0.421895 0.421895
0.262116 0.405524 0.405524
0.389361 0.389361 0.389361
0.533699 0.373437 0.373437
0.672607 0.357783 0.357783
0.786675 0.342426 0.342426
0.858149 0.327393 0.327393
0.858149 0.312706 0.312706
0.141851 0.583583 0.421895
0.156105 0.567093 0.405524
0.249272 0.550453 0.389361
0.373437 0.533699 0.373437
0.516869 0.516869 0.357783
0.657574 0.500000 0.342426
0.775129 0.483131 0.327393
0.858149 0.466301 0.312706
0.858149 0.449547 0.298385
0.141851 0.715551 0.405524
0.147418 0.701615 0.389361
0.236855 0.687294 0.373437
0.357783 0.672607 0.357783
0.500000 0.657574 0.342426
0.642217 0.642217 0.327393
0.763145 0.626563 0.312706
0.852582 0.610639 0.298385
0.858149 0.594476 0.284449
0.141851 0.818690 0.389361
0.141851 0.808455 0.373437
0.224871 0.797784 0.357783
0.342426 0.786675 0.342426
0.483131 0.775129 0.327393
0.626563 0.763145 0.312706
0.750728 0.750728 0.298385
0.843895 0.737884 0.284449
0.858149 0.724621 0.270912
0.141851 0.858149 0.373437
0.141851 0.858149 0.357783
0.213325 0.858149 0.342426
0.327393 0.858149 0.327393
0.466301 0.858149 0.312706
0.610639 0.852582 0.298385
0.737884 0.843895 0.284449
0.834795 0.834795 0.270912
0.858149 0.825275 0.257787
0.141851 0.858149 0.357783
0.141851 0.858149 0.342426
0.202216 0.858149 0.327393
0.312706 0.858149 0.312706
0.449547 0.858149 0.298385
0.594476 0.858149 0.284449
0.724621 0.858149 0.270912
0.825275 0.858149 0.257787
0.858149 0.858149 0.245085
0.141851 0.141851 0.631812
0.184673 0.141851 0.615975
0.289050 0.141851 0.599888
0.421895 0.141851 0.583583
0.567093 0.141851 0.567093
0.701615 0.141851 0.550453
0.808455 0.141851 0.533699
0.858149 0.141851 0.516869
0.858149 0.141851 0.500000
0.141851 0.184673 0.615975
0.174725 0.174725 0.599888
0.275379 0.165205 0.583583
0.405524 0.156105 0.567093
0.550453 0.147418 0.550453
0.687294 0.141851 0.533699
0.797784 0.141851 0.516869
0.858149 0.141851 0.500000
0.858149 0.141851 0.483131
0.141851 0.289050 0.599888
0.165205 0.275379 0.583583
0.262116 0.262116 0.567093
0.389361 0.249272 0.550453
0.533699 0.236855 0.533699
0.672607 0.224871 0.516869
0.786675 0.213325 0.500000
0.858149 0.202216 0.483131
0.858149 0.191545 0.466301
0.141851 0.421895 0.583583
0.156105 0.405524 0.567093
0.249272 0.389361 0.550453
0.373437 0.373437 0.533699
0.516869 0.357783 0.516869
0.657574 0.342426 0.500000
0.775129 0.327393 0.483131
0.858149 0.312706 0.466301
0.858149 0.298385 0.449547
0.141851 0.567093 0.567093
0.147418 0.550453 0.550453
0.236855 0.533699 0.533699
0.357783 0.516869 0.516869
0.500000 0.500000 0.500000
0.642217 0.483131 0.483131
0.763145 0.466301 0.466301
0.852582 0.449547 0.449547
0.858149 0.432907 0.432907
0.141851 0.701615 0.550453
0.141851 0.687294 0.533699
0.224871 0.672607 0.516869
0.342426 0.657574 0.500000
0.483131 0.642217 0.483131
0.626563 0.626563 0.466301
0.750728 0.610639 0.449547
0.843895 0.594476 0.432907
0.858149 0.578105 0.416417
0.141851 0.808455 0.533699
0.141851 0.797784 0.516869
0.213325 0.786675 0.500000
0.327393 0.775129 0.483131
0.466301 0.763145 0.466301
0.610639 0.750728 0.449547
0.737884 0.737884 0.432907
0.834795 0.724621 0.416417
0.858149 0.710950 0.400112
0.141851 0.858149 0.516869
0.141851 0.858149 0.500000
0.202216 0.858149 0.483131
0.312706 0.858149 0.466301
0.449547 0.852582 0.449547
0.594476 0.843895 0.432907
0.724621 0.834795 0.416417
0.825275 0.825275 0.400112
0.858149 0.815327 0.384025
0.141851 0.858149 0.500000
0.141851 0.858149 0.483131
0.191545 0.858149 0.466301
0.298385 0.858149 0.449547
0.432907 0.858149 0.432907
0.578105 0.858149 0.416417
0.710950 0.858149 0.400112
0.815327 0.858149 0.384025
0.858149 0.858149 0.368188
0.141851 0.141851 0.754915
0.174725 0.141851 0.742213
0.275379 0.141851 0.729088
0.405524 0.141851 0.715551
0.550453 0.141851 0.701615
0.687294 0.141851 0.687294
0.797784 0.141851 0.672607
0.858149 0.141851 0.657574
0.858149 0.141851 0.642217
0.141851 0.174725 0.742213
0.165205 0.165205 0.729088
0.262116 0.156105 0.715551
0.389361 0.147418 0.701615
0.533699 0.141851 0.687294
0.672607 0.141851 0.672607
0.786675 0.141851 0.657574
0.858149 0.141851 0.642217
0.858149 0.141851 0.626563
0.141851 0.275379 0.729088
0.156105 0.262116 0.715551
0.249272 0.249272 0.701615
0.373437 0.236855 0.687294
0.516869 0.224871 0.672607
0.657574 0.213325 0.657574
0.775129 0.202216 0.642217
0.858149 0.191545 0.626563
0.858149 0.181310 0.610639
0.141851 0.405524 0.715551
0.147418 0.389361 0.701615
0.236855 0.373437 0.687294
0.357783 0.357783 0.672607
0.500000 0.342426 0.657574
0.642217 0.327393 0.642217
0.763145 0.312706 0.626563
0.852582 0.298385 0.610639
0.858149 0.284449 0.594476
0.141851 0.550453 0.701615
0.141851 0.533699 0.687294
0.224871 0.516869 0.672607
0.342426 0.500000 0.657574
0.483131 0.483131 0.642217
0.626563 0.466301 0.626563
0.750728 0.449547 0.610639
0.843895 0.432907 0.594476
0.858149 0.416417 0.578105
0.141851 0.687294 0.687294
0.141851 0.672607 0.672607
0.213325 0.657574 0.657574
0.327393 0.642217 0.642217
0.466301 0.626563 0.626563
0.610639 0.610639 0.610639
0.737884 0.594476 0.594476
0.834795 0.578105 0.578105
0.858149 0.561561 0.561561
0.141851 0.797784 0.672607
0.141851 0.786675 0.657574
0.202216 0.775129 0.642217
0.312706 0.763145 0.626563
0.449547 0.750728 0.610639
0.594476 0.737884 0.594476
0.724621 0.724621 0.578105
0.825275 0.710950 0.561561
0.858149 0.696883 0.544879
0.141851 0.858149 0.657574
0.141851 0.858149 0.642217
0.191545 0.858149 0.626563
0.298385 0.852582 0.610639
0.432907 0.843895 0.594476
0.578105 0.834795 0.578105
0.710950 0.825275 0.561561
0.815327 0.815327 0.544879
0.858149 0.804946 0.528095
0.141851 0.858149 0.642217
0.141851 0.858149 0.626563
0.181310 0.858149 0.610639
0.284449 0.858149 0.594476
0.416417 0.858149 0.578105
0.561561 0.858149 0.561561
0.696883 0.858149 0.544879
0.804946 0.858149 0.528095
0.858149 0.858149 0.511248
0.141851 0.141851 0.846836
0.165205 0.141851 0.837875
0.262116 0.141851 0.828495
0.389361 0.141851 0.818690
0.533699 0.141851 0.808455
0.672607 0.141851 0.797784
0.786675 0.141851 0.786675
0.858149 0.141851 0.775129
0.858149 0.141851 0.763145
0.141851 0.165205 0.837875
0.156105 0.156105 0.828495
0.249272 0.147418 0.818690
0.373437 0.141851 0.808455
0.516869 0.141851 0.797784
0.657574 0.141851 0.786675
0.775129 0.141851 0.775129
0.858149 0.141851 0.763145
0.858149 0.141851 0.750728
0.141851 0.262116 0.828495
0.147418 0.249272 0.818690
0.236855 0.236855 0.808455
0.357783 0.224871 0.797784
0.500000 0.213325 0.786675
0.642217 0.202216 0.775129
0.763145 0.191545 0.763145
0.852582 0.181310 0.750728
0.858149 0.171505 0.737884
0.141851 0.389361 0.818690
0.141851 0.373437 0.808455
0.224871 0.357783 0.797784
0.342426 0.342426 0.786675
0.483131 0.327393 0.775129
0.626563 0.312706 0.763145
0.750728 0.298385 0.750728
0.843895 0.284449 0.737884
0.858149 0.270912 0.724621
0.141851 0.533699 0.808455
0.141851 0.516869 0.797784
0.213325 0.500000 0.786675
0.327393 0.483131 0.775129
0.466301 0.466301 0.763145
0.610639 0.449547 0.750728
0.737884 0.432907 0.737884
0.834795 0.416417 0.724621
0.858149 0.400112 0.710950
0.141851 0.672607 0.797784
0.141851 0.657574 0.786675
0.202216 0.642217 0.775129
0.312706 0.626563 0.763145
0.449547 0.610639 0.750728
0.594476 0.594476 0.737884
0.724621 0.578105 0.724621
0.825275 0.561561 0.710950
0.858149 0.544879 0.696883
0.141851 0.786675 0.786675
0.141851 0.775129 0.775129
0.191545 0.763145 0.763145
0.298385 0.750728 0.750728
0.432907 0.737884 0.737884
0.578105 0.724621 0.724621
0.710950 0.710950 0.710950
0.815327 0.696883 0.696883
0.858149 0.682438 0.682438
0.141851 0.858149 0.775129
0.141851 0.858149 0.763145
0.181310 0.852582 0.750728
0.284449 0.843895 0.737884
0.416417 0.834795 0.724621
0.561561 0.825275 0.710950
0.696883 0.815327 0.696883
0.804946 0.804946 0.682438
0.858149 0.794130 0.667633
0.141851 0.858149 0.763145
0.141851 0.858149 0.750728
0.171505 0.858149 0.737884
0.270912 0.858149 0.724621
0.400112 0.858149 0.710950
0.544879 0.858149 0.696883
0.682438 0.858149 0.682438
0.794130 0.858149 0.667633
0.858149 0.858149 0.652489
0.141851 0.141851 0.858149
0.156105 0.141851 0.858149
0.249272 0.141851 0.858149
0.373437 0.141851 0.858149
0.516869 0.141851 0.858149
0.657574 0.141851 0.858149
0.775129 0.141851 0.858149
0.858149 0.141851 0.858149
0.858149 0.141851 0.852582
0.141851 0.156105 0.858149
0.147418 0.147418 0.858149
0.236855 0.141851 0.858149
0.357783 0.141851 0.858149
0.500000 0.141851 0.858149
0.642217 0.141851 0.858149
0.763145 0.141851 0.858149
0.852582 0.141851 0.852582
0.858149 0.141851 0.843895
0.141851 0.249272 0.858149
0.141851 0.236855 0.858149
0.224871 0.224871 0.858149
0.342426 0.213325 0.858149
0.483131 0.202216 0.858149
0.626563 0.191545 0.858149
0.750728 0.181310 0.852582
0.843895 0.171505 0.843895
0.858149 0.162125 0.834795
0.141851 0.373437 0.858149
0.141851 0.357783 0.858149
0.213325 0.342426 0.858149
0.327393 0.327393 0.858149
0.466301 0.312706 0.858149
0.610639 0.298385 0.852582
0.737884 0.284449 0.843895
0.834795 0.270912 0.834795
0.858149 0.257787 0.825275
0.141851 0.516869 0.858149
0.141851 0.500000 0.858149
0.202216 0.483131 0.858149
0.312706 0.466301 0.858149
0.449547 0.449547 0.852582
0.594476 0.432907 0.843895
0.724621 0.416417 0.834795
0.825275 0.400112 0.825275
0.858149 0.384025 0.815327
0.141851 0.657574 0.858149
0.141851 0.642217 0.858149
0.191545 0.626563 0.858149
0.298385 0.610639 0.852582
0.432907 0.594476 0.843895
0.578105 0.578105 0.834795
0.710950 0.561561 0.825275
0.815327 0.544879 0.815327
0.858149 0.528095 0.804946
0.141851 0.775129 0.858149
0.141851 0.763145 0.858149
0.181310 0.750728 0.852582
0.284449 0.737884 0.843895
0.416417 0.724621 0.834795
0.561561 0.710950 0.825275
0.696883 0.696883 0.815327
0.804946 0.682438 0.804946
0.858149 0.667633 0.794130
0.141851 0.858149 0.858149
0.141851 0.852582 0.852582
0.171505 0.843895 0.843895
0.270912 0.834795 0.834795
0.400112 0.825275 0.825275
0.544879 0.815327 0.815327
0.682438 0.804946 0.804946
0.794130 0.794130 0.794130
0.858149 0.782875 0.782875
0.141851 0.858149 0.852582
0.141851 0.858149 0.843895
0.162125 0.858149 0.834795
0.257787 0.858149 0.825275
0.384025 0.858149 0.815327
0.528095 0.858149 0.804946
0.667633 0.858149 0.794130
0.782875 0.858149 0.782875
0.858149 0.858149 0.771182
0.141851 0.141851 0.858149
0.147418 0.141851 0.858149
0.236855 0.141851 0.858149
0.357783 0.141851 0.858149
0.500000 0.141851 0.858149
0.642217 0.141851 0.858149
0.763145 0.141851 0.858149
0.852582 0.141851 0.858149
0.858149 0.141851 0.858149
0.141851 0.147418 0.858149
0.141851 0.141851 0.858149
0.224871 0.141851 0.858149
0.342426 0.141851 0.858149
0.483131 0.141851 0.858149
0.626563 0.141851 0.858149
0.750728 0.141851 0.858149
0.843895 0.141851 0.858149
0.858149 0.141851 0.858149
0.141851 0.236855 0.858149
0.141851 0.224871 0.858149
0.213325 0.213325 0.858149
0.327393 0.202216 0.858149
0.466301 0.191545 0.858149
0.610639 0.181310 0.858149
0.737884 0.171505 0.858149
0.834795 0.162125 0.858149
0.858149 0.153164 0.858149
0.141851 0.357783 0.858149
0.141851 0.342426 0.858149
0.202216 0.327393 0.858149
0.312706 0.312706 0.858149
0.449547 0.298385 0.858149
0.594476 0.284449 0.858149
0.724621 0.270912 0.858149
0.825275 0.257787 0.858149
0.858149 0.245085 0.858149
0.141851 0.500000 0.858149
0.141851 0.483131 0.858149
0.191545 0.466301 0.858149
0.298385 0.449547 0.858149
0.432907 0.432907 0.858149
0.578105 0.416417 0.858149
0.710950 0.400112 0.858149
0.815327 0.384025 0.858149
0.858149 0.368188 0.858149
0.141851 0.642217 0.858149
0.141851 0.626563 0.858149
0.181310 0.610639 0.858149
0.284449 0.594476 0.858149
0.416417 0.578105 0.858149
0.561561 0.561561 0.858149
0.696883 0.544879 0.858149
0.804946 0.528095 0.858149
0.858149 0.511248 0.858149
0.141851 0.763145 0.858149
0.141851 0.750728 0.858149
0.171505 0.737884 0.858149
0.270912 0.724621 0.858149
0.400112 0.710950 0.858149
0.544879 0.696883 0.858149
0.682438 0.682438 0.858149
0.794130 0.667633 0.858149
0.858149 0.652489 0.858149
0.141851 0.852582 0.858149
0.141851 0.843895 0.858149
0.162125 0.834795 0.858149
0.257787 0.825275 0.858149
0.384025 0.815327 0.858149
0.528095 0.804946 0.858149
0.667633 0.794130 0.858149
0.782875 0.782875 0.858149
0.858149 0.771182 0.858149
0.141851 0.858149 0.858149
0.141851 0.858149 0.858149
0.153164 0.858149 0.858149
0.245085 0.858149 0.858149
0.368188 0.858149 0.858149
0.511248 0.858149 0.858149
0.652489 0.858149 0.858149
0.771182 0.858149 0.858149
0.858149 0.858149 0.858149
