assets/luts/vibrant.cube
# Vibrant: high saturation, energetic content.
# Generated procedurally by videokit gen-luts.py
TITLE "vibrant"
LUT_3D_SIZE 17
DOMAIN_MIN 0.0 0.0 0.0
DOMAIN_MAX 1.0 1.0 1.0
0.141851 0.141851 0.141851
0.181310 0.141851 0.141851
0.228818 0.141851 0.141851
0.284449 0.141851 0.141851
0.347511 0.141851 0.141851
0.416417 0.141851 0.141851
0.488752 0.141851 0.141851
0.561561 0.141851 0.141851
0.631812 0.141851 0.141851
0.696883 0.141851 0.141851
0.754915 0.141851 0.141851
0.804946 0.141851 0.141851
0.846836 0.141851 0.141851
0.858149 0.141851 0.141851
0.858149 0.141851 0.141851
0.858149 0.141851 0.141851
0.858149 0.141851 0.141851
0.141851 0.181310 0.141851
0.176354 0.176354 0.141851
0.222917 0.171505 0.141851
0.277630 0.166762 0.141851
0.339898 0.162125 0.141851
0.408239 0.157593 0.141851
0.480323 0.153164 0.141851
0.553235 0.148837 0.141851
0.623927 0.144612 0.141851
0.689707 0.141851 0.141851
0.748617 0.141851 0.141851
0.799593 0.141851 0.141851
0.842407 0.141851 0.141851
0.858149 0.141851 0.141851
0.858149 0.141851 0.141851
0.858149 0.141851 0.141851
0.858149 0.141851 0.141851
0.141851 0.228818 0.141851
0.171505 0.222917 0.141851
0.217125 0.217125 0.141851
0.270912 0.211443 0.141851
0.332367 0.205870 0.141851
0.400112 0.200407 0.141851
0.471905 0.195054 0.141851
0.544879 0.189809 0.141851
0.615975 0.184673 0.141851
0.682438 0.179646 0.141851
0.742213 0.174725 0.141851
0.794130 0.169912 0.141851
0.837875 0.165205 0.141851
0.858149 0.160603 0.141851
0.858149 0.156105 0.141851
0.858149 0.151710 0.141851
0.858149 0.147418 0.141851
0.141851 0.284449 0.141851
0.166762 0.277630 0.141851
0.211443 0.270912 0.141851
0.264298 0.264298 0.141851
0.324920 0.257787 0.141851
0.392039 0.251383 0.141851
0.463503 0.245085 0.141851
0.536497 0.238894 0.141851
0.607961 0.232812 0.141851
0.675080 0.226838 0.141851
0.735702 0.220974 0.141851
0.788557 0.215219 0.141851
0.833238 0.209573 0.141851
0.858149 0.204037 0.141851
0.858149 0.198611 0.141851
0.858149 0.193294 0.141851
0.858149 0.188085 0.141851
0.141851 0.347511 0.141851
0.162125 0.339898 0.141851
0.205870 0.332367 0.141851
0.257787 0.324920 0.141851
0.317562 0.317562 0.141851
0.384025 0.310293 0.141851
0.455121 0.303117 0.141851
0.528095 0.296035 0.141851
0.599888 0.289050 0.141851
0.667633 0.282165 0.141851
0.729088 0.275379 0.141851
0.782875 0.268696 0.141851
0.828495 0.262116 0.141851
0.858149 0.255641 0.141851
0.858149 0.249272 0.141851
0.858149 0.243010 0.141851
0.858149 0.236855 0.141851
0.141851 0.416417 0.141851
0.157593 0.408239 0.141851
0.200407 0.400112 0.141851
0.251383 0.392039 0.141851
0.310293 0.384025 0.141851
0.376073 0.376073 0.141851
0.446765 0.368188 0.141851
0.519677 0.360372 0.141851
0.591761 0.352630 0.141851
0.660102 0.344964 0.141851
0.722370 0.337378 0.141851
0.777083 0.329875 0.141851
0.823646 0.322458 0.141851
0.858149 0.315129 0.141851
0.858149 0.307890 0.141851
0.858149 0.300746 0.141851
0.858149 0.293696 0.141851
0.141851 0.488752 0.141851
0.153164 0.480323 0.141851
0.195054 0.471905 0.141851
0.245085 0.463503 0.141851
0.303117 0.455121 0.141851
0.368188 0.446765 0.141851
0.438439 0.438439 0.141851
0.511248 0.430147 0.141851
0.583583 0.421895 0.141851
0.652489 0.413686 0.141851
0.715551 0.405524 0.141851
0.771182 0.397414 0.141851
0.818690 0.389361 0.141851
0.858149 0.381367 0.141851
0.858149 0.373437 0.141851
0.858149 0.365574 0.141851
0.858149 0.357783 0.141851
0.141851 0.561561 0.141851
0.148837 0.553235 0.141851
0.189809 0.544879 0.141851
0.238894 0.536497 0.141851
0.296035 0.528095 0.141851
0.360372 0.519677 0.141851
0.430147 0.511248 0.141851
0.502812 0.502812 0.141851
0.575359 0.494375 0.141851
0.644798 0.485941 0.141851
0.708632 0.477515 0.141851
0.765172 0.469102 0.141851
0.813627 0.460706 0.141851
0.853991 0.452333 0.141851
0.858149 0.443986 0.141851
0.858149 0.435671 0.141851
0.858149 0.427392 0.141851
0.141851 0.631812 0.141851
0.144612 0.623927 0.141851
0.184673 0.615975 0.141851
0.232812 0.607961 0.141851
0.289050 0.599888 0.141851
0.352630 0.591761 0.141851
0.421895 0.583583 0.141851
0.494375 0.575359 0.141851
0.567093 0.567093 0.141851
0.637031 0.558789 0.141851
0.701615 0.550453 0.141851
0.759054 0.542088 0.141851
0.808455 0.533699 0.141851
0.849732 0.525291 0.141851
0.858149 0.516869 0.141851
0.858149 0.508437 0.141851
0.858149 0.500000 0.141851
0.141851 0.696883 0.141851
0.141851 0.689707 0.141851
0.179646 0.682438 0.141851
0.226838 0.675080 0.141851
0.282165 0.667633 0.141851
0.344964 0.660102 0.141851
0.413686 0.652489 0.141851
0.485941 0.644798 0.141851
0.558789 0.637031 0.141851
0.629192 0.629192 0.141851
0.694502 0.621284 0.141851
0.752828 0.613311 0.141851
0.803174 0.605277 0.141851
0.845371 0.597185 0.141851
0.858149 0.589040 0.141851
0.858149 0.580847 0.141851
0.858149 0.572608 0.141851
0.141851 0.754915 0.141851
0.141851 0.748617 0.141851
0.174725 0.742213 0.141851
0.220974 0.735702 0.141851
0.275379 0.729088 0.141851
0.337378 0.722370 0.141851
0.405524 0.715551 0.141851
0.477515 0.708632 0.141851
0.550453 0.701615 0.141851
0.621284 0.694502 0.141851
0.687294 0.687294 0.141851
0.746494 0.679995 0.141851
0.797784 0.672607 0.141851
0.840908 0.665132 0.141851
0.858149 0.657574 0.141851
0.858149 0.649934 0.141851
0.858149 0.642217 0.141851
0.141851 0.804946 0.141851
0.141851 0.799593 0.141851
0.169912 0.794130 0.141851
0.215219 0.788557 0.141851
0.268696 0.782875 0.141851
0.329875 0.777083 0.141851
0.397414 0.771182 0.141851
0.469102 0.765172 0.141851
0.542088 0.759054 0.141851
0.613311 0.752828 0.141851
0.679995 0.746494 0.141851
0.740054 0.740054 0.141851
0.792284 0.733509 0.141851
0.836341 0.726860 0.141851
0.858149 0.720109 0.141851
0.858149 0.713256 0.141851
0.858149 0.706304 0.141851
0.141851 0.846836 0.141851
0.141851 0.842407 0.141851
0.165205 0.837875 0.141851
0.209573 0.833238 0.141851
0.262116 0.828495 0.141851
0.322458 0.823646 0.141851
0.389361 0.818690 0.141851
0.460706 0.813627 0.141851
0.533699 0.808455 0.141851
0.605277 0.803174 0.141851
0.672607 0.797784 0.141851
0.733509 0.792284 0.141851
0.786675 0.786675 0.141851
0.831669 0.780957 0.141851
0.858149 0.775129 0.141851
0.858149 0.769191 0.141851
0.858149 0.763145 0.141851
0.141851 0.858149 0.141851
0.141851 0.858149 0.141851
0.160603 0.858149 0.141851
0.204037 0.858149 0.141851
0.255641 0.858149 0.141851
0.315129 0.858149 0.141851
0.381367 0.858149 0.141851
0.452333 0.853991 0.141851
0.525291 0.849732 0.141851
0.597185 0.845371 0.141851
0.665132 0.840908 0.141851
0.726860 0.836341 0.141851
0.780957 0.831669 0.141851
0.826891 0.826891 0.141851
0.858149 0.822006 0.141851
0.858149 0.817015 0.141851
0.858149 0.811915 0.141851
0.141851 0.858149 0.141851
0.141851 0.858149 0.141851
0.156105 0.858149 0.141851
0.198611 0.858149 0.141851
0.249272 0.858149 0.141851
0.307890 0.858149 0.141851
0.373437 0.858149 0.141851
0.443986 0.858149 0.141851
0.516869 0.858149 0.141851
0.589040 0.858149 0.141851
0.657574 0.858149 0.141851
0.720109 0.858149 0.141851
0.775129 0.858149 0.141851
0.822006 0.858149 0.141851
0.858149 0.858149 0.141851
0.858149 0.856774 0.141851
0.858149 0.852582 0.141851
0.141851 0.858149 0.141851
0.141851 0.858149 0.141851
0.151710 0.858149 0.141851
0.193294 0.858149 0.141851
0.243010 0.858149 0.141851
0.300746 0.858149 0.141851
0.365574 0.858149 0.141851
0.435671 0.858149 0.141851
0.508437 0.858149 0.141851
0.580847 0.858149 0.141851
0.649934 0.858149 0.141851
0.713256 0.858149 0.141851
0.769191 0.858149 0.141851
0.817015 0.858149 0.141851
0.856774 0.858149 0.141851
0.858149 0.858149 0.141851
0.858149 0.858149 0.141851
0.141851 0.858149 0.141851
0.141851 0.858149 0.141851
0.147418 0.858149 0.141851
0.188085 0.858149 0.141851
0.236855 0.858149 0.141851
0.293696 0.858149 0.141851
0.357783 0.858149 0.141851
0.427392 0.858149 0.141851
0.500000 0.858149 0.141851
0.572608 0.858149 0.141851
0.642217 0.858149 0.141851
0.706304 0.858149 0.141851
0.763145 0.858149 0.141851
0.811915 0.858149 0.141851
0.852582 0.858149 0.141851
0.858149 0.858149 0.141851
0.858149 0.858149 0.141851
0.141851 0.141851 0.181310
0.176354 0.141851 0.176354
0.222917 0.141851 0.171505
0.277630 0.141851 0.166762
0.339898 0.141851 0.162125
0.408239 0.141851 0.157593
0.480323 0.141851 0.153164
0.553235 0.141851 0.148837
0.623927 0.141851 0.144612
0.689707 0.141851 0.141851
0.748617 0.141851 0.141851
0.799593 0.141851 0.141851
0.842407 0.141851 0.141851
0.858149 0.141851 0.141851
0.858149 0.141851 0.141851
0.858149 0.141851 0.141851
0.858149 0.141851 0.141851
0.141851 0.176354 0.176354
0.171505 0.171505 0.171505
0.217125 0.166762 0.166762
0.270912 0.162125 0.162125
0.332367 0.157593 0.157593
0.400112 0.153164 0.153164
0.471905 0.148837 0.148837
0.544879 0.144612 0.144612
0.615975 0.141851 0.141851
0.682438 0.141851 0.141851
0.742213 0.141851 0.141851
0.794130 0.141851 0.141851
0.837875 0.141851 0.141851
0.858149 0.141851 0.141851
0.858149 0.141851 0.141851
0.858149 0.141851 0.141851
0.858149 0.141851 0.141851
0.141851 0.222917 0.171505
0.166762 0.217125 0.166762
0.211443 0.211443 0.162125
0.264298 0.205870 0.157593
0.324920 0.200407 0.153164
0.392039 0.195054 0.148837
0.463503 0.189809 0.144612
0.536497 0.184673 0.141851
0.607961 0.179646 0.141851
0.675080 0.174725 0.141851
0.735702 0.169912 0.141851
0.788557 0.165205 0.141851
0.833238 0.160603 0.141851
0.858149 0.156105 0.141851
0.858149 0.151710 0.141851
0.858149 0.147418 0.141851
0.858149 0.143226 0.141851
0.141851 0.277630 0.166762
0.162125 0.270912 0.162125
0.205870 0.264298 0.157593
0.257787 0.257787 0.153164
0.317562 0.251383 0.148837
0.384025 0.245085 0.144612
0.455121 0.238894 0.141851
0.528095 0.232812 0.141851
0.599888 0.226838 0.141851
0.667633 0.220974 0.141851
0.729088 0.215219 0.141851
0.782875 0.209573 0.141851
0.828495 0.204037 0.141851
0.858149 0.198611 0.141851
0.858149 0.193294 0.141851
0.858149 0.188085 0.141851
0.858149 0.182985 0.141851
0.141851 0.339898 0.162125
0.157593 0.332367 0.157593
0.200407 0.324920 0.153164
0.251383 0.317562 0.148837
0.310293 0.310293 0.144612
0.376073 0.303117 0.141851
0.446765 0.296035 0.141851
0.519677 0.289050 0.141851
0.591761 0.282165 0.141851
0.660102 0.275379 0.141851
0.722370 0.268696 0.141851
0.777083 0.262116 0.141851
0.823646 0.255641 0.141851
0.858149 0.249272 0.141851
0.858149 0.243010 0.141851
0.858149 0.236855 0.141851
0.858149 0.230809 0.141851
0.141851 0.408239 0.157593
0.153164 0.400112 0.153164
0.195054 0.392039 0.148837
0.245085 0.384025 0.144612
0.303117 0.376073 0.141851
0.368188 0.368188 0.141851
0.438439 0.360372 0.141851
0.511248 0.352630 0.141851
0.583583 0.344964 0.141851
0.652489 0.337378 0.141851
0.715551 0.329875 0.141851
0.771182 0.322458 0.141851
0.818690 0.315129 0.141851
0.858149 0.307890 0.141851
0.858149 0.300746 0.141851
0.858149 0.293696 0.141851
0.858149 0.286744 0.141851
0.141851 0.480323 0.153164
0.148837 0.471905 0.148837
0.189809 0.463503 0.144612
0.238894 0.455121 0.141851
0.296035 0.446765 0.141851
0.360372 0.438439 0.141851
0.430147 0.430147 0.141851
0.502812 0.421895 0.141851
0.575359 0.413686 0.141851
0.644798 0.405524 0.141851
0.708632 0.397414 0.141851
0.765172 0.389361 0.141851
0.813627 0.381367 0.141851
0.853991 0.373437 0.141851
0.858149 0.365574 0.141851
0.858149 0.357783 0.141851
0.858149 0.350066 0.141851
0.141851 0.553235 0.148837
0.144612 0.544879 0.144612
0.184673 0.536497 0.141851
0.232812 0.528095 0.141851
0.289050 0.519677 0.141851
0.352630 0.511248 0.141851
0.421895 0.502812 0.141851
0.494375 0.494375 0.141851
0.567093 0.485941 0.141851
0.637031 0.477515 0.141851
0.701615 0.469102 0.141851
0.759054 0.460706 0.141851
0.808455 0.452333 0.141851
0.849732 0.443986 0.141851
0.858149 0.435671 0.141851
0.858149 0.427392 0.141851
0.858149 0.419153 0.141851
0.141851 0.623927 0.144612
0.141851 0.615975 0.141851
0.179646 0.607961 0.141851
0.226838 0.599888 0.141851
0.282165 0.591761 0.141851
0.344964 0.583583 0.141851
0.413686 0.575359 0.141851
0.485941 0.567093 0.141851
0.558789 0.558789 0.141851
0.629192 0.550453 0.141851
0.694502 0.542088 0.141851
0.752828 0.533699 0.141851
0.803174 0.525291 0.141851
0.845371 0.516869 0.141851
0.858149 0.508437 0.141851
0.858149 0.500000 0.141851
0.858149 0.491563 0.141851
0.141851 0.689707 0.141851
0.141851 0.682438 0.141851
0.174725 0.675080 0.141851
0.220974 0.667633 0.141851
0.275379 0.660102 0.141851
0.337378 0.652489 0.141851
0.405524 0.644798 0.141851
0.477515 0.637031 0.141851
0.550453 0.629192 0.141851
0.621284 0.621284 0.141851
0.687294 0.613311 0.141851
0.746494 0.605277 0.141851
0.797784 0.597185 0.141851
0.840908 0.589040 0.141851
0.858149 0.580847 0.141851
0.858149 0.572608 0.141851
0.858149 0.564329 0.141851
0.141851 0.748617 0.141851
0.141851 0.742213 0.141851
0.169912 0.735702 0.141851
0.215219 0.729088 0.141851
0.268696 0.722370 0.141851
0.329875 0.715551 0.141851
0.397414 0.708632 0.141851
0.469102 0.701615 0.141851
0.542088 0.694502 0.141851
0.613311 0.687294 0.141851
0.679995 0.679995 0.141851
0.740054 0.672607 0.141851
0.792284 0.665132 0.141851
0.836341 0.657574 0.141851
0.858149 0.649934 0.141851
0.858149 0.642217 0.141851
0.858149 0.634426 0.141851
0.141851 0.799593 0.141851
0.141851 0.794130 0.141851
0.165205 0.788557 0.141851
0.209573 0.782875 0.141851
0.262116 0.777083 0.141851
0.322458 0.771182 0.141851
0.389361 0.765172 0.141851
0.460706 0.759054 0.141851
0.533699 0.752828 0.141851
0.605277 0.746494 0.141851
0.672607 0.740054 0.141851
0.733509 0.733509 0.141851
0.786675 0.726860 0.141851
0.831669 0.720109 0.141851
0.858149 0.713256 0.141851
0.858149 0.706304 0.141851
0.858149 0.699254 0.141851
0.141851 0.842407 0.141851
0.141851 0.837875 0.141851
0.160603 0.833238 0.141851
0.204037 0.828495 0.141851
0.255641 0.823646 0.141851
0.315129 0.818690 0.141851
0.381367 0.813627 0.141851
0.452333 0.808455 0.141851
0.525291 0.803174 0.141851
0.597185 0.797784 0.141851
0.665132 0.792284 0.141851
0.726860 0.786675 0.141851
0.780957 0.780957 0.141851
0.826891 0.775129 0.141851
0.858149 0.769191 0.141851
0.858149 0.763145 0.141851
0.858149 0.756990 0.141851
0.141851 0.858149 0.141851
0.141851 0.858149 0.141851
0.156105 0.858149 0.141851
0.198611 0.858149 0.141851
0.249272 0.858149 0.141851
0.307890 0.858149 0.141851
0.373437 0.853991 0.141851
0.443986 0.849732 0.141851
0.516869 0.845371 0.141851
0.589040 0.840908 0.141851
0.657574 0.836341 0.141851
0.720109 0.831669 0.141851
0.775129 0.826891 0.141851
0.822006 0.822006 0.141851
0.858149 0.817015 0.141851
0.858149 0.811915 0.141851
0.858149 0.806706 0.141851
0.141851 0.858149 0.141851
0.141851 0.858149 0.141851
0.151710 0.858149 0.141851
0.193294 0.858149 0.141851
0.243010 0.858149 0.141851
0.300746 0.858149 0.141851
0.365574 0.858149 0.141851
0.435671 0.858149 0.141851
0.508437 0.858149 0.141851
0.580847 0.858149 0.141851
0.649934 0.858149 0.141851
0.713256 0.858149 0.141851
0.769191 0.858149 0.141851
0.817015 0.858149 0.141851
0.856774 0.856774 0.141851
0.858149 0.852582 0.141851
0.858149 0.848290 0.141851
0.141851 0.858149 0.141851
0.141851 0.858149 0.141851
0.147418 0.858149 0.141851
0.188085 0.858149 0.141851
0.236855 0.858149 0.141851
0.293696 0.858149 0.141851
0.357783 0.858149 0.141851
0.427392 0.858149 0.141851
0.500000 0.858149 0.141851
0.572608 0.858149 0.141851
0.642217 0.858149 0.141851
0.706304 0.858149 0.141851
0.763145 0.858149 0.141851
0.811915 0.858149 0.141851
0.852582 0.858149 0.141851
0.858149 0.858149 0.141851
0.858149 0.858149 0.141851
0.141851 0.858149 0.141851
0.141851 0.858149 0.141851
0.143226 0.858149 0.141851
0.182985 0.858149 0.141851
0.230809 0.858149 0.141851
0.286744 0.858149 0.141851
0.350066 0.858149 0.141851
0.419153 0.858149 0.141851
0.491563 0.858149 0.141851
0.564329 0.858149 0.141851
0.634426 0.858149 0.141851
0.699254 0.858149 0.141851
0.756990 0.858149 0.141851
0.806706 0.858149 0.141851
0.848290 0.858149 0.141851
0.858149 0.858149 0.141851
0.858149 0.858149 0.141851
0.141851 0.141851 0.228818
0.171505 0.141851 0.222917
0.217125 0.141851 0.217125
0.270912 0.141851 0.211443
0.332367 0.141851 0.205870
0.400112 0.141851 0.200407
0.471905 0.141851 0.195054
0.544879 0.141851 0.189809
0.615975 0.141851 0.184673
0.682438 0.141851 0.179646
0.742213 0.141851 0.174725
0.794130 0.141851 0.169912
0.837875 0.141851 0.165205
0.858149 0.141851 0.160603
0.858149 0.141851 0.156105
0.858149 0.141851 0.151710
0.858149 0.141851 0.147418
0.141851 0.171505 0.222917
0.166762 0.166762 0.217125
0.211443 0.162125 0.211443
0.264298 0.157593 0.205870
0.324920 0.153164 0.200407
0.392039 0.148837 0.195054
0.463503 0.144612 0.189809
0.536497 0.141851 0.184673
0.607961 0.141851 0.179646
0.675080 0.141851 0.174725
0.735702 0.141851 0.169912
0.788557 0.141851 0.165205
0.833238 0.141851 0.160603
0.858149 0.141851 0.156105
0.858149 0.141851 0.151710
0.858149 0.141851 0.147418
0.858149 0.141851 0.143226
0.141851 0.217125 0.217125
0.162125 0.211443 0.211443
0.205870 0.205870 0.205870
0.257787 0.200407 0.200407
0.317562 0.195054 0.195054
0.384025 0.189809 0.189809
0.455121 0.184673 0.184673
0.528095 0.179646 0.179646
0.599888 0.174725 0.174725
0.667633 0.169912 0.169912
0.729088 0.165205 0.165205
0.782875 0.160603 0.160603
0.828495 0.156105 0.156105
0.858149 0.151710 0.151710
0.858149 0.147418 0.147418
0.858149 0.143226 0.143226
0.858149 0.141851 0.141851
0.141851 0.270912 0.211443
0.157593 0.264298 0.205870
0.200407 0.257787 0.200407
0.251383 0.251383 0.195054
0.310293 0.245085 0.189809
0.376073 0.238894 0.184673
0.446765 0.232812 0.179646
0.519677 0.226838 0.174725
0.591761 0.220974 0.169912
0.660102 0.215219 0.165205
0.722370 0.209573 0.160603
0.777083 0.204037 0.156105
0.823646 0.198611 0.151710
0.858149 0.193294 0.147418
0.858149 0.188085 0.143226
0.858149 0.182985 0.141851
0.858149 0.177994 0.141851
0.141851 0.332367 0.205870
0.153164 0.324920 0.200407
0.195054 0.317562 0.195054
0.245085 0.310293 0.189809
0.303117 0.303117 0.184673
0.368188 0.296035 0.179646
0.438439 0.289050 0.174725
0.511248 0.282165 0.169912
0.583583 0.275379 0.165205
0.652489 0.268696 0.160603
0.715551 0.262116 0.156105
0.771182 0.255641 0.151710
0.818690 0.249272 0.147418
0.858149 0.243010 0.143226
0.858149 0.236855 0.141851
0.858149 0.230809 0.141851
0.858149 0.224871 0.141851
0.141851 0.400112 0.200407
0.148837 0.392039 0.195054
0.189809 0.384025 0.189809
0.238894 0.376073 0.184673
0.296035 0.368188 0.179646
0.360372 0.360372 0.174725
0.430147 0.352630 0.169912
0.502812 0.344964 0.165205
0.575359 0.337378 0.160603
0.644798 0.329875 0.156105
0.708632 0.322458 0.151710
0.765172 0.315129 0.147418
0.813627 0.307890 0.143226
0.853991 0.300746 0.141851
0.858149 0.293696 0.141851
0.858149 0.286744 0.141851
0.858149 0.279891 0.141851
0.141851 0.471905 0.195054
0.144612 0.463503 0.189809
0.184673 0.455121 0.184673
0.232812 0.446765 0.179646
0.289050 0.438439 0.174725
0.352630 0.430147 0.169912
0.421895 0.421895 0.165205
0.494375 0.413686 0.160603
0.567093 0.405524 0.156105
0.637031 0.397414 0.151710
0.701615 0.389361 0.147418
0.759054 0.381367 0.143226
0.808455 0.373437 0.141851
0.849732 0.365574 0.141851
0.858149 0.357783 0.141851
0.858149 0.350066 0.141851
0.858149 0.342426 0.141851
0.141851 0.544879 0.189809
0.141851 0.536497 0.184673
0.179646 0.528095 0.179646
0.226838 0.519677 0.174725
0.282165 0.511248 0.169912
0.344964 0.502812 0.165205
0.413686 0.494375 0.160603
0.485941 0.485941 0.156105
0.558789 0.477515 0.151710
0.629192 0.469102 0.147418
0.694502 0.460706 0.143226
0.752828 0.452333 0.141851
0.803174 0.443986 0.141851
0.845371 0.435671 0.141851
0.858149 0.427392 0.141851
0.858149 0.419153 0.141851
0.858149 0.410960 0.141851
0.141851 0.615975 0.184673
0.141851 0.607961 0.179646
0.174725 0.599888 0.174725
0.220974 0.591761 0.169912
0.275379 0.583583 0.165205
0.337378 0.575359 0.160603
0.405524 0.567093 0.156105
0.477515 0.558789 0.151710
0.550453 0.550453 0.147418
0.621284 0.542088 0.143226
0.687294 0.533699 0.141851
0.746494 0.525291 0.141851
0.797784 0.516869 0.141851
0.840908 0.508437 0.141851
0.858149 0.500000 0.141851
0.858149 0.491563 0.141851
0.858149 0.483131 0.141851
0.141851 0.682438 0.179646
0.141851 0.675080 0.174725
0.169912 0.667633 0.169912
0.215219 0.660102 0.165205
0.268696 0.652489 0.160603
0.329875 0.644798 0.156105
0.397414 0.637031 0.151710
0.469102 0.629192 0.147418
0.542088 0.621284 0.143226
0.613311 0.613311 0.141851
0.679995 0.605277 0.141851
0.740054 0.597185 0.141851
0.792284 0.589040 0.141851
0.836341 0.580847 0.141851
0.858149 0.572608 0.141851
0.858149 0.564329 0.141851
0.858149 0.556014 0.141851
0.141851 0.742213 0.174725
0.141851 0.735702 0.169912
0.165205 0.729088 0.165205
0.209573 0.722370 0.160603
0.262116 0.715551 0.156105
0.322458 0.708632 0.151710
0.389361 0.701615 0.147418
0.460706 0.694502 0.143226
0.533699 0.687294 0.141851
0.605277 0.679995 0.141851
0.672607 0.672607 0.141851
0.733509 0.665132 0.141851
0.786675 0.657574 0.141851
0.831669 0.649934 0.141851
0.858149 0.642217 0.141851
0.858149 0.634426 0.141851
0.858149 0.626563 0.141851
0.141851 0.794130 0.169912
0.141851 0.788557 0.165205
0.160603 0.782875 0.160603
0.204037 0.777083 0.156105
0.255641 0.771182 0.151710
0.315129 0.765172 0.147418
0.381367 0.759054 0.143226
0.452333 0.752828 0.141851
0.525291 0.746494 0.141851
0.597185 0.740054 0.141851
0.665132 0.733509 0.141851
0.726860 0.726860 0.141851
0.780957 0.720109 0.141851
0.826891 0.713256 0.141851
0.858149 0.706304 0.141851
0.858149 0.699254 0.141851
0.858149 0.692110 0.141851
0.141851 0.837875 0.165205
0.141851 0.833238 0.160603
0.156105 0.828495 0.156105
0.198611 0.823646 0.151710
0.249272 0.818690 0.147418
0.307890 0.813627 0.143226
0.373437 0.808455 0.141851
0.443986 0.803174 0.141851
0.516869 0.797784 0.141851
0.589040 0.792284 0.141851
0.657574 0.786675 0.141851
0.720109 0.780957 0.141851
0.775129 0.775129 0.141851
0.822006 0.769191 0.141851
0.858149 0.763145 0.141851
0.858149 0.756990 0.141851
0.858149 0.750728 0.141851
0.141851 0.858149 0.160603
0.141851 0.858149 0.156105
0.151710 0.858149 0.151710
0.193294 0.858149 0.147418
0.243010 0.858149 0.143226
0.300746 0.853991 0.141851
0.365574 0.849732 0.141851
0.435671 0.845371 0.141851
0.508437 0.840908 0.141851
0.580847 0.836341 0.141851
0.649934 0.831669 0.141851
0.713256 0.826891 0.141851
0.769191 0.822006 0.141851
0.817015 0.817015 0.141851
0.856774 0.811915 0.141851
0.858149 0.806706 0.141851
0.858149 0.801389 0.141851
0.141851 0.858149 0.156105
0.141851 0.858149 0.151710
0.147418 0.858149 0.147418
0.188085 0.858149 0.143226
0.236855 0.858149 0.141851
0.293696 0.858149 0.141851
0.357783 0.858149 0.141851
0.427392 0.858149 0.141851
0.500000 0.858149 0.141851
0.572608 0.858149 0.141851
0.642217 0.858149 0.141851
0.706304 0.858149 0.141851
0.763145 0.858149 0.141851
0.811915 0.856774 0.141851
0.852582 0.852582 0.141851
0.858149 0.848290 0.141851
0.858149 0.843895 0.141851
0.141851 0.858149 0.151710
0.141851 0.858149 0.147418
0.143226 0.858149 0.143226
0.182985 0.858149 0.141851
0.230809 0.858149 0.141851
0.286744 0.858149 0.141851
0.350066 0.858149 0.141851
0.419153 0.858149 0.141851
0.491563 0.858149 0.141851
0.564329 0.858149 0.141851
0.634426 0.858149 0.141851
0.699254 0.858149 0.141851
0.756990 0.858149 0.141851
0.806706 0.858149 0.141851
0.848290 0.858149 0.141851
0.858149 0.858149 0.141851
0.858149 0.858149 0.141851
0.141851 0.858149 0.147418
0.141851 0.858149 0.143226
0.141851 0.858149 0.141851
0.177994 0.858149 0.141851
0.224871 0.858149 0.141851
0.279891 0.858149 0.141851
0.342426 0.858149 0.141851
0.410960 0.858149 0.141851
0.483131 0.858149 0.141851
0.556014 0.858149 0.141851
0.626563 0.858149 0.141851
0.692110 0.858149 0.141851
0.750728 0.858149 0.141851
0.801389 0.858149 0.141851
0.843895 0.858149 0.141851
0.858149 0.858149 0.141851
0.858149 0.858149 0.141851
0.141851 0.141851 0.284449
0.166762 0.141851 0.277630
0.211443 0.141851 0.270912
0.264298 0.141851 0.264298
0.324920 0.141851 0.257787
0.392039 0.141851 0.251383
0.463503 0.141851 0.245085
0.536497 0.141851 0.238894
0.607961 0.141851 0.232812
0.675080 0.141851 0.226838
0.735702 0.141851 0.220974
0.788557 0.141851 0.215219
0.833238 0.141851 0.209573
0.858149 0.141851 0.204037
0.858149 0.141851 0.198611
