assets/luts/vibrant.cube
# Vibrant: high saturation, energetic content.
# Generated procedurally by videokit gen-luts.py
TITLE "vibrant"
LUT_3D_SIZE 5
DOMAIN_MIN 0.0 0.0 0.0
DOMAIN_MAX 1.0 1.0 1.0
0.141851 0.141851 0.141851
0.347511 0.141851 0.141851
0.631812 0.141851 0.141851
0.846836 0.141851 0.141851
0.858149 0.141851 0.141851
0.141851 0.347511 0.141851
0.317562 0.317562 0.141851
0.599888 0.289050 0.141851
0.828495 0.262116 0.141851
0.858149 0.236855 0.141851
0.141851 0.631812 0.141851
0.289050 0.599888 0.141851
0.567093 0.567093 0.141851
0.808455 0.533699 0.141851
0.858149 0.500000 0.141851
0.141851 0.846836 0.141851
0.262116 0.828495 0.141851
0.533699 0.808455 0.141851
0.786675 0.786675 0.141851
0.858149 0.763145 0.141851
0.141851 0.858149 0.141851
0.236855 0.858149 0.141851
0.500000 0.858149 0.141851
0.763145 0.858149 0.141851
0.858149 0.858149 0.141851
0.141851 0.141851 0.347511
0.317562 0.141851 0.317562
0.599888 0.141851 0.289050
0.828495 0.141851 0.262116
0.858149 0.141851 0.236855
0.141851 0.317562 0.317562
0.289050 0.289050 0.289050
0.567093 0.262116 0.262116
0.808455 0.236855 0.236855
0.858149 0.213325 0.213325
0.141851 0.599888 0.289050
0.262116 0.567093 0.262116
0.533699 0.533699 0.236855
0.786675 0.500000 0.213325
0.858149 0.466301 0.191545
0.141851 0.828495 0.262116
0.236855 0.808455 0.236855
0.500000 0.786675 0.213325
0.763145 0.763145 0.191545
0.858149 0.737884 0.171505
0.141851 0.858149 0.236855
0.213325 0.858149 0.213325
0.466301 0.858149 0.191545
0.737884 0.858149 0.171505
0.858149 0.858149 0.153164
0.141851 0.141851 0.631812
0.289050 0.141851 0.599888
0.567093 0.141851 0.567093
0.808455 0.141851 0.533699
0.858149 0.141851 0.500000
0.141851 0.289050 0.599888
0.262116 0.262116 0.567093
0.533699 0.236855 0.533699
0.786675 0.213325 0.500000
0.858149 0.191545 0.466301
0.141851 0.567093 0.567093
0.236855 0.533699 0.533699
0.500000 0.500000 0.500000
0.763145 0.466301 0.466301
0.858149 0.432907 0.432907
0.141851 0.808455 0.533699
0.213325 0.786675 0.500000
0.466301 0.763145 0.466301
0.737884 0.737884 0.432907
0.858149 0.710950 0.400112
0.141851 0.858149 0.500000
0.191545 0.858149 0.466301
0.432907 0.858149 0.432907
0.710950 0.858149 0.400112
0.858149 0.858149 0.368188
0.141851 0.141851 0.846836
0.262116 0.141851 0.828495
0.533699 0.141851 0.808455
0.786675 0.141851 0.786675
0.858149 0.141851 0.763145
0.141851 0.262116 0.828495
0.236855 0.236855 0.808455
0.500000 0.213325 0.786675
0.763145 0.191545 0.763145
0.858149 0.171505 0.737884
0.141851 0.533699 0.808455
0.213325 0.500000 0.786675
0.466301 0.466301 0.763145
0.737884 0.432907 0.737884
0.858149 0.400112 0.710950
0.141851 0.786675 0.786675
0.191545 0.763145 0.763145
0.432907 0.737884 0.737884
0.710950 0.710950 0.710950
0.858149 0.682438 0.682438
0.141851 0.858149 0.763145
0.171505 0.858149 0.737884
0.400112 0.858149 0.710950
0.682438 0.858149 0.682438
0.858149 0.858149 0.652489
0.141851 0.141851 0.858149
0.236855 0.141851 0.858149
0.500000 0.141851 0.858149
0.763145 0.141851 0.858149
0.858149 0.141851 0.858149
0.141851 0.236855 0.858149
0.213325 0.213325 0.858149
0.466301 0.191545 0.858149
0.737884 0.171505 0.858149
0.858149 0.153164 0.858149
0.141851 0.500000 0.858149
0.191545 0.466301 0.858149
0.432907 0.432907 0.858149
0.710950 0.400112 0.858149
0.858149 0.368188 0.858149
0.141851 0.763145 0.858149
0.171505 0.737884 0.858149
0.400112 0.710950 0.858149
0.682438 0.682438 0.858149
0.858149 0.652489 0.858149
0.141851 0.858149 0.858149
0.153164 0.858149 0.858149
0.368188 0.858149 0.858149
0.652489 0.858149 0.858149
0.858149 0.858149 0.858149
