assets/luts/vintage.cube
# Vintage/sepia: yellowed tones, faded blacks.
# Generated procedurally by videokit gen-luts.py
TITLE "vintage"
LUT_3D_SIZE 5
DOMAIN_MIN 0.0 0.0 0.0
DOMAIN_MAX 1.0 1.0 1.0
0.116800 0.097600 0.069200
0.190384 0.161556 0.117339
0.263968 0.225512 0.165478
0.337552 0.289468 0.213617
0.411136 0.353424 0.261756
0.261261 0.223159 0.163707
0.334845 0.287115 0.211846
0.408429 0.351072 0.259985
0.482012 0.415028 0.308124
0.555596 0.478984 0.356263
0.405721 0.348719 0.258214
0.479305 0.412675 0.306353
0.552889 0.476631 0.354492
0.626473 0.540587 0.402631
0.700057 0.604543 0.450770
0.550182 0.474278 0.352721
0.623766 0.538234 0.400860
0.697350 0.602190 0.448999
0.770934 0.666146 0.497138
0.844518 0.730102 0.545277
0.694643 0.599837 0.447228
0.768227 0.663793 0.495367
0.841811 0.727749 0.543506
0.915395 0.791706 0.591645
0.988978 0.855662 0.639784
0.144855 0.121985 0.087554
0.218439 0.185941 0.135693
0.292023 0.249897 0.183832
0.365607 0.313853 0.231971
0.439191 0.377809 0.280110
0.289316 0.247544 0.182061
0.362900 0.311500 0.230200
0.436484 0.375456 0.278339
0.510068 0.439412 0.326478
0.583652 0.503368 0.374617
0.433777 0.373103 0.276568
0.507361 0.437059 0.324707
0.580945 0.501015 0.372846
0.654528 0.564971 0.420985
0.728112 0.628928 0.469124
0.578238 0.498663 0.371075
0.651821 0.562619 0.419214
0.725405 0.626575 0.467353
0.798989 0.690531 0.515492
0.872573 0.754487 0.563631
0.722698 0.624222 0.465582
0.796282 0.688178 0.513721
0.869866 0.752134 0.561860
0.943450 0.816090 0.609999
1.000000 0.880046 0.658138
0.172911 0.146369 0.105908
0.246495 0.210325 0.154047
0.320079 0.274281 0.202186
0.393663 0.338238 0.250325
0.467246 0.402194 0.298464
0.317371 0.271929 0.200415
0.390955 0.335885 0.248554
0.464539 0.399841 0.296693
0.538123 0.463797 0.344832
0.611707 0.527753 0.392971
0.461832 0.397488 0.294922
0.535416 0.461444 0.343061
0.609000 0.525400 0.391200
0.682584 0.589356 0.439339
0.756168 0.653312 0.487478
0.606293 0.523047 0.389429
0.679877 0.587003 0.437568
0.753461 0.650959 0.485707
0.827045 0.714915 0.533846
0.900629 0.778872 0.581985
0.750754 0.648606 0.483936
0.824338 0.712562 0.532075
0.897921 0.776519 0.580214
0.971505 0.840475 0.628353
1.000000 0.904431 0.676492
0.200966 0.170754 0.124262
0.274550 0.234710 0.172401
0.348134 0.298666 0.220540
0.421718 0.362622 0.268679
0.495302 0.426578 0.316818
0.345427 0.296313 0.218769
0.419011 0.360269 0.266908
0.492595 0.424225 0.315047
0.566179 0.488181 0.363186
0.639763 0.552137 0.411325
0.489888 0.421872 0.313276
0.563472 0.485828 0.361415
0.637055 0.549785 0.409554
0.710639 0.613741 0.457693
0.784223 0.677697 0.505832
0.634348 0.547432 0.407783
0.707932 0.611388 0.455922
0.781516 0.675344 0.504061
0.855100 0.739300 0.552200
0.928684 0.803256 0.600339
0.778809 0.672991 0.502290
0.852393 0.736947 0.550429
0.925977 0.800903 0.598568
0.999561 0.864859 0.646707
1.000000 0.928815 0.694846
0.229022 0.195138 0.142616
0.302606 0.259095 0.190755
0.376189 0.323051 0.238894
0.449773 0.387007 0.287033
0.523357 0.450963 0.335172
0.373482 0.320698 0.237123
0.447066 0.384654 0.285262
0.520650 0.448610 0.333401
0.594234 0.512566 0.381540
0.667818 0.576522 0.429679
0.517943 0.446257 0.331630
0.591527 0.510213 0.379769
0.665111 0.574169 0.427908
0.738695 0.638125 0.476047
0.812279 0.702081 0.524186
0.662404 0.571816 0.426137
0.735988 0.635772 0.474276
0.809572 0.699728 0.522415
0.883155 0.763685 0.570554
0.956739 0.827641 0.618693
0.806864 0.697376 0.520644
0.880448 0.761332 0.568783
0.954032 0.825288 0.616922
1.000000 0.889244 0.665061
1.000000 0.953200 0.713200
