assets/luts/vintage.cube
# Vintage/sepia: yellowed tones, faded blacks.
# Generated procedurally by videokit gen-luts.py
TITLE "vintage"
LUT_3D_SIZE 9
DOMAIN_MIN 0.0 0.0 0.0
DOMAIN_MAX 1.0 1.0 1.0
0.116800 0.097600 0.069200
0.153592 0.129578 0.093270
0.190384 0.161556 0.117339
0.227176 0.193534 0.141408
0.263968 0.225512 0.165478
0.300760 0.257490 0.189547
0.337552 0.289468 0.213617
0.374344 0.321446 0.237686
0.411136 0.353424 0.261756
0.189030 0.160380 0.116453
0.225822 0.192358 0.140523
0.262614 0.224336 0.164593
0.299406 0.256314 0.188662
0.336198 0.288292 0.212731
0.372990 0.320270 0.236801
0.409782 0.352248 0.260871
0.446574 0.384226 0.284940
0.483366 0.416204 0.309010
0.261261 0.223159 0.163707
0.298053 0.255137 0.187777
0.334845 0.287115 0.211846
0.371637 0.319093 0.235916
0.408429 0.351072 0.259985
0.445220 0.383050 0.284054
0.482012 0.415028 0.308124
0.518804 0.447006 0.332193
0.555596 0.478984 0.356263
0.333491 0.285939 0.210960
0.370283 0.317917 0.235030
0.407075 0.349895 0.259100
0.443867 0.381873 0.283169
0.480659 0.413851 0.307238
0.517451 0.445829 0.331308
0.554243 0.477807 0.355378
0.591035 0.509785 0.379447
0.627827 0.541763 0.403516
0.405721 0.348719 0.258214
0.442513 0.380697 0.282284
0.479305 0.412675 0.306353
0.516097 0.444653 0.330423
0.552889 0.476631 0.354492
0.589681 0.508609 0.378561
0.626473 0.540587 0.402631
0.663265 0.572565 0.426700
0.700057 0.604543 0.450770
0.477952 0.411498 0.305468
0.514744 0.443476 0.329537
0.551536 0.475454 0.353606
0.588328 0.507432 0.377676
0.625120 0.539410 0.401745
0.661911 0.571389 0.425815
0.698703 0.603367 0.449884
0.735495 0.635345 0.473954
0.772287 0.667323 0.498024
0.550182 0.474278 0.352721
0.586974 0.506256 0.376790
0.623766 0.538234 0.400860
0.660558 0.570212 0.424930
0.697350 0.602190 0.448999
0.734142 0.634168 0.473068
0.770934 0.666146 0.497138
0.807726 0.698124 0.521207
0.844518 0.730102 0.545277
0.622412 0.537058 0.399974
0.659204 0.569036 0.424044
0.695996 0.601014 0.448113
0.732788 0.632992 0.472183
0.769580 0.664970 0.496252
0.806372 0.696948 0.520322
0.843164 0.728926 0.544392
0.879956 0.760904 0.568461
0.916748 0.792882 0.592530
0.694643 0.599837 0.447228
0.731435 0.631815 0.471297
0.768227 0.663793 0.495367
0.805019 0.695771 0.519437
0.841811 0.727749 0.543506
0.878603 0.759727 0.567576
0.915395 0.791706 0.591645
0.952186 0.823684 0.615714
0.988978 0.855662 0.639784
0.130828 0.109792 0.078377
0.167620 0.141770 0.102446
0.204412 0.173748 0.126516
0.241204 0.205726 0.150585
0.277996 0.237705 0.174655
0.314787 0.269683 0.198724
0.351579 0.301661 0.222794
0.388371 0.333639 0.246863
0.425163 0.365617 0.270933
0.203058 0.172572 0.125630
0.239850 0.204550 0.149700
0.276642 0.236528 0.173769
0.313434 0.268506 0.197839
0.350226 0.300484 0.221909
0.387018 0.332462 0.245978
0.423810 0.364440 0.270047
0.460602 0.396418 0.294117
0.497394 0.428396 0.318186
0.275288 0.235352 0.172884
0.312080 0.267330 0.196954
0.348872 0.299308 0.221023
0.385664 0.331286 0.245092
0.422456 0.363264 0.269162
0.459248 0.395242 0.293231
0.496040 0.427220 0.317301
0.532832 0.459198 0.341371
0.569624 0.491176 0.365440
0.347519 0.298131 0.220138
0.384311 0.330109 0.244207
0.421103 0.362087 0.268277
0.457895 0.394065 0.292346
0.494687 0.426043 0.316415
0.531478 0.458021 0.340485
0.568270 0.490000 0.364554
0.605062 0.521978 0.388624
0.641854 0.553956 0.412693
0.419749 0.360911 0.267391
0.456541 0.392889 0.291461
0.493333 0.424867 0.315530
0.530125 0.456845 0.339599
0.566917 0.488823 0.363669
0.603709 0.520801 0.387738
0.640501 0.552779 0.411808
0.677293 0.584757 0.435877
0.714085 0.616735 0.459947
0.491979 0.423691 0.314644
0.528771 0.455669 0.338714
0.565563 0.487647 0.362783
0.602355 0.519625 0.386853
0.639147 0.551603 0.410922
0.675939 0.583581 0.434992
0.712731 0.615559 0.459061
0.749523 0.647537 0.483131
0.786315 0.679515 0.507200
0.564210 0.486470 0.361898
0.601002 0.518448 0.385967
0.637794 0.550426 0.410037
0.674586 0.582404 0.434106
0.711378 0.614382 0.458176
0.748170 0.646360 0.482245
0.784962 0.678338 0.506315
0.821753 0.710317 0.530385
0.858545 0.742295 0.554454
0.636440 0.549250 0.409152
0.673232 0.581228 0.433221
0.710024 0.613206 0.457290
0.746816 0.645184 0.481360
0.783608 0.677162 0.505429
0.820400 0.709140 0.529499
0.857192 0.741118 0.553569
0.893984 0.773096 0.577638
0.930776 0.805074 0.601708
0.708670 0.612030 0.456405
0.745462 0.644008 0.480475
0.782254 0.675986 0.504544
0.819046 0.707964 0.528613
0.855838 0.739942 0.552683
0.892630 0.771920 0.576753
0.929422 0.803898 0.600822
0.966214 0.835876 0.624891
1.000000 0.867854 0.648961
0.144855 0.121985 0.087554
0.181647 0.153963 0.111624
0.218439 0.185941 0.135693
0.255231 0.217919 0.159763
0.292023 0.249897 0.183832
0.328815 0.281875 0.207901
0.365607 0.313853 0.231971
0.402399 0.345831 0.256041
0.439191 0.377809 0.280110
0.217086 0.184764 0.134807
0.253878 0.216742 0.158877
0.290670 0.248720 0.182947
0.327462 0.280698 0.207016
0.364254 0.312676 0.231085
0.401046 0.344655 0.255155
0.437837 0.376633 0.279225
0.474629 0.408611 0.303294
0.511421 0.440589 0.327364
0.289316 0.247544 0.182061
0.326108 0.279522 0.206130
0.362900 0.311500 0.230200
0.399692 0.343478 0.254270
0.436484 0.375456 0.278339
0.473276 0.407434 0.302408
0.510068 0.439412 0.326478
0.546860 0.471390 0.350548
0.583652 0.503368 0.374617
0.361546 0.310324 0.229315
0.398338 0.342302 0.253384
0.435130 0.374280 0.277454
0.471922 0.406258 0.301523
0.508714 0.438236 0.325593
0.545506 0.470214 0.349662
0.582298 0.502192 0.373731
0.619090 0.534170 0.397801
0.655882 0.566148 0.421870
0.433777 0.373103 0.276568
0.470569 0.405081 0.300638
0.507361 0.437059 0.324707
0.544153 0.469037 0.348777
0.580945 0.501015 0.372846
0.617737 0.532993 0.396915
0.654528 0.564971 0.420985
0.691320 0.596950 0.445054
0.728112 0.628928 0.469124
0.506007 0.435883 0.323821
0.542799 0.467861 0.347891
0.579591 0.499839 0.371960
0.616383 0.531817 0.396030
0.653175 0.563795 0.420099
0.689967 0.595773 0.444169
0.726759 0.627751 0.468238
0.763551 0.659729 0.492308
0.800343 0.691707 0.516377
0.578238 0.498663 0.371075
0.615029 0.530641 0.395144
0.651821 0.562619 0.419214
0.688613 0.594597 0.443283
0.725405 0.626575 0.467353
0.762197 0.658553 0.491422
0.798989 0.690531 0.515492
0.835781 0.722509 0.539562
0.872573 0.754487 0.563631
0.650468 0.561442 0.418328
0.687260 0.593420 0.442398
0.724052 0.625398 0.466467
0.760844 0.657376 0.490537
0.797636 0.689354 0.514606
0.834428 0.721332 0.538676
0.871220 0.753310 0.562745
0.908011 0.785289 0.586815
0.944803 0.817267 0.610885
0.722698 0.624222 0.465582
0.759490 0.656200 0.489651
0.796282 0.688178 0.513721
0.833074 0.720156 0.537791
0.869866 0.752134 0.561860
0.906658 0.784112 0.585929
0.943450 0.816090 0.609999
0.980242 0.848068 0.634068
1.000000 0.880046 0.658138
0.158883 0.134177 0.096731
0.195675 0.166155 0.120800
0.232467 0.198133 0.144870
0.269259 0.230111 0.168940
0.306051 0.262089 0.193009
0.342843 0.294067 0.217078
0.379635 0.326045 0.241148
0.416427 0.358023 0.265217
0.453219 0.390001 0.289287
0.231113 0.196957 0.143985
0.267905 0.228935 0.168054
0.304697 0.260913 0.192124
0.341489 0.292891 0.216193
0.378281 0.324869 0.240262
0.415073 0.356847 0.264332
0.451865 0.388825 0.288402
0.488657 0.420803 0.312471
0.525449 0.452781 0.336541
0.303344 0.259736 0.191238
0.340136 0.291714 0.215308
0.376928 0.323692 0.239377
0.413720 0.355670 0.263447
0.450512 0.387648 0.287516
0.487304 0.419626 0.311585
0.524096 0.451605 0.335655
0.560887 0.483583 0.359725
0.597679 0.515561 0.383794
0.375574 0.322516 0.238491
0.412366 0.354494 0.262561
0.449158 0.386472 0.286631
0.485950 0.418450 0.310700
0.522742 0.450428 0.334769
0.559534 0.482406 0.358839
0.596326 0.514384 0.382908
0.633118 0.546362 0.406978
0.669910 0.578340 0.431047
0.447805 0.385296 0.285745
0.484596 0.417274 0.309814
0.521388 0.449252 0.333884
0.558180 0.481230 0.357954
0.594972 0.513208 0.382023
0.631764 0.545186 0.406092
0.668556 0.577164 0.430162
0.705348 0.609142 0.454231
0.742140 0.641120 0.478301
0.520035 0.448075 0.332998
0.556827 0.480053 0.357068
0.593619 0.512031 0.381137
0.630411 0.544009 0.405207
0.667203 0.575987 0.429276
0.703995 0.607965 0.453346
0.740787 0.639943 0.477415
0.777578 0.671922 0.501485
0.814370 0.703900 0.525554
0.592265 0.510855 0.380252
0.629057 0.542833 0.404321
0.665849 0.574811 0.428391
0.702641 0.606789 0.452460
0.739433 0.638767 0.476530
0.776225 0.670745 0.500599
0.813017 0.702723 0.524669
0.849809 0.734701 0.548739
0.886601 0.766679 0.572808
0.664496 0.573634 0.427505
0.701288 0.605613 0.451575
0.738079 0.637591 0.475644
0.774871 0.669569 0.499714
0.811663 0.701547 0.523783
0.848455 0.733525 0.547853
0.885247 0.765503 0.571923
0.922039 0.797481 0.595992
0.958831 0.829459 0.620061
0.736726 0.636414 0.474759
0.773518 0.668392 0.498828
0.810310 0.700370 0.522898
0.847102 0.732348 0.546968
0.883894 0.764326 0.571037
0.920686 0.796304 0.595106
0.957478 0.828282 0.619176
0.994270 0.860260 0.643245
1.000000 0.892238 0.667315
0.172911 0.146369 0.105908
0.209703 0.178347 0.129977
0.246495 0.210325 0.154047
0.283287 0.242303 0.178117
0.320079 0.274281 0.202186
0.356871 0.306259 0.226255
0.393663 0.338238 0.250325
0.430454 0.370216 0.274394
0.467246 0.402194 0.298464
0.245141 0.209149 0.153161
0.281933 0.241127 0.177231
0.318725 0.273105 0.201300
0.355517 0.305083 0.225370
0.392309 0.337061 0.249440
0.429101 0.369039 0.273509
0.465893 0.401017 0.297579
0.502685 0.432995 0.321648
0.539477 0.464973 0.345718
0.317371 0.271929 0.200415
0.354163 0.303907 0.224485
0.390955 0.335885 0.248554
0.427747 0.367863 0.272624
0.464539 0.399841 0.296693
0.501331 0.431819 0.320762
0.538123 0.463797 0.344832
0.574915 0.495775 0.368901
0.611707 0.527753 0.392971
0.389602 0.334708 0.247669
0.426394 0.366686 0.271738
0.463186 0.398664 0.295808
0.499978 0.430642 0.319877
0.536770 0.462620 0.343946
0.573562 0.494598 0.368016
0.610354 0.526576 0.392086
0.647146 0.558555 0.416155
0.683937 0.590533 0.440224
0.461832 0.397488 0.294922
0.498624 0.429466 0.318991
0.535416 0.461444 0.343061
0.572208 0.493422 0.367131
0.609000 0.525400 0.391200
0.645792 0.557378 0.415270
0.682584 0.589356 0.439339
0.719376 0.621334 0.463409
0.756168 0.653312 0.487478
0.534063 0.460267 0.342175
0.570855 0.492245 0.366245
0.607646 0.524224 0.390314
0.644438 0.556202 0.414384
0.681230 0.588180 0.438453
0.718022 0.620158 0.462523
0.754814 0.652136 0.486592
0.791606 0.684114 0.510662
0.828398 0.716092 0.534732
0.606293 0.523047 0.389429
0.643085 0.555025 0.413499
0.679877 0.587003 0.437568
0.716669 0.618981 0.461637
0.753461 0.650959 0.485707
0.790253 0.682937 0.509777
0.827045 0.714915 0.533846
0.863837 0.746893 0.557916
0.900629 0.778872 0.581985
0.678523 0.585827 0.436683
0.715315 0.617805 0.460752
0.752107 0.649783 0.484822
0.788899 0.681761 0.508891
0.825691 0.713739 0.532961
0.862483 0.745717 0.557030
0.899275 0.777695 0.581100
0.936067 0.809673 0.605169
0.972859 0.841651 0.629239
0.750754 0.648606 0.483936
0.787546 0.680584 0.508006
0.824338 0.712562 0.532075
0.861129 0.744541 0.556145
0.897921 0.776519 0.580214
0.934713 0.808497 0.604283
0.971505 0.840475 0.628353
1.000000 0.872453 0.652422
1.000000 0.904431 0.676492
0.186939 0.158562 0.115085
0.223730 0.190540 0.139154
0.260522 0.222518 0.163224
0.297314 0.254496 0.187294
0.334106 0.286474 0.211363
0.370898 0.318452 0.235432
0.407690 0.350430 0.259502
0.444482 0.382408 0.283572
0.481274 0.414386 0.307641
0.259169 0.221341 0.162338
0.295961 0.253319 0.186408
0.332753 0.285297 0.210478
0.369545 0.317275 0.234547
0.406337 0.349253 0.258617
0.443129 0.381231 0.282686
0.479921 0.413209 0.306756
0.516713 0.445188 0.330825
0.553504 0.477166 0.354895
0.331399 0.284121 0.209592
0.368191 0.316099 0.233661
0.404983 0.348077 0.257731
0.441775 0.380055 0.281801
0.478567 0.412033 0.305870
0.515359 0.444011 0.329939
0.552151 0.475989 0.354009
0.588943 0.507967 0.378078
0.625735 0.539945 0.402148
0.403630 0.346900 0.256846
0.440422 0.378879 0.280915
0.477213 0.410857 0.304984
0.514005 0.442835 0.329054
0.550797 0.474813 0.353124
0.587589 0.506791 0.377193
0.624381 0.538769 0.401262
0.661173 0.570747 0.425332
0.697965 0.602725 0.449402
0.475860 0.409680 0.304099
0.512652 0.441658 0.328168
0.549444 0.473636 0.352238
0.586236 0.505614 0.376308
0.623028 0.537592 0.400377
0.659820 0.569570 0.424447
0.696612 0.601548 0.448516
0.733404 0.633526 0.472585
0.770196 0.665505 0.496655
0.548090 0.472460 0.351352
0.584882 0.504438 0.375422
0.621674 0.536416 0.399491
0.658466 0.568394 0.423561
0.695258 0.600372 0.447630
0.732050 0.632350 0.471700
0.768842 0.664328 0.495769
0.805634 0.696306 0.519839
0.842426 0.728284 0.543909
0.620321 0.535239 0.398606
0.657113 0.567217 0.422675
0.693905 0.599196 0.446745
0.730696 0.631174 0.470814
0.767488 0.663152 0.494884
0.804280 0.695130 0.518953
0.841072 0.727108 0.543023
0.877864 0.759086 0.567092
0.914656 0.791064 0.591162
0.692551 0.598019 0.445860
0.729343 0.629997 0.469929
0.766135 0.661975 0.493999
0.802927 0.693953 0.518068
0.839719 0.725931 0.542137
0.876511 0.757909 0.566207
0.913303 0.789887 0.590277
0.950095 0.821865 0.614346
0.986887 0.853843 0.638416
0.764781 0.660799 0.493113
0.801573 0.692777 0.517183
0.838365 0.724755 0.541252
0.875157 0.756733 0.565322
0.911949 0.788711 0.589391
0.948741 0.820689 0.613460
0.985533 0.852667 0.637530
1.000000 0.884645 0.661600
1.000000 0.916623 0.685669
0.200966 0.170754 0.124262
0.237758 0.202732 0.148332
0.274550 0.234710 0.172401
0.311342 0.266688 0.196470
0.348134 0.298666 0.220540
0.384926 0.330644 0.244610
0.421718 0.362622 0.268679
0.458510 0.394600 0.292748
0.495302 0.426578 0.316818
0.273197 0.233533 0.171515
0.309989 0.265512 0.195585
0.346780 0.297490 0.219655
0.383572 0.329468 0.243724
0.420364 0.361446 0.267794
0.457156 0.393424 0.291863
0.493948 0.425402 0.315933
0.530740 0.457380 0.340002
0.567532 0.489358 0.364071
0.345427 0.296313 0.218769
0.382219 0.328291 0.242839
0.419011 0.360269 0.266908
0.455803 0.392247 0.290978
0.492595 0.424225 0.315047
0.529387 0.456203 0.339116
0.566179 0.488181 0.363186
0.602971 0.520159 0.387255
0.639763 0.552137 0.411325
0.417657 0.359093 0.266022
0.454449 0.391071 0.290092
0.491241 0.423049 0.314162
0.528033 0.455027 0.338231
0.564825 0.487005 0.362300
0.601617 0.518983 0.386370
0.638409 0.550961 0.410440
0.675201 0.582939 0.434509
0.711993 0.614917 0.458578
0.489888 0.421872 0.313276
0.526680 0.453850 0.337345
0.563472 0.485828 0.361415
0.600263 0.517807 0.385485
0.637055 0.549785 0.409554
0.673847 0.581763 0.433623
0.710639 0.613741 0.457693
0.747431 0.645719 0.481763
0.784223 0.677697 0.505832
0.562118 0.484652 0.360530
0.598910 0.516630 0.384599
0.635702 0.548608 0.408668
0.672494 0.580586 0.432738
0.709286 0.612564 0.456807
0.746078 0.644542 0.480877
0.782870 0.676520 0.504946
0.819662 0.708498 0.529016
0.856454 0.740476 0.553086
0.634348 0.547432 0.407783
0.671140 0.579410 0.431852
0.707932 0.611388 0.455922
0.744724 0.643366 0.479991
0.781516 0.675344 0.504061
0.818308 0.707322 0.528130
0.855100 0.739300 0.552200
0.891892 0.771278 0.576269
0.928684 0.803256 0.600339
0.706579 0.610211 0.455037
0.743371 0.642189 0.479106
0.780163 0.674167 0.503175
0.816955 0.706146 0.527245
0.853746 0.738124 0.551314
0.890538 0.770102 0.575384
0.927330 0.802080 0.599454
0.964122 0.834058 0.623523
1.000000 0.866036 0.647593
0.778809 0.672991 0.502290
0.815601 0.704969 0.526359
0.852393 0.736947 0.550429
0.889185 0.768925 0.574499
0.925977 0.800903 0.598568
0.962769 0.832881 0.622637
0.999561 0.864859 0.646707
1.000000 0.896837 0.670776
1.000000 0.928815 0.694846
0.214994 0.182946 0.133439
0.251786 0.214924 0.157508
0.288578 0.246902 0.181578
0.325370 0.278880 0.205648
0.362162 0.310858 0.229717
0.398954 0.342836 0.253787
0.435746 0.374814 0.277856
0.472538 0.406792 0.301925
0.509329 0.438771 0.325995
0.287224 0.245726 0.180692
0.324016 0.277704 0.204762
0.360808 0.309682 0.228831
0.397600 0.341660 0.252901
0.434392 0.373638 0.276971
0.471184 0.405616 0.301040
0.507976 0.437594 0.325109
0.544768 0.469572 0.349179
0.581560 0.501550 0.373248
0.359455 0.308505 0.227946
0.396247 0.340483 0.252016
0.433038 0.372462 0.276085
0.469830 0.404440 0.300154
0.506622 0.436418 0.324224
0.543414 0.468396 0.348293
0.580206 0.500374 0.372363
0.616998 0.532352 0.396432
0.653790 0.564330 0.420502
0.431685 0.371285 0.275200
0.468477 0.403263 0.299269
0.505269 0.435241 0.323338
0.542061 0.467219 0.347408
0.578853 0.499197 0.371478
0.615645 0.531175 0.395547
0.652437 0.563153 0.419616
0.689229 0.595131 0.443686
0.726021 0.627109 0.467755
0.503915 0.434065 0.322453
0.540707 0.466043 0.346523
0.577499 0.498021 0.370592
0.614291 0.529999 0.394661
0.651083 0.561977 0.418731
0.687875 0.593955 0.442800
0.724667 0.625933 0.466870
0.761459 0.657911 0.490939
0.798251 0.689889 0.515009
0.576146 0.496844 0.369706
0.612938 0.528822 0.393776
0.649730 0.560800 0.417845
0.686522 0.592779 0.441915
0.723313 0.624757 0.465984
0.760105 0.656735 0.490054
0.796897 0.688713 0.514123
0.833689 0.720691 0.538193
0.870481 0.752669 0.562262
0.648376 0.559624 0.416960
0.685168 0.591602 0.441030
0.721960 0.623580 0.465099
0.758752 0.655558 0.489168
0.795544 0.687536 0.513238
0.832336 0.719514 0.537307
0.869128 0.751492 0.561377
0.905920 0.783470 0.585446
0.942712 0.815448 0.609516
0.720606 0.622404 0.464214
0.757398 0.654382 0.488283
0.794190 0.686360 0.512352
0.830982 0.718338 0.536422
0.867774 0.750316 0.560491
0.904566 0.782294 0.584561
0.941358 0.814272 0.608631
0.978150 0.846250 0.632700
1.000000 0.878228 0.656770
0.792837 0.685183 0.511467
0.829629 0.717161 0.535536
0.866421 0.749139 0.559606
0.903213 0.781117 0.583676
0.940005 0.813096 0.607745
0.976796 0.845074 0.631814
1.000000 0.877052 0.655884
1.000000 0.909030 0.679953
1.000000 0.941008 0.704023
0.229022 0.195138 0.142616
0.265814 0.227116 0.166685
0.302606 0.259095 0.190755
0.339397 0.291073 0.214825
0.376189 0.323051 0.238894
0.412981 0.355029 0.262964
0.449773 0.387007 0.287033
0.486565 0.418985 0.311103
0.523357 0.450963 0.335172
0.301252 0.257918 0.189870
0.338044 0.289896 0.213939
0.374836 0.321874 0.238009
0.411628 0.353852 0.262078
0.448420 0.385830 0.286147
0.485212 0.417808 0.310217
0.522004 0.449786 0.334286
0.558796 0.481764 0.358356
0.595588 0.513742 0.382426
0.373482 0.320698 0.237123
0.410274 0.352676 0.261192
0.447066 0.384654 0.285262
0.483858 0.416632 0.309331
0.520650 0.448610 0.333401
0.557442 0.480588 0.357470
0.594234 0.512566 0.381540
0.631026 0.544544 0.405610
0.667818 0.576522 0.429679
0.445713 0.383477 0.284377
0.482505 0.415455 0.308446
0.519297 0.447433 0.332516
0.556088 0.479412 0.356585
0.592880 0.511390 0.380654
0.629672 0.543368 0.404724
0.666464 0.575346 0.428793
0.703256 0.607324 0.452863
0.740048 0.639302 0.476932
0.517943 0.446257 0.331630
0.554735 0.478235 0.355700
0.591527 0.510213 0.379769
0.628319 0.542191 0.403838
0.665111 0.574169 0.427908
0.701903 0.606147 0.451977
0.738695 0.638125 0.476047
0.775487 0.670103 0.500116
0.812279 0.702081 0.524186
0.590173 0.509037 0.378883
0.626965 0.541015 0.402953
0.663757 0.572993 0.427022
0.700549 0.604971 0.451092
0.737341 0.636949 0.475161
0.774133 0.668927 0.499231
0.810925 0.700905 0.523300
0.847717 0.732883 0.547370
0.884509 0.764861 0.571439
0.662404 0.571816 0.426137
0.699196 0.603794 0.450206
0.735988 0.635772 0.474276
0.772780 0.667750 0.498345
0.809572 0.699728 0.522415
0.846363 0.731707 0.546485
0.883155 0.763685 0.570554
0.919947 0.795663 0.594623
0.956739 0.827641 0.618693
0.734634 0.634596 0.473390
0.771426 0.666574 0.497460
0.808218 0.698552 0.521529
0.845010 0.730530 0.545599
0.881802 0.762508 0.569668
0.918594 0.794486 0.593738
0.955386 0.826464 0.617808
0.992178 0.858442 0.641877
1.000000 0.890420 0.665946
0.806864 0.697376 0.520644
0.843656 0.729354 0.544714
0.880448 0.761332 0.568783
0.917240 0.793310 0.592853
0.954032 0.825288 0.616922
0.990824 0.857266 0.640991
1.000000 0.889244 0.665061
1.000000 0.921222 0.689131
1.000000 0.953200 0.713200
