assets/luts/vintage.cube
# Vintage/sepia: yellowed tones, faded blacks.
# Generated procedurally by videokit gen-luts.py
TITLE "vintage"
LUT_3D_SIZE 17
DOMAIN_MIN 0.0 0.0 0.0
DOMAIN_MAX 1.0 1.0 1.0
0.116800 0.097600 0.069200
0.135196 0.113589 0.081235
0.153592 0.129578 0.093270
0.171988 0.145567 0.105304
0.190384 0.161556 0.117339
0.208780 0.177545 0.129374
0.227176 0.193534 0.141408
0.245572 0.209523 0.153443
0.263968 0.225512 0.165478
0.282364 0.241501 0.177513
0.300760 0.257490 0.189547
0.319156 0.273479 0.201582
0.337552 0.289468 0.213617
0.355948 0.305457 0.225652
0.374344 0.321446 0.237686
0.392740 0.337435 0.249721
0.411136 0.353424 0.261756
0.152915 0.128990 0.092827
0.171311 0.144979 0.104861
0.189707 0.160968 0.116896
0.208103 0.176957 0.128931
0.226499 0.192946 0.140966
0.244895 0.208935 0.153000
0.263291 0.224924 0.165035
0.281687 0.240913 0.177070
0.300083 0.256902 0.189105
0.318479 0.272891 0.201139
0.336875 0.288880 0.213174
0.355271 0.304869 0.225209
0.373667 0.320858 0.237244
0.392063 0.336847 0.249279
0.410459 0.352836 0.261313
0.428855 0.368825 0.273348
0.447251 0.384814 0.285383
0.189030 0.160380 0.116453
0.207426 0.176369 0.128488
0.225822 0.192358 0.140523
0.244218 0.208347 0.152558
0.262614 0.224336 0.164593
0.281010 0.240325 0.176627
0.299406 0.256314 0.188662
0.317802 0.272303 0.200697
0.336198 0.288292 0.212731
0.354594 0.304281 0.224766
0.372990 0.320270 0.236801
0.391386 0.336259 0.248836
0.409782 0.352248 0.260871
0.428178 0.368237 0.272905
0.446574 0.384226 0.284940
0.464970 0.400215 0.296975
0.483366 0.416204 0.309010
0.225146 0.191769 0.140080
0.243542 0.207759 0.152115
0.261937 0.223748 0.164150
0.280333 0.239737 0.176184
0.298729 0.255726 0.188219
0.317125 0.271715 0.200254
0.335521 0.287704 0.212289
0.353917 0.303693 0.224324
0.372313 0.319682 0.236358
0.390709 0.335671 0.248393
0.409105 0.351660 0.260428
0.427501 0.367649 0.272462
0.445897 0.383638 0.284497
0.464293 0.399627 0.296532
0.482689 0.415616 0.308567
0.501085 0.431605 0.320601
0.519481 0.447594 0.332636
0.261261 0.223159 0.163707
0.279657 0.239148 0.175742
0.298053 0.255137 0.187777
0.316449 0.271126 0.199811
0.334845 0.287115 0.211846
0.353241 0.303104 0.223881
0.371637 0.319093 0.235916
0.390033 0.335082 0.247950
0.408429 0.351072 0.259985
0.426824 0.367061 0.272020
0.445220 0.383050 0.284054
0.463616 0.399039 0.296089
0.482012 0.415028 0.308124
0.500408 0.431017 0.320159
0.518804 0.447006 0.332193
0.537200 0.462995 0.344228
0.555596 0.478984 0.356263
0.297376 0.254549 0.187334
0.315772 0.270538 0.199368
0.334168 0.286527 0.211403
0.352564 0.302516 0.223438
0.370960 0.318505 0.235473
0.389356 0.334494 0.247507
0.407752 0.350483 0.259542
0.426148 0.366472 0.271577
0.444544 0.382461 0.283612
0.462940 0.398450 0.295646
0.481336 0.414439 0.307681
0.499732 0.430428 0.319716
0.518128 0.446417 0.331751
0.536524 0.462406 0.343785
0.554920 0.478395 0.355820
0.573315 0.494385 0.367855
0.591711 0.510374 0.379890
0.333491 0.285939 0.210960
0.351887 0.301928 0.222995
0.370283 0.317917 0.235030
0.388679 0.333906 0.247065
0.407075 0.349895 0.259100
0.425471 0.365884 0.271134
0.443867 0.381873 0.283169
0.462263 0.397862 0.295204
0.480659 0.413851 0.307238
0.499055 0.429840 0.319273
0.517451 0.445829 0.331308
0.535847 0.461818 0.343343
0.554243 0.477807 0.355378
0.572639 0.493796 0.367412
0.591035 0.509785 0.379447
0.609431 0.525774 0.391482
0.627827 0.541763 0.403516
0.369606 0.317329 0.234587
0.388002 0.333318 0.246622
0.406398 0.349307 0.258657
0.424794 0.365296 0.270691
0.443190 0.381285 0.282726
0.461586 0.397274 0.294761
0.479982 0.413263 0.306796
0.498378 0.429252 0.318830
0.516774 0.445241 0.330865
0.535170 0.461230 0.342900
0.553566 0.477219 0.354935
0.571962 0.493208 0.366970
0.590358 0.509197 0.379004
0.608754 0.525186 0.391039
0.627150 0.541175 0.403074
0.645546 0.557164 0.415108
0.663942 0.573153 0.427143
0.405721 0.348719 0.258214
0.424117 0.364708 0.270249
0.442513 0.380697 0.282284
0.460909 0.396686 0.294318
0.479305 0.412675 0.306353
0.497701 0.428664 0.318388
0.516097 0.444653 0.330423
0.534493 0.460642 0.342457
0.552889 0.476631 0.354492
0.571285 0.492620 0.366527
0.589681 0.508609 0.378561
0.608077 0.524598 0.390596
0.626473 0.540587 0.402631
0.644869 0.556576 0.414666
0.663265 0.572565 0.426700
0.681661 0.588554 0.438735
0.700057 0.604543 0.450770
0.441837 0.380108 0.281841
0.460233 0.396097 0.293875
0.478629 0.412086 0.305910
0.497025 0.428075 0.317945
0.515420 0.444065 0.329980
0.533816 0.460054 0.342014
0.552212 0.476043 0.354049
0.570608 0.492032 0.366084
0.589004 0.508021 0.378119
0.607400 0.524010 0.390153
0.625796 0.539999 0.402188
0.644192 0.555988 0.414223
0.662588 0.571977 0.426258
0.680984 0.587966 0.438292
0.699380 0.603955 0.450327
0.717776 0.619944 0.462362
0.736172 0.635933 0.474397
0.477952 0.411498 0.305468
0.496348 0.427487 0.317502
0.514744 0.443476 0.329537
0.533140 0.459465 0.341572
0.551536 0.475454 0.353606
0.569932 0.491443 0.365641
0.588328 0.507432 0.377676
0.606724 0.523421 0.389711
0.625120 0.539410 0.401745
0.643516 0.555399 0.413780
0.661911 0.571389 0.425815
0.680307 0.587378 0.437850
0.698703 0.603367 0.449884
0.717099 0.619356 0.461919
0.735495 0.635345 0.473954
0.753891 0.651334 0.485989
0.772287 0.667323 0.498024
0.514067 0.442888 0.329094
0.532463 0.458877 0.341129
0.550859 0.474866 0.353164
0.569255 0.490855 0.365199
0.587651 0.506844 0.377233
0.606047 0.522833 0.389268
0.624443 0.538822 0.401303
0.642839 0.554811 0.413338
0.661235 0.570800 0.425372
0.679631 0.586789 0.437407
0.698027 0.602778 0.449442
0.716423 0.618767 0.461476
0.734819 0.634756 0.473511
0.753215 0.650745 0.485546
0.771611 0.666734 0.497581
0.790007 0.682723 0.509615
0.808403 0.698712 0.521650
0.550182 0.474278 0.352721
0.568578 0.490267 0.364756
0.586974 0.506256 0.376790
0.605370 0.522245 0.388825
0.623766 0.538234 0.400860
0.642162 0.554223 0.412895
0.660558 0.570212 0.424930
0.678954 0.586201 0.436964
0.697350 0.602190 0.448999
0.715746 0.618179 0.461034
0.734142 0.634168 0.473068
0.752538 0.650157 0.485103
0.770934 0.666146 0.497138
0.789330 0.682135 0.509173
0.807726 0.698124 0.521207
0.826122 0.714113 0.533242
0.844518 0.730102 0.545277
0.586297 0.505668 0.376348
0.604693 0.521657 0.388382
0.623089 0.537646 0.400417
0.641485 0.553635 0.412452
0.659881 0.569624 0.424487
0.678277 0.585613 0.436522
0.696673 0.601602 0.448556
0.715069 0.617591 0.460591
0.733465 0.633580 0.472626
0.751861 0.649569 0.484660
0.770257 0.665558 0.496695
0.788653 0.681547 0.508730
0.807049 0.697536 0.520765
0.825445 0.713525 0.532799
0.843841 0.729514 0.544834
0.862237 0.745503 0.556869
0.880633 0.761492 0.568904
0.622412 0.537058 0.399974
0.640808 0.553047 0.412009
0.659204 0.569036 0.424044
0.677600 0.585025 0.436079
0.695996 0.601014 0.448113
0.714392 0.617003 0.460148
0.732788 0.632992 0.472183
0.751184 0.648981 0.484218
0.769580 0.664970 0.496252
0.787976 0.680959 0.508287
0.806372 0.696948 0.520322
0.824768 0.712937 0.532357
0.843164 0.728926 0.544392
0.861560 0.744915 0.556426
0.879956 0.760904 0.568461
0.898352 0.776893 0.580496
0.916748 0.792882 0.592530
0.658528 0.568447 0.423601
0.676924 0.584436 0.435636
0.695320 0.600425 0.447671
0.713716 0.616414 0.459705
0.732112 0.632403 0.471740
0.750507 0.648392 0.483775
0.768903 0.664382 0.495810
0.787299 0.680371 0.507845
0.805695 0.696360 0.519879
0.824091 0.712349 0.531914
0.842487 0.728338 0.543949
0.860883 0.744327 0.555983
0.879279 0.760316 0.568018
0.897675 0.776305 0.580053
0.916071 0.792294 0.592088
0.934467 0.808283 0.604122
0.952863 0.824272 0.616157
0.694643 0.599837 0.447228
0.713039 0.615826 0.459263
0.731435 0.631815 0.471297
0.749831 0.647804 0.483332
0.768227 0.663793 0.495367
0.786623 0.679782 0.507402
0.805019 0.695771 0.519437
0.823415 0.711760 0.531471
0.841811 0.727749 0.543506
0.860207 0.743738 0.555541
0.878603 0.759727 0.567576
0.896999 0.775716 0.579610
0.915395 0.791706 0.591645
0.933790 0.807695 0.603680
0.952186 0.823684 0.615714
0.970582 0.839673 0.627749
0.988978 0.855662 0.639784
0.123814 0.103696 0.073789
0.142210 0.119685 0.085823
0.160606 0.135674 0.097858
0.179002 0.151663 0.109893
0.197398 0.167652 0.121927
0.215794 0.183641 0.133962
0.234190 0.199630 0.145997
0.252586 0.215619 0.158032
0.270982 0.231608 0.170066
0.289378 0.247597 0.182101
0.307774 0.263586 0.194136
0.326170 0.279575 0.206171
0.344566 0.295564 0.218205
0.362962 0.311553 0.230240
0.381358 0.327543 0.242275
0.399753 0.343532 0.254310
0.418149 0.359521 0.266344
0.159929 0.135086 0.097415
0.178325 0.151075 0.109450
0.196721 0.167064 0.121485
0.215117 0.183053 0.133520
0.233513 0.199042 0.145554
0.251909 0.215031 0.157589
0.270305 0.231020 0.169624
0.288701 0.247009 0.181659
0.307097 0.262998 0.193693
0.325493 0.278987 0.205728
0.343889 0.294976 0.217763
0.362285 0.310965 0.229797
0.380681 0.326954 0.241832
0.399077 0.342943 0.253867
0.417473 0.358932 0.265902
0.435869 0.374921 0.277936
0.454265 0.390910 0.289971
0.196044 0.166476 0.121042
0.214440 0.182465 0.133077
0.232836 0.198454 0.145112
0.251232 0.214443 0.157146
0.269628 0.230432 0.169181
0.288024 0.246421 0.181216
0.306420 0.262410 0.193250
0.324816 0.278399 0.205285
0.343212 0.294388 0.217320
0.361608 0.310377 0.229355
0.380004 0.326366 0.241390
0.398400 0.342355 0.253424
0.416796 0.358344 0.265459
0.435192 0.374333 0.277494
0.453588 0.390322 0.289528
0.471984 0.406311 0.301563
0.490380 0.422300 0.313598
0.232159 0.197866 0.144669
0.250555 0.213855 0.156703
0.268951 0.229844 0.168738
0.287347 0.245833 0.180773
0.305743 0.261822 0.192808
0.324139 0.277811 0.204842
0.342535 0.293800 0.216877
0.360931 0.309789 0.228912
0.379327 0.325778 0.240947
0.397723 0.341767 0.252981
0.416119 0.357756 0.265016
0.434515 0.373745 0.277051
0.452911 0.389734 0.289086
0.471307 0.405723 0.301121
0.489703 0.421712 0.313155
0.508099 0.437701 0.325190
0.526495 0.453690 0.337225
0.268275 0.229255 0.168295
0.286671 0.245244 0.180330
0.305067 0.261234 0.192365
0.323462 0.277223 0.204400
0.341858 0.293212 0.216434
0.360254 0.309201 0.228469
0.378650 0.325190 0.240504
0.397046 0.341179 0.252539
0.415442 0.357168 0.264574
0.433838 0.373157 0.276608
0.452234 0.389146 0.288643
0.470630 0.405135 0.300678
0.489026 0.421124 0.312713
0.507422 0.437113 0.324747
0.525818 0.453102 0.336782
0.544214 0.469091 0.348817
0.562610 0.485080 0.360851
0.304390 0.260645 0.191922
0.322786 0.276634 0.203957
0.341182 0.292623 0.215992
0.359578 0.308612 0.228026
0.377974 0.324601 0.240061
0.396370 0.340590 0.252096
0.414766 0.356579 0.264131
0.433162 0.372568 0.276165
0.451558 0.388557 0.288200
0.469954 0.404546 0.300235
0.488349 0.420536 0.312270
0.506745 0.436525 0.324304
0.525141 0.452514 0.336339
0.543537 0.468503 0.348374
0.561933 0.484492 0.360409
0.580329 0.500481 0.372443
0.598725 0.516470 0.384478
0.340505 0.292035 0.215549
0.358901 0.308024 0.227584
0.377297 0.324013 0.239619
0.395693 0.340002 0.251653
0.414089 0.355991 0.263688
0.432485 0.371980 0.275723
0.450881 0.387969 0.287757
0.469277 0.403958 0.299792
0.487673 0.419947 0.311827
0.506069 0.435936 0.323862
0.524465 0.451925 0.335896
0.542861 0.467914 0.347931
0.561257 0.483903 0.359966
0.579653 0.499892 0.372001
0.598049 0.515881 0.384035
0.616445 0.531870 0.396070
0.634841 0.547860 0.408105
0.376620 0.323425 0.239176
0.395016 0.339414 0.251211
0.413412 0.355403 0.263245
0.431808 0.371392 0.275280
0.450204 0.387381 0.287315
0.468600 0.403370 0.299350
0.486996 0.419359 0.311384
0.505392 0.435348 0.323419
0.523788 0.451337 0.335454
0.542184 0.467326 0.347488
0.560580 0.483315 0.359523
0.578976 0.499304 0.371558
0.597372 0.515293 0.383593
0.615768 0.531282 0.395628
0.634164 0.547271 0.407662
0.652560 0.563260 0.419697
0.670956 0.579249 0.431732
0.412735 0.354815 0.262802
0.431131 0.370804 0.274837
0.449527 0.386793 0.286872
0.467923 0.402782 0.298907
0.486319 0.418771 0.310941
0.504715 0.434760 0.322976
0.523111 0.450749 0.335011
0.541507 0.466738 0.347046
0.559903 0.482727 0.359080
0.578299 0.498716 0.371115
0.596695 0.514705 0.383150
0.615091 0.530694 0.395185
0.633487 0.546683 0.407220
0.651883 0.562672 0.419254
0.670279 0.578661 0.431289
0.688675 0.594650 0.443324
0.707071 0.610639 0.455359
0.448850 0.386205 0.286429
0.467246 0.402194 0.298464
0.485642 0.418183 0.310499
0.504038 0.434172 0.322533
0.522434 0.450161 0.334568
0.540830 0.466150 0.346603
0.559226 0.482139 0.358638
0.577622 0.498128 0.370672
0.596018 0.514117 0.382707
0.614414 0.530106 0.394742
0.632810 0.546095 0.406777
0.651206 0.562084 0.418812
0.669602 0.578073 0.430846
0.687998 0.594062 0.442881
0.706394 0.610051 0.454916
0.724790 0.626040 0.466950
0.743186 0.642029 0.478985
0.484966 0.417594 0.310056
0.503362 0.433583 0.322091
0.521758 0.449572 0.334125
0.540154 0.465561 0.346160
0.558550 0.481550 0.358195
0.576945 0.497540 0.370230
0.595341 0.513529 0.382265
0.613737 0.529518 0.394299
0.632133 0.545507 0.406334
0.650529 0.561496 0.418369
0.668925 0.577485 0.430403
0.687321 0.593474 0.442438
0.705717 0.609463 0.454473
0.724113 0.625452 0.466508
0.742509 0.641441 0.478543
0.760905 0.657430 0.490577
0.779301 0.673419 0.502612
0.521081 0.448984 0.333683
0.539477 0.464973 0.345718
0.557873 0.480962 0.357752
0.576269 0.496951 0.369787
0.594665 0.512940 0.381822
0.613061 0.528929 0.393857
0.631457 0.544918 0.405891
0.649853 0.560907 0.417926
0.668249 0.576896 0.429961
0.686645 0.592885 0.441995
0.705041 0.608874 0.454030
0.723437 0.624864 0.466065
0.741832 0.640853 0.478100
0.760228 0.656842 0.490135
0.778624 0.672831 0.502169
0.797020 0.688820 0.514204
0.815416 0.704809 0.526239
0.557196 0.480374 0.357310
0.575592 0.496363 0.369344
0.593988 0.512352 0.381379
0.612384 0.528341 0.393414
0.630780 0.544330 0.405449
0.649176 0.560319 0.417483
0.667572 0.576308 0.429518
0.685968 0.592297 0.441553
0.704364 0.608286 0.453588
0.722760 0.624275 0.465622
0.741156 0.640264 0.477657
0.759552 0.656253 0.489692
0.777948 0.672242 0.501726
0.796344 0.688231 0.513761
0.814740 0.704220 0.525796
0.833136 0.720209 0.537831
0.851532 0.736198 0.549865
0.593311 0.511764 0.380936
0.611707 0.527753 0.392971
0.630103 0.543742 0.405006
0.648499 0.559731 0.417040
0.666895 0.575720 0.429075
0.685291 0.591709 0.441110
0.703687 0.607698 0.453145
0.722083 0.623687 0.465180
0.740479 0.639676 0.477214
0.758875 0.655665 0.489249
0.777271 0.671654 0.501284
0.795667 0.687643 0.513319
0.814063 0.703632 0.525353
0.832459 0.719621 0.537388
0.850855 0.735610 0.549423
0.869251 0.751599 0.561457
0.887647 0.767588 0.573492
0.629426 0.543154 0.404563
0.647822 0.559143 0.416598
0.666218 0.575132 0.428633
0.684614 0.591121 0.440667
0.703010 0.607110 0.452702
0.721406 0.623099 0.464737
0.739802 0.639088 0.476772
0.758198 0.655077 0.488806
0.776594 0.671066 0.500841
0.794990 0.687055 0.512876
0.813386 0.703044 0.524911
0.831782 0.719033 0.536945
0.850178 0.735022 0.548980
0.868574 0.751011 0.561015
0.886970 0.767000 0.573049
0.905366 0.782989 0.585084
0.923762 0.798978 0.597119
0.665541 0.574544 0.428190
0.683937 0.590533 0.440224
0.702333 0.606522 0.452259
0.720729 0.622511 0.464294
0.739125 0.638500 0.476329
0.757521 0.654489 0.488364
0.775917 0.670478 0.500398
0.794313 0.686467 0.512433
0.812709 0.702456 0.524468
0.831105 0.718445 0.536502
0.849501 0.734434 0.548537
0.867897 0.750423 0.560572
0.886293 0.766412 0.572607
0.904689 0.782401 0.584642
0.923085 0.798390 0.596676
0.941481 0.814379 0.608711
0.959877 0.830368 0.620746
0.701657 0.605933 0.451817
0.720053 0.621922 0.463851
0.738449 0.637911 0.475886
0.756845 0.653900 0.487921
0.775241 0.669889 0.499955
0.793637 0.685878 0.511990
0.812033 0.701868 0.524025
0.830428 0.717857 0.536060
0.848824 0.733846 0.548095
0.867220 0.749835 0.560129
0.885616 0.765824 0.572164
0.904012 0.781813 0.584199
0.922408 0.797802 0.596234
0.940804 0.813791 0.608268
0.959200 0.829780 0.620303
0.977596 0.845769 0.632338
0.995992 0.861758 0.644373
0.130828 0.109792 0.078377
0.149224 0.125781 0.090412
0.167620 0.141770 0.102446
0.186016 0.157759 0.114481
0.204412 0.173748 0.126516
0.222808 0.189737 0.138551
0.241204 0.205726 0.150585
0.259600 0.221715 0.162620
0.277996 0.237705 0.174655
0.296391 0.253694 0.186690
0.314787 0.269683 0.198724
0.333183 0.285672 0.210759
0.351579 0.301661 0.222794
0.369975 0.317650 0.234829
0.388371 0.333639 0.246863
0.406767 0.349628 0.258898
0.425163 0.365617 0.270933
0.166943 0.141182 0.102004
0.185339 0.157171 0.114038
0.203735 0.173160 0.126073
0.222131 0.189149 0.138108
0.240527 0.205138 0.150143
0.258923 0.221127 0.162178
0.277319 0.237116 0.174212
0.295715 0.253105 0.186247
0.314111 0.269094 0.198282
0.332507 0.285083 0.210316
0.350903 0.301072 0.222351
0.369299 0.317061 0.234386
0.387695 0.333050 0.246421
0.406091 0.349039 0.258456
0.424487 0.365028 0.270490
0.442882 0.381017 0.282525
0.461278 0.397007 0.294560
0.203058 0.172572 0.125630
0.221454 0.188561 0.137665
0.239850 0.204550 0.149700
0.258246 0.220539 0.161735
0.276642 0.236528 0.173769
0.295038 0.252517 0.185804
0.313434 0.268506 0.197839
0.331830 0.284495 0.209874
0.350226 0.300484 0.221909
0.368622 0.316473 0.233943
0.387018 0.332462 0.245978
0.405414 0.348451 0.258013
0.423810 0.364440 0.270047
0.442206 0.380429 0.282082
0.460602 0.396418 0.294117
0.478998 0.412407 0.306152
0.497394 0.428396 0.318186
0.239173 0.203962 0.149257
0.257569 0.219951 0.161292
0.275965 0.235940 0.173327
0.294361 0.251929 0.185362
0.312757 0.267918 0.197396
0.331153 0.283907 0.209431
0.349549 0.299896 0.221466
0.367945 0.315885 0.233500
0.386341 0.331874 0.245535
0.404737 0.347863 0.257570
0.423133 0.363852 0.269605
0.441529 0.379841 0.281639
0.459925 0.395830 0.293674
0.478321 0.411819 0.305709
0.496717 0.427808 0.317744
0.515113 0.443797 0.329778
0.533509 0.459786 0.341813
0.275288 0.235352 0.172884
0.293684 0.251341 0.184919
0.312080 0.267330 0.196954
0.330476 0.283319 0.208988
0.348872 0.299308 0.221023
0.367268 0.315297 0.233058
0.385664 0.331286 0.245092
0.404060 0.347275 0.257127
0.422456 0.363264 0.269162
0.440852 0.379253 0.281197
0.459248 0.395242 0.293231
0.477644 0.411231 0.305266
0.496040 0.427220 0.317301
0.514436 0.443209 0.329336
0.532832 0.459198 0.341371
0.551228 0.475187 0.353405
0.569624 0.491176 0.365440
0.311404 0.266741 0.196511
0.329800 0.282730 0.208545
0.348196 0.298719 0.220580
0.366592 0.314709 0.232615
0.384987 0.330698 0.244650
0.403383 0.346687 0.256684
0.421779 0.362676 0.268719
0.440175 0.378665 0.280754
0.458571 0.394654 0.292789
0.476967 0.410643 0.304824
0.495363 0.426632 0.316858
0.513759 0.442621 0.328893
0.532155 0.458610 0.340928
0.550551 0.474599 0.352962
0.568947 0.490588 0.364997
0.587343 0.506577 0.377032
0.605739 0.522566 0.389067
0.347519 0.298131 0.220138
0.365915 0.314120 0.232172
0.384311 0.330109 0.244207
0.402707 0.346098 0.256242
0.421103 0.362087 0.268277
0.439499 0.378076 0.280311
0.457895 0.394065 0.292346
0.476291 0.410054 0.304381
0.494687 0.426043 0.316415
0.513083 0.442032 0.328450
0.531478 0.458021 0.340485
0.549874 0.474011 0.352520
0.568270 0.490000 0.364554
0.586666 0.505989 0.376589
0.605062 0.521978 0.388624
0.623458 0.537967 0.400659
0.641854 0.553956 0.412693
0.383634 0.329521 0.243764
0.402030 0.345510 0.255799
0.420426 0.361499 0.267834
0.438822 0.377488 0.279868
0.457218 0.393477 0.291903
0.475614 0.409466 0.303938
0.494010 0.425455 0.315973
0.512406 0.441444 0.328008
0.530802 0.457433 0.340042
0.549198 0.473422 0.352077
0.567594 0.489411 0.364112
0.585990 0.505400 0.376146
0.604386 0.521389 0.388181
0.622782 0.537378 0.400216
0.641178 0.553367 0.412251
0.659574 0.569356 0.424285
0.677970 0.585345 0.436320
0.419749 0.360911 0.267391
0.438145 0.376900 0.279426
0.456541 0.392889 0.291461
0.474937 0.408878 0.303495
0.493333 0.424867 0.315530
0.511729 0.440856 0.327565
0.530125 0.456845 0.339599
0.548521 0.472834 0.351634
0.566917 0.488823 0.363669
0.585313 0.504812 0.375704
0.603709 0.520801 0.387738
0.622105 0.536790 0.399773
0.640501 0.552779 0.411808
0.658897 0.568768 0.423843
0.677293 0.584757 0.435877
0.695689 0.600746 0.447912
0.714085 0.616735 0.459947
0.455864 0.392301 0.291018
0.474260 0.408290 0.303052
0.492656 0.424279 0.315087
0.511052 0.440268 0.327122
0.529448 0.456257 0.339157
0.547844 0.472246 0.351191
0.566240 0.488235 0.363226
0.584636 0.504224 0.375261
0.603032 0.520213 0.387296
0.621428 0.536202 0.399330
0.639824 0.552191 0.411365
0.658220 0.568180 0.423400
0.676616 0.584169 0.435435
0.695012 0.600158 0.447470
0.713408 0.616147 0.459504
0.731804 0.632136 0.471539
0.750200 0.648125 0.483574
0.491979 0.423691 0.314644
0.510375 0.439680 0.326679
0.528771 0.455669 0.338714
0.547167 0.471658 0.350749
0.565563 0.487647 0.362783
0.583959 0.503636 0.374818
0.602355 0.519625 0.386853
0.620751 0.535614 0.398888
0.639147 0.551603 0.410922
0.657543 0.567592 0.422957
0.675939 0.583581 0.434992
0.694335 0.599570 0.447027
0.712731 0.615559 0.459061
0.731127 0.631548 0.471096
0.749523 0.647537 0.483131
0.767919 0.663526 0.495166
0.786315 0.679515 0.507200
0.528095 0.455080 0.338271
0.546491 0.471069 0.350306
0.564887 0.487058 0.362341
0.583283 0.503047 0.374375
0.601679 0.519036 0.386410
0.620075 0.535026 0.398445
0.638470 0.551015 0.410480
0.656866 0.567004 0.422515
0.675262 0.582993 0.434549
0.693658 0.598982 0.446584
0.712054 0.614971 0.458619
0.730450 0.630960 0.470653
0.748846 0.646949 0.482688
0.767242 0.662938 0.494723
0.785638 0.678927 0.506758
0.804034 0.694916 0.518792
0.822430 0.710905 0.530827
0.564210 0.486470 0.361898
0.582606 0.502459 0.373933
0.601002 0.518448 0.385967
0.619398 0.534437 0.398002
0.637794 0.550426 0.410037
0.656190 0.566415 0.422072
0.674586 0.582404 0.434106
0.692982 0.598393 0.446141
0.711378 0.614382 0.458176
0.729774 0.630371 0.470211
0.748170 0.646360 0.482245
0.766566 0.662349 0.494280
0.784962 0.678338 0.506315
0.803357 0.694328 0.518350
0.821753 0.710317 0.530385
0.840149 0.726306 0.542419
0.858545 0.742295 0.554454
0.600325 0.517860 0.385525
0.618721 0.533849 0.397560
0.637117 0.549838 0.409594
0.655513 0.565827 0.421629
0.673909 0.581816 0.433664
0.692305 0.597805 0.445698
0.710701 0.613794 0.457733
0.729097 0.629783 0.469768
0.747493 0.645772 0.481803
0.765889 0.661761 0.493837
0.784285 0.677750 0.505872
0.802681 0.693739 0.517907
0.821077 0.709728 0.529942
0.839473 0.725717 0.541976
0.857869 0.741706 0.554011
0.876265 0.757695 0.566046
0.894661 0.773684 0.578081
0.636440 0.549250 0.409152
0.654836 0.565239 0.421186
0.673232 0.581228 0.433221
0.691628 0.597217 0.445256
0.710024 0.613206 0.457290
0.728420 0.629195 0.469325
0.746816 0.645184 0.481360
0.765212 0.661173 0.493395
0.783608 0.677162 0.505429
0.802004 0.693151 0.517464
0.820400 0.709140 0.529499
0.838796 0.725129 0.541534
0.857192 0.741118 0.553569
0.875588 0.757107 0.565603
0.893984 0.773096 0.577638
0.912380 0.789085 0.589673
0.930776 0.805074 0.601708
0.672555 0.580640 0.432778
0.690951 0.596629 0.444813
0.709347 0.612618 0.456848
0.727743 0.628607 0.468882
0.746139 0.644596 0.480917
0.764535 0.660585 0.492952
0.782931 0.676574 0.504987
0.801327 0.692563 0.517022
0.819723 0.708552 0.529056
0.838119 0.724541 0.541091
0.856515 0.740530 0.553126
0.874911 0.756519 0.565160
0.893307 0.772508 0.577195
0.911703 0.788497 0.589230
0.930099 0.804486 0.601265
0.948495 0.820475 0.613299
0.966891 0.836464 0.625334
0.708670 0.612030 0.456405
0.727066 0.628019 0.468440
0.745462 0.644008 0.480475
0.763858 0.659997 0.492509
0.782254 0.675986 0.504544
0.800650 0.691975 0.516579
0.819046 0.707964 0.528613
0.837442 0.723953 0.540648
0.855838 0.739942 0.552683
0.874234 0.755931 0.564718
0.892630 0.771920 0.576753
0.911026 0.787909 0.588787
0.929422 0.803898 0.600822
0.947818 0.819887 0.612857
0.966214 0.835876 0.624891
0.984610 0.851865 0.636926
1.000000 0.867854 0.648961
0.137842 0.115888 0.082965
0.156238 0.131877 0.095000
0.174633 0.147867 0.107035
0.193029 0.163856 0.119070
0.211425 0.179845 0.131105
0.229821 0.195834 0.143139
0.248217 0.211823 0.155174
0.266613 0.227812 0.167209
0.285009 0.243801 0.179244
0.303405 0.259790 0.191278
0.321801 0.275779 0.203313
0.340197 0.291768 0.215348
0.358593 0.307757 0.227383
0.376989 0.323746 0.239417
0.395385 0.339735 0.251452
