assets/luts/warm.cube
# Warm look: golden hour, sunset.
# Generated procedurally by videokit gen-luts.py
TITLE "warm"
LUT_3D_SIZE 17
DOMAIN_MIN 0.0 0.0 0.0
DOMAIN_MAX 1.0 1.0 1.0
0.030000 0.015000 0.000000
0.097500 0.015000 0.000000
0.165000 0.015000 0.000000
0.232500 0.015000 0.000000
0.300000 0.015000 0.000000
0.367500 0.015000 0.000000
0.435000 0.015000 0.000000
0.502500 0.015000 0.000000
0.570000 0.015000 0.000000
0.637500 0.015000 0.000000
0.705000 0.015000 0.000000
0.772500 0.015000 0.000000
0.840000 0.015000 0.000000
0.907500 0.015000 0.000000
0.975000 0.015000 0.000000
1.000000 0.015000 0.000000
1.000000 0.015000 0.000000
0.030000 0.078750 0.000000
0.097500 0.078750 0.000000
0.165000 0.078750 0.000000
0.232500 0.078750 0.000000
0.300000 0.078750 0.000000
0.367500 0.078750 0.000000
0.435000 0.078750 0.000000
0.502500 0.078750 0.000000
0.570000 0.078750 0.000000
0.637500 0.078750 0.000000
0.705000 0.078750 0.000000
0.772500 0.078750 0.000000
0.840000 0.078750 0.000000
0.907500 0.078750 0.000000
0.975000 0.078750 0.000000
1.000000 0.078750 0.000000
1.000000 0.078750 0.000000
0.030000 0.142500 0.000000
0.097500 0.142500 0.000000
0.165000 0.142500 0.000000
0.232500 0.142500 0.000000
0.300000 0.142500 0.000000
0.367500 0.142500 0.000000
0.435000 0.142500 0.000000
0.502500 0.142500 0.000000
0.570000 0.142500 0.000000
0.637500 0.142500 0.000000
0.705000 0.142500 0.000000
0.772500 0.142500 0.000000
0.840000 0.142500 0.000000
0.907500 0.142500 0.000000
0.975000 0.142500 0.000000
1.000000 0.142500 0.000000
1.000000 0.142500 0.000000
0.030000 0.206250 0.000000
0.097500 0.206250 0.000000
0.165000 0.206250 0.000000
0.232500 0.206250 0.000000
0.300000 0.206250 0.000000
0.367500 0.206250 0.000000
0.435000 0.206250 0.000000
0.502500 0.206250 0.000000
0.570000 0.206250 0.000000
0.637500 0.206250 0.000000
0.705000 0.206250 0.000000
0.772500 0.206250 0.000000
0.840000 0.206250 0.000000
0.907500 0.206250 0.000000
0.975000 0.206250 0.000000
1.000000 0.206250 0.000000
1.000000 0.206250 0.000000
0.030000 0.270000 0.000000
0.097500 0.270000 0.000000
0.165000 0.270000 0.000000
0.232500 0.270000 0.000000
0.300000 0.270000 0.000000
0.367500 0.270000 0.000000
0.435000 0.270000 0.000000
0.502500 0.270000 0.000000
0.570000 0.270000 0.000000
0.637500 0.270000 0.000000
0.705000 0.270000 0.000000
0.772500 0.270000 0.000000
0.840000 0.270000 0.000000
0.907500 0.270000 0.000000
0.975000 0.270000 0.000000
1.000000 0.270000 0.000000
1.000000 0.270000 0.000000
0.030000 0.333750 0.000000
0.097500 0.333750 0.000000
0.165000 0.333750 0.000000
0.232500 0.333750 0.000000
0.300000 0.333750 0.000000
0.367500 0.333750 0.000000
0.435000 0.333750 0.000000
0.502500 0.333750 0.000000
0.570000 0.333750 0.000000
0.637500 0.333750 0.000000
0.705000 0.333750 0.000000
0.772500 0.333750 0.000000
0.840000 0.333750 0.000000
0.907500 0.333750 0.000000
0.975000 0.333750 0.000000
1.000000 0.333750 0.000000
1.000000 0.333750 0.000000
0.030000 0.397500 0.000000
0.097500 0.397500 0.000000
0.165000 0.397500 0.000000
0.232500 0.397500 0.000000
0.300000 0.397500 0.000000
0.367500 0.397500 0.000000
0.435000 0.397500 0.000000
0.502500 0.397500 0.000000
0.570000 0.397500 0.000000
0.637500 0.397500 0.000000
0.705000 0.397500 0.000000
0.772500 0.397500 0.000000
0.840000 0.397500 0.000000
0.907500 0.397500 0.000000
0.975000 0.397500 0.000000
1.000000 0.397500 0.000000
1.000000 0.397500 0.000000
0.030000 0.461250 0.000000
0.097500 0.461250 0.000000
0.165000 0.461250 0.000000
0.232500 0.461250 0.000000
0.300000 0.461250 0.000000
0.367500 0.461250 0.000000
0.435000 0.461250 0.000000
0.502500 0.461250 0.000000
0.570000 0.461250 0.000000
0.637500 0.461250 0.000000
0.705000 0.461250 0.000000
0.772500 0.461250 0.000000
0.840000 0.461250 0.000000
0.907500 0.461250 0.000000
0.975000 0.461250 0.000000
1.000000 0.461250 0.000000
1.000000 0.461250 0.000000
0.030000 0.525000 0.000000
0.097500 0.525000 0.000000
0.165000 0.525000 0.000000
0.232500 0.525000 0.000000
0.300000 0.525000 0.000000
0.367500 0.525000 0.000000
0.435000 0.525000 0.000000
0.502500 0.525000 0.000000
0.570000 0.525000 0.000000
0.637500 0.525000 0.000000
0.705000 0.525000 0.000000
0.772500 0.525000 0.000000
0.840000 0.525000 0.000000
0.907500 0.525000 0.000000
0.975000 0.525000 0.000000
1.000000 0.525000 0.000000
1.000000 0.525000 0.000000
0.030000 0.588750 0.000000
0.097500 0.588750 0.000000
0.165000 0.588750 0.000000
0.232500 0.588750 0.000000
0.300000 0.588750 0.000000
0.367500 0.588750 0.000000
0.435000 0.588750 0.000000
0.502500 0.588750 0.000000
0.570000 0.588750 0.000000
0.637500 0.588750 0.000000
0.705000 0.588750 0.000000
0.772500 0.588750 0.000000
0.840000 0.588750 0.000000
0.907500 0.588750 0.000000
0.975000 0.588750 0.000000
1.000000 0.588750 0.000000
1.000000 0.588750 0.000000
0.030000 0.652500 0.000000
0.097500 0.652500 0.000000
0.165000 0.652500 0.000000
0.232500 0.652500 0.000000
0.300000 0.652500 0.000000
0.367500 0.652500 0.000000
0.435000 0.652500 0.000000
0.502500 0.652500 0.000000
0.570000 0.652500 0.000000
0.637500 0.652500 0.000000
0.705000 0.652500 0.000000
0.772500 0.652500 0.000000
0.840000 0.652500 0.000000
0.907500 0.652500 0.000000
0.975000 0.652500 0.000000
1.000000 0.652500 0.000000
1.000000 0.652500 0.000000
0.030000 0.716250 0.000000
0.097500 0.716250 0.000000
0.165000 0.716250 0.000000
0.232500 0.716250 0.000000
0.300000 0.716250 0.000000
0.367500 0.716250 0.000000
0.435000 0.716250 0.000000
0.502500 0.716250 0.000000
0.570000 0.716250 0.000000
0.637500 0.716250 0.000000
0.705000 0.716250 0.000000
0.772500 0.716250 0.000000
0.840000 0.716250 0.000000
0.907500 0.716250 0.000000
0.975000 0.716250 0.000000
1.000000 0.716250 0.000000
1.000000 0.716250 0.000000
0.030000 0.780000 0.000000
0.097500 0.780000 0.000000
0.165000 0.780000 0.000000
0.232500 0.780000 0.000000
0.300000 0.780000 0.000000
0.367500 0.780000 0.000000
0.435000 0.780000 0.000000
0.502500 0.780000 0.000000
0.570000 0.780000 0.000000
0.637500 0.780000 0.000000
0.705000 0.780000 0.000000
0.772500 0.780000 0.000000
0.840000 0.780000 0.000000
0.907500 0.780000 0.000000
0.975000 0.780000 0.000000
1.000000 0.780000 0.000000
1.000000 0.780000 0.000000
0.030000 0.843750 0.000000
0.097500 0.843750 0.000000
0.165000 0.843750 0.000000
0.232500 0.843750 0.000000
0.300000 0.843750 0.000000
0.367500 0.843750 0.000000
0.435000 0.843750 0.000000
0.502500 0.843750 0.000000
0.570000 0.843750 0.000000
0.637500 0.843750 0.000000
0.705000 0.843750 0.000000
0.772500 0.843750 0.000000
0.840000 0.843750 0.000000
0.907500 0.843750 0.000000
0.975000 0.843750 0.000000
1.000000 0.843750 0.000000
1.000000 0.843750 0.000000
0.030000 0.907500 0.000000
0.097500 0.907500 0.000000
0.165000 0.907500 0.000000
0.232500 0.907500 0.000000
0.300000 0.907500 0.000000
0.367500 0.907500 0.000000
0.435000 0.907500 0.000000
0.502500 0.907500 0.000000
0.570000 0.907500 0.000000
0.637500 0.907500 0.000000
0.705000 0.907500 0.000000
0.772500 0.907500 0.000000
0.840000 0.907500 0.000000
0.907500 0.907500 0.000000
0.975000 0.907500 0.000000
1.000000 0.907500 0.000000
1.000000 0.907500 0.000000
0.030000 0.971250 0.000000
0.097500 0.971250 0.000000
0.165000 0.971250 0.000000
0.232500 0.971250 0.000000
0.300000 0.971250 0.000000
0.367500 0.971250 0.000000
0.435000 0.971250 0.000000
0.502500 0.971250 0.000000
0.570000 0.971250 0.000000
0.637500 0.971250 0.000000
0.705000 0.971250 0.000000
0.772500 0.971250 0.000000
0.840000 0.971250 0.000000
0.907500 0.971250 0.000000
0.975000 0.971250 0.000000
1.000000 0.971250 0.000000
1.000000 0.971250 0.000000
0.030000 1.000000 0.000000
0.097500 1.000000 0.000000
0.165000 1.000000 0.000000
0.232500 1.000000 0.000000
0.300000 1.000000 0.000000
0.367500 1.000000 0.000000
0.435000 1.000000 0.000000
0.502500 1.000000 0.000000
0.570000 1.000000 0.000000
0.637500 1.000000 0.000000
0.705000 1.000000 0.000000
0.772500 1.000000 0.000000
0.840000 1.000000 0.000000
0.907500 1.000000 0.000000
0.975000 1.000000 0.000000
1.000000 1.000000 0.000000
1.000000 1.000000 0.000000
0.030000 0.015000 0.035000
0.097500 0.015000 0.035000
0.165000 0.015000 0.035000
0.232500 0.015000 0.035000
0.300000 0.015000 0.035000
0.367500 0.015000 0.035000
0.435000 0.015000 0.035000
0.502500 0.015000 0.035000
0.570000 0.015000 0.035000
0.637500 0.015000 0.035000
0.705000 0.015000 0.035000
0.772500 0.015000 0.035000
0.840000 0.015000 0.035000
0.907500 0.015000 0.035000
0.975000 0.015000 0.035000
1.000000 0.015000 0.035000
1.000000 0.015000 0.035000
0.030000 0.078750 0.035000
0.097500 0.078750 0.035000
0.165000 0.078750 0.035000
0.232500 0.078750 0.035000
0.300000 0.078750 0.035000
0.367500 0.078750 0.035000
0.435000 0.078750 0.035000
0.502500 0.078750 0.035000
0.570000 0.078750 0.035000
0.637500 0.078750 0.035000
0.705000 0.078750 0.035000
0.772500 0.078750 0.035000
0.840000 0.078750 0.035000
0.907500 0.078750 0.035000
0.975000 0.078750 0.035000
1.000000 0.078750 0.035000
1.000000 0.078750 0.035000
0.030000 0.142500 0.035000
0.097500 0.142500 0.035000
0.165000 0.142500 0.035000
0.232500 0.142500 0.035000
0.300000 0.142500 0.035000
0.367500 0.142500 0.035000
0.435000 0.142500 0.035000
0.502500 0.142500 0.035000
0.570000 0.142500 0.035000
0.637500 0.142500 0.035000
0.705000 0.142500 0.035000
0.772500 0.142500 0.035000
0.840000 0.142500 0.035000
0.907500 0.142500 0.035000
0.975000 0.142500 0.035000
1.000000 0.142500 0.035000
1.000000 0.142500 0.035000
0.030000 0.206250 0.035000
0.097500 0.206250 0.035000
0.165000 0.206250 0.035000
0.232500 0.206250 0.035000
0.300000 0.206250 0.035000
0.367500 0.206250 0.035000
0.435000 0.206250 0.035000
0.502500 0.206250 0.035000
0.570000 0.206250 0.035000
0.637500 0.206250 0.035000
0.705000 0.206250 0.035000
0.772500 0.206250 0.035000
0.840000 0.206250 0.035000
0.907500 0.206250 0.035000
0.975000 0.206250 0.035000
1.000000 0.206250 0.035000
1.000000 0.206250 0.035000
0.030000 0.270000 0.035000
0.097500 0.270000 0.035000
0.165000 0.270000 0.035000
0.232500 0.270000 0.035000
0.300000 0.270000 0.035000
0.367500 0.270000 0.035000
0.435000 0.270000 0.035000
0.502500 0.270000 0.035000
0.570000 0.270000 0.035000
0.637500 0.270000 0.035000
0.705000 0.270000 0.035000
0.772500 0.270000 0.035000
0.840000 0.270000 0.035000
0.907500 0.270000 0.035000
0.975000 0.270000 0.035000
1.000000 0.270000 0.035000
1.000000 0.270000 0.035000
0.030000 0.333750 0.035000
0.097500 0.333750 0.035000
0.165000 0.333750 0.035000
0.232500 0.333750 0.035000
0.300000 0.333750 0.035000
0.367500 0.333750 0.035000
0.435000 0.333750 0.035000
0.502500 0.333750 0.035000
0.570000 0.333750 0.035000
0.637500 0.333750 0.035000
0.705000 0.333750 0.035000
0.772500 0.333750 0.035000
0.840000 0.333750 0.035000
0.907500 0.333750 0.035000
0.975000 0.333750 0.035000
1.000000 0.333750 0.035000
1.000000 0.333750 0.035000
0.030000 0.397500 0.035000
0.097500 0.397500 0.035000
0.165000 0.397500 0.035000
0.232500 0.397500 0.035000
0.300000 0.397500 0.035000
0.367500 0.397500 0.035000
0.435000 0.397500 0.035000
0.502500 0.397500 0.035000
0.570000 0.397500 0.035000
0.637500 0.397500 0.035000
0.705000 0.397500 0.035000
0.772500 0.397500 0.035000
0.840000 0.397500 0.035000
0.907500 0.397500 0.035000
0.975000 0.397500 0.035000
1.000000 0.397500 0.035000
1.000000 0.397500 0.035000
0.030000 0.461250 0.035000
0.097500 0.461250 0.035000
0.165000 0.461250 0.035000
0.232500 0.461250 0.035000
0.300000 0.461250 0.035000
0.367500 0.461250 0.035000
0.435000 0.461250 0.035000
0.502500 0.461250 0.035000
0.570000 0.461250 0.035000
0.637500 0.461250 0.035000
0.705000 0.461250 0.035000
0.772500 0.461250 0.035000
0.840000 0.461250 0.035000
0.907500 0.461250 0.035000
0.975000 0.461250 0.035000
1.000000 0.461250 0.035000
1.000000 0.461250 0.035000
0.030000 0.525000 0.035000
0.097500 0.525000 0.035000
0.165000 0.525000 0.035000
0.232500 0.525000 0.035000
0.300000 0.525000 0.035000
0.367500 0.525000 0.035000
0.435000 0.525000 0.035000
0.502500 0.525000 0.035000
0.570000 0.525000 0.035000
0.637500 0.525000 0.035000
0.705000 0.525000 0.035000
0.772500 0.525000 0.035000
0.840000 0.525000 0.035000
0.907500 0.525000 0.035000
0.975000 0.525000 0.035000
1.000000 0.525000 0.035000
1.000000 0.525000 0.035000
0.030000 0.588750 0.035000
0.097500 0.588750 0.035000
0.165000 0.588750 0.035000
0.232500 0.588750 0.035000
0.300000 0.588750 0.035000
0.367500 0.588750 0.035000
0.435000 0.588750 0.035000
0.502500 0.588750 0.035000
0.570000 0.588750 0.035000
0.637500 0.588750 0.035000
0.705000 0.588750 0.035000
0.772500 0.588750 0.035000
0.840000 0.588750 0.035000
0.907500 0.588750 0.035000
0.975000 0.588750 0.035000
1.000000 0.588750 0.035000
1.000000 0.588750 0.035000
0.030000 0.652500 0.035000
0.097500 0.652500 0.035000
0.165000 0.652500 0.035000
0.232500 0.652500 0.035000
0.300000 0.652500 0.035000
0.367500 0.652500 0.035000
0.435000 0.652500 0.035000
0.502500 0.652500 0.035000
0.570000 0.652500 0.035000
0.637500 0.652500 0.035000
0.705000 0.652500 0.035000
0.772500 0.652500 0.035000
0.840000 0.652500 0.035000
0.907500 0.652500 0.035000
0.975000 0.652500 0.035000
1.000000 0.652500 0.035000
1.000000 0.652500 0.035000
0.030000 0.716250 0.035000
0.097500 0.716250 0.035000
0.165000 0.716250 0.035000
0.232500 0.716250 0.035000
0.300000 0.716250 0.035000
0.367500 0.716250 0.035000
0.435000 0.716250 0.035000
0.502500 0.716250 0.035000
0.570000 0.716250 0.035000
0.637500 0.716250 0.035000
0.705000 0.716250 0.035000
0.772500 0.716250 0.035000
0.840000 0.716250 0.035000
0.907500 0.716250 0.035000
0.975000 0.716250 0.035000
1.000000 0.716250 0.035000
1.000000 0.716250 0.035000
0.030000 0.780000 0.035000
0.097500 0.780000 0.035000
0.165000 0.780000 0.035000
0.232500 0.780000 0.035000
0.300000 0.780000 0.035000
0.367500 0.780000 0.035000
0.435000 0.780000 0.035000
0.502500 0.780000 0.035000
0.570000 0.780000 0.035000
0.637500 0.780000 0.035000
0.705000 0.780000 0.035000
0.772500 0.780000 0.035000
0.840000 0.780000 0.035000
0.907500 0.780000 0.035000
0.975000 0.780000 0.035000
1.000000 0.780000 0.035000
1.000000 0.780000 0.035000
0.030000 0.843750 0.035000
0.097500 0.843750 0.035000
0.165000 0.843750 0.035000
0.232500 0.843750 0.035000
0.300000 0.843750 0.035000
0.367500 0.843750 0.035000
0.435000 0.843750 0.035000
0.502500 0.843750 0.035000
0.570000 0.843750 0.035000
0.637500 0.843750 0.035000
0.705000 0.843750 0.035000
0.772500 0.843750 0.035000
0.840000 0.843750 0.035000
0.907500 0.843750 0.035000
0.975000 0.843750 0.035000
1.000000 0.843750 0.035000
1.000000 0.843750 0.035000
0.030000 0.907500 0.035000
0.097500 0.907500 0.035000
0.165000 0.907500 0.035000
0.232500 0.907500 0.035000
0.300000 0.907500 0.035000
0.367500 0.907500 0.035000
0.435000 0.907500 0.035000
0.502500 0.907500 0.035000
0.570000 0.907500 0.035000
0.637500 0.907500 0.035000
0.705000 0.907500 0.035000
0.772500 0.907500 0.035000
0.840000 0.907500 0.035000
0.907500 0.907500 0.035000
0.975000 0.907500 0.035000
1.000000 0.907500 0.035000
1.000000 0.907500 0.035000
0.030000 0.971250 0.035000
0.097500 0.971250 0.035000
0.165000 0.971250 0.035000
0.232500 0.971250 0.035000
0.300000 0.971250 0.035000
0.367500 0.971250 0.035000
0.435000 0.971250 0.035000
0.502500 0.971250 0.035000
0.570000 0.971250 0.035000
0.637500 0.971250 0.035000
0.705000 0.971250 0.035000
0.772500 0.971250 0.035000
0.840000 0.971250 0.035000
0.907500 0.971250 0.035000
0.975000 0.971250 0.035000
1.000000 0.971250 0.035000
1.000000 0.971250 0.035000
0.030000 1.000000 0.035000
0.097500 1.000000 0.035000
0.165000 1.000000 0.035000
0.232500 1.000000 0.035000
0.300000 1.000000 0.035000
0.367500 1.000000 0.035000
0.435000 1.000000 0.035000
0.502500 1.000000 0.035000
0.570000 1.000000 0.035000
0.637500 1.000000 0.035000
0.705000 1.000000 0.035000
0.772500 1.000000 0.035000
0.840000 1.000000 0.035000
0.907500 1.000000 0.035000
0.975000 1.000000 0.035000
1.000000 1.000000 0.035000
1.000000 1.000000 0.035000
0.030000 0.015000 0.090000
0.097500 0.015000 0.090000
0.165000 0.015000 0.090000
0.232500 0.015000 0.090000
0.300000 0.015000 0.090000
0.367500 0.015000 0.090000
0.435000 0.015000 0.090000
0.502500 0.015000 0.090000
0.570000 0.015000 0.090000
0.637500 0.015000 0.090000
0.705000 0.015000 0.090000
0.772500 0.015000 0.090000
0.840000 0.015000 0.090000
0.907500 0.015000 0.090000
0.975000 0.015000 0.090000
1.000000 0.015000 0.090000
1.000000 0.015000 0.090000
0.030000 0.078750 0.090000
0.097500 0.078750 0.090000
0.165000 0.078750 0.090000
0.232500 0.078750 0.090000
0.300000 0.078750 0.090000
0.367500 0.078750 0.090000
0.435000 0.078750 0.090000
0.502500 0.078750 0.090000
0.570000 0.078750 0.090000
0.637500 0.078750 0.090000
0.705000 0.078750 0.090000
0.772500 0.078750 0.090000
0.840000 0.078750 0.090000
0.907500 0.078750 0.090000
0.975000 0.078750 0.090000
1.000000 0.078750 0.090000
1.000000 0.078750 0.090000
0.030000 0.142500 0.090000
0.097500 0.142500 0.090000
0.165000 0.142500 0.090000
0.232500 0.142500 0.090000
0.300000 0.142500 0.090000
0.367500 0.142500 0.090000
0.435000 0.142500 0.090000
0.502500 0.142500 0.090000
0.570000 0.142500 0.090000
0.637500 0.142500 0.090000
0.705000 0.142500 0.090000
0.772500 0.142500 0.090000
0.840000 0.142500 0.090000
0.907500 0.142500 0.090000
0.975000 0.142500 0.090000
1.000000 0.142500 0.090000
1.000000 0.142500 0.090000
0.030000 0.206250 0.090000
0.097500 0.206250 0.090000
0.165000 0.206250 0.090000
0.232500 0.206250 0.090000
0.300000 0.206250 0.090000
0.367500 0.206250 0.090000
0.435000 0.206250 0.090000
0.502500 0.206250 0.090000
0.570000 0.206250 0.090000
0.637500 0.206250 0.090000
0.705000 0.206250 0.090000
0.772500 0.206250 0.090000
0.840000 0.206250 0.090000
0.907500 0.206250 0.090000
0.975000 0.206250 0.090000
1.000000 0.206250 0.090000
1.000000 0.206250 0.090000
0.030000 0.270000 0.090000
0.097500 0.270000 0.090000
0.165000 0.270000 0.090000
0.232500 0.270000 0.090000
0.300000 0.270000 0.090000
0.367500 0.270000 0.090000
0.435000 0.270000 0.090000
0.502500 0.270000 0.090000
0.570000 0.270000 0.090000
0.637500 0.270000 0.090000
0.705000 0.270000 0.090000
0.772500 0.270000 0.090000
0.840000 0.270000 0.090000
0.907500 0.270000 0.090000
0.975000 0.270000 0.090000
1.000000 0.270000 0.090000
1.000000 0.270000 0.090000
0.030000 0.333750 0.090000
0.097500 0.333750 0.090000
0.165000 0.333750 0.090000
0.232500 0.333750 0.090000
0.300000 0.333750 0.090000
0.367500 0.333750 0.090000
0.435000 0.333750 0.090000
0.502500 0.333750 0.090000
0.570000 0.333750 0.090000
0.637500 0.333750 0.090000
0.705000 0.333750 0.090000
0.772500 0.333750 0.090000
0.840000 0.333750 0.090000
0.907500 0.333750 0.090000
0.975000 0.333750 0.090000
1.000000 0.333750 0.090000
1.000000 0.333750 0.090000
0.030000 0.397500 0.090000
0.097500 0.397500 0.090000
0.165000 0.397500 0.090000
0.232500 0.397500 0.090000
0.300000 0.397500 0.090000
0.367500 0.397500 0.090000
0.435000 0.397500 0.090000
0.502500 0.397500 0.090000
0.570000 0.397500 0.090000
0.637500 0.397500 0.090000
0.705000 0.397500 0.090000
0.772500 0.397500 0.090000
0.840000 0.397500 0.090000
0.907500 0.397500 0.090000
0.975000 0.397500 0.090000
1.000000 0.397500 0.090000
1.000000 0.397500 0.090000
0.030000 0.461250 0.090000
0.097500 0.461250 0.090000
0.165000 0.461250 0.090000
0.232500 0.461250 0.090000
0.300000 0.461250 0.090000
0.367500 0.461250 0.090000
0.435000 0.461250 0.090000
0.502500 0.461250 0.090000
0.570000 0.461250 0.090000
0.637500 0.461250 0.090000
0.705000 0.461250 0.090000
0.772500 0.461250 0.090000
0.840000 0.461250 0.090000
0.907500 0.461250 0.090000
0.975000 0.461250 0.090000
1.000000 0.461250 0.090000
1.000000 0.461250 0.090000
0.030000 0.525000 0.090000
0.097500 0.525000 0.090000
0.165000 0.525000 0.090000
0.232500 0.525000 0.090000
0.300000 0.525000 0.090000
0.367500 0.525000 0.090000
0.435000 0.525000 0.090000
0.502500 0.525000 0.090000
0.570000 0.525000 0.090000
0.637500 0.525000 0.090000
0.705000 0.525000 0.090000
0.772500 0.525000 0.090000
0.840000 0.525000 0.090000
0.907500 0.525000 0.090000
0.975000 0.525000 0.090000
1.000000 0.525000 0.090000
1.000000 0.525000 0.090000
0.030000 0.588750 0.090000
0.097500 0.588750 0.090000
0.165000 0.588750 0.090000
0.232500 0.588750 0.090000
0.300000 0.588750 0.090000
0.367500 0.588750 0.090000
0.435000 0.588750 0.090000
0.502500 0.588750 0.090000
0.570000 0.588750 0.090000
0.637500 0.588750 0.090000
0.705000 0.588750 0.090000
0.772500 0.588750 0.090000
0.840000 0.588750 0.090000
0.907500 0.588750 0.090000
0.975000 0.588750 0.090000
1.000000 0.588750 0.090000
1.000000 0.588750 0.090000
0.030000 0.652500 0.090000
0.097500 0.652500 0.090000
0.165000 0.652500 0.090000
0.232500 0.652500 0.090000
0.300000 0.652500 0.090000
0.367500 0.652500 0.090000
0.435000 0.652500 0.090000
0.502500 0.652500 0.090000
0.570000 0.652500 0.090000
0.637500 0.652500 0.090000
0.705000 0.652500 0.090000
0.772500 0.652500 0.090000
0.840000 0.652500 0.090000
0.907500 0.652500 0.090000
0.975000 0.652500 0.090000
1.000000 0.652500 0.090000
1.000000 0.652500 0.090000
0.030000 0.716250 0.090000
0.097500 0.716250 0.090000
0.165000 0.716250 0.090000
0.232500 0.716250 0.090000
0.300000 0.716250 0.090000
0.367500 0.716250 0.090000
0.435000 0.716250 0.090000
0.502500 0.716250 0.090000
0.570000 0.716250 0.090000
0.637500 0.716250 0.090000
0.705000 0.716250 0.090000
0.772500 0.716250 0.090000
0.840000 0.716250 0.090000
0.907500 0.716250 0.090000
0.975000 0.716250 0.090000
1.000000 0.716250 0.090000
1.000000 0.716250 0.090000
0.030000 0.780000 0.090000
0.097500 0.780000 0.090000
0.165000 0.780000 0.090000
0.232500 0.780000 0.090000
0.300000 0.780000 0.090000
0.367500 0.780000 0.090000
0.435000 0.780000 0.090000
0.502500 0.780000 0.090000
0.570000 0.780000 0.090000
0.637500 0.780000 0.090000
0.705000 0.780000 0.090000
0.772500 0.780000 0.090000
0.840000 0.780000 0.090000
0.907500 0.780000 0.090000
0.975000 0.780000 0.090000
1.000000 0.780000 0.090000
1.000000 0.780000 0.090000
0.030000 0.843750 0.090000
0.097500 0.843750 0.090000
0.165000 0.843750 0.090000
0.232500 0.843750 0.090000
0.300000 0.843750 0.090000
0.367500 0.843750 0.090000
0.435000 0.843750 0.090000
0.502500 0.843750 0.090000
0.570000 0.843750 0.090000
0.637500 0.843750 0.090000
0.705000 0.843750 0.090000
0.772500 0.843750 0.090000
0.840000 0.843750 0.090000
0.907500 0.843750 0.090000
0.975000 0.843750 0.090000
1.000000 0.843750 0.090000
1.000000 0.843750 0.090000
0.030000 0.907500 0.090000
0.097500 0.907500 0.090000
0.165000 0.907500 0.090000
0.232500 0.907500 0.090000
0.300000 0.907500 0.090000
0.367500 0.907500 0.090000
0.435000 0.907500 0.090000
0.502500 0.907500 0.090000
0.570000 0.907500 0.090000
0.637500 0.907500 0.090000
0.705000 0.907500 0.090000
0.772500 0.907500 0.090000
0.840000 0.907500 0.090000
0.907500 0.907500 0.090000
0.975000 0.907500 0.090000
1.000000 0.907500 0.090000
1.000000 0.907500 0.090000
0.030000 0.971250 0.090000
0.097500 0.971250 0.090000
0.165000 0.971250 0.090000
0.232500 0.971250 0.090000
0.300000 0.971250 0.090000
0.367500 0.971250 0.090000
0.435000 0.971250 0.090000
0.502500 0.971250 0.090000
0.570000 0.971250 0.090000
0.637500 0.971250 0.090000
0.705000 0.971250 0.090000
0.772500 0.971250 0.090000
0.840000 0.971250 0.090000
0.907500 0.971250 0.090000
0.975000 0.971250 0.090000
1.000000 0.971250 0.090000
1.000000 0.971250 0.090000
0.030000 1.000000 0.090000
0.097500 1.000000 0.090000
0.165000 1.000000 0.090000
0.232500 1.000000 0.090000
0.300000 1.000000 0.090000
0.367500 1.000000 0.090000
0.435000 1.000000 0.090000
0.502500 1.000000 0.090000
0.570000 1.000000 0.090000
0.637500 1.000000 0.090000
0.705000 1.000000 0.090000
0.772500 1.000000 0.090000
0.840000 1.000000 0.090000
0.907500 1.000000 0.090000
0.975000 1.000000 0.090000
1.000000 1.000000 0.090000
1.000000 1.000000 0.090000
0.030000 0.015000 0.145000
0.097500 0.015000 0.145000
0.165000 0.015000 0.145000
0.232500 0.015000 0.145000
0.300000 0.015000 0.145000
0.367500 0.015000 0.145000
0.435000 0.015000 0.145000
0.502500 0.015000 0.145000
0.570000 0.015000 0.145000
0.637500 0.015000 0.145000
0.705000 0.015000 0.145000
0.772500 0.015000 0.145000
0.840000 0.015000 0.145000
0.907500 0.015000 0.145000
0.975000 0.015000 0.145000
1.000000 0.015000 0.145000
