assets/luts/warm.cube
# Warm look: golden hour, sunset.
# Generated procedurally by videokit gen-luts.py
TITLE "warm"
LUT_3D_SIZE 9
DOMAIN_MIN 0.0 0.0 0.0
DOMAIN_MAX 1.0 1.0 1.0
0.030000 0.015000 0.000000
0.165000 0.015000 0.000000
0.300000 0.015000 0.000000
0.435000 0.015000 0.000000
0.570000 0.015000 0.000000
0.705000 0.015000 0.000000
0.840000 0.015000 0.000000
0.975000 0.015000 0.000000
1.000000 0.015000 0.000000
0.030000 0.142500 0.000000
0.165000 0.142500 0.000000
0.300000 0.142500 0.000000
0.435000 0.142500 0.000000
0.570000 0.142500 0.000000
0.705000 0.142500 0.000000
0.840000 0.142500 0.000000
0.975000 0.142500 0.000000
1.000000 0.142500 0.000000
0.030000 0.270000 0.000000
0.165000 0.270000 0.000000
0.300000 0.270000 0.000000
0.435000 0.270000 0.000000
0.570000 0.270000 0.000000
0.705000 0.270000 0.000000
0.840000 0.270000 0.000000
0.975000 0.270000 0.000000
1.000000 0.270000 0.000000
0.030000 0.397500 0.000000
0.165000 0.397500 0.000000
0.300000 0.397500 0.000000
0.435000 0.397500 0.000000
0.570000 0.397500 0.000000
0.705000 0.397500 0.000000
0.840000 0.397500 0.000000
0.975000 0.397500 0.000000
1.000000 0.397500 0.000000
0.030000 0.525000 0.000000
0.165000 0.525000 0.000000
0.300000 0.525000 0.000000
0.435000 0.525000 0.000000
0.570000 0.525000 0.000000
0.705000 0.525000 0.000000
0.840000 0.525000 0.000000
0.975000 0.525000 0.000000
1.000000 0.525000 0.000000
0.030000 0.652500 0.000000
0.165000 0.652500 0.000000
0.300000 0.652500 0.000000
0.435000 0.652500 0.000000
0.570000 0.652500 0.000000
0.705000 0.652500 0.000000
0.840000 0.652500 0.000000
0.975000 0.652500 0.000000
1.000000 0.652500 0.000000
0.030000 0.780000 0.000000
0.165000 0.780000 0.000000
0.300000 0.780000 0.000000
0.435000 0.780000 0.000000
0.570000 0.780000 0.000000
0.705000 0.780000 0.000000
0.840000 0.780000 0.000000
0.975000 0.780000 0.000000
1.000000 0.780000 0.000000
0.030000 0.907500 0.000000
0.165000 0.907500 0.000000
0.300000 0.907500 0.000000
0.435000 0.907500 0.000000
0.570000 0.907500 0.000000
0.705000 0.907500 0.000000
0.840000 0.907500 0.000000
0.975000 0.907500 0.000000
1.000000 0.907500 0.000000
0.030000 1.000000 0.000000
0.165000 1.000000 0.000000
0.300000 1.000000 0.000000
0.435000 1.000000 0.000000
0.570000 1.000000 0.000000
0.705000 1.000000 0.000000
0.840000 1.000000 0.000000
0.975000 1.000000 0.000000
1.000000 1.000000 0.000000
0.030000 0.015000 0.090000
0.165000 0.015000 0.090000
0.300000 0.015000 0.090000
0.435000 0.015000 0.090000
0.570000 0.015000 0.090000
0.705000 0.015000 0.090000
0.840000 0.015000 0.090000
0.975000 0.015000 0.090000
1.000000 0.015000 0.090000
0.030000 0.142500 0.090000
0.165000 0.142500 0.090000
0.300000 0.142500 0.090000
0.435000 0.142500 0.090000
0.570000 0.142500 0.090000
0.705000 0.142500 0.090000
0.840000 0.142500 0.090000
0.975000 0.142500 0.090000
1.000000 0.142500 0.090000
0.030000 0.270000 0.090000
0.165000 0.270000 0.090000
0.300000 0.270000 0.090000
0.435000 0.270000 0.090000
0.570000 0.270000 0.090000
0.705000 0.270000 0.090000
0.840000 0.270000 0.090000
0.975000 0.270000 0.090000
1.000000 0.270000 0.090000
0.030000 0.397500 0.090000
0.165000 0.397500 0.090000
0.300000 0.397500 0.090000
0.435000 0.397500 0.090000
0.570000 0.397500 0.090000
0.705000 0.397500 0.090000
0.840000 0.397500 0.090000
0.975000 0.397500 0.090000
1.000000 0.397500 0.090000
0.030000 0.525000 0.090000
0.165000 0.525000 0.090000
0.300000 0.525000 0.090000
0.435000 0.525000 0.090000
0.570000 0.525000 0.090000
0.705000 0.525000 0.090000
0.840000 0.525000 0.090000
0.975000 0.525000 0.090000
1.000000 0.525000 0.090000
0.030000 0.652500 0.090000
0.165000 0.652500 0.090000
0.300000 0.652500 0.090000
0.435000 0.652500 0.090000
0.570000 0.652500 0.090000
0.705000 0.652500 0.090000
0.840000 0.652500 0.090000
0.975000 0.652500 0.090000
1.000000 0.652500 0.090000
0.030000 0.780000 0.090000
0.165000 0.780000 0.090000
0.300000 0.780000 0.090000
0.435000 0.780000 0.090000
0.570000 0.780000 0.090000
0.705000 0.780000 0.090000
0.840000 0.780000 0.090000
0.975000 0.780000 0.090000
1.000000 0.780000 0.090000
0.030000 0.907500 0.090000
0.165000 0.907500 0.090000
0.300000 0.907500 0.090000
0.435000 0.907500 0.090000
0.570000 0.907500 0.090000
0.705000 0.907500 0.090000
0.840000 0.907500 0.090000
0.975000 0.907500 0.090000
1.000000 0.907500 0.090000
0.030000 1.000000 0.090000
0.165000 1.000000 0.090000
0.300000 1.000000 0.090000
0.435000 1.000000 0.090000
0.570000 1.000000 0.090000
0.705000 1.000000 0.090000
0.840000 1.000000 0.090000
0.975000 1.000000 0.090000
1.000000 1.000000 0.090000
0.030000 0.015000 0.200000
0.165000 0.015000 0.200000
0.300000 0.015000 0.200000
0.435000 0.015000 0.200000
0.570000 0.015000 0.200000
0.705000 0.015000 0.200000
0.840000 0.015000 0.200000
0.975000 0.015000 0.200000
1.000000 0.015000 0.200000
0.030000 0.142500 0.200000
0.165000 0.142500 0.200000
0.300000 0.142500 0.200000
0.435000 0.142500 0.200000
0.570000 0.142500 0.200000
0.705000 0.142500 0.200000
0.840000 0.142500 0.200000
0.975000 0.142500 0.200000
1.000000 0.142500 0.200000
0.030000 0.270000 0.200000
0.165000 0.270000 0.200000
0.300000 0.270000 0.200000
0.435000 0.270000 0.200000
0.570000 0.270000 0.200000
0.705000 0.270000 0.200000
0.840000 0.270000 0.200000
0.975000 0.270000 0.200000
1.000000 0.270000 0.200000
0.030000 0.397500 0.200000
0.165000 0.397500 0.200000
0.300000 0.397500 0.200000
0.435000 0.397500 0.200000
0.570000 0.397500 0.200000
0.705000 0.397500 0.200000
0.840000 0.397500 0.200000
0.975000 0.397500 0.200000
1.000000 0.397500 0.200000
0.030000 0.525000 0.200000
0.165000 0.525000 0.200000
0.300000 0.525000 0.200000
0.435000 0.525000 0.200000
0.570000 0.525000 0.200000
0.705000 0.525000 0.200000
0.840000 0.525000 0.200000
0.975000 0.525000 0.200000
1.000000 0.525000 0.200000
0.030000 0.652500 0.200000
0.165000 0.652500 0.200000
0.300000 0.652500 0.200000
0.435000 0.652500 0.200000
0.570000 0.652500 0.200000
0.705000 0.652500 0.200000
0.840000 0.652500 0.200000
0.975000 0.652500 0.200000
1.000000 0.652500 0.200000
0.030000 0.780000 0.200000
0.165000 0.780000 0.200000
0.300000 0.780000 0.200000
0.435000 0.780000 0.200000
0.570000 0.780000 0.200000
0.705000 0.780000 0.200000
0.840000 0.780000 0.200000
0.975000 0.780000 0.200000
1.000000 0.780000 0.200000
0.030000 0.907500 0.200000
0.165000 0.907500 0.200000
0.300000 0.907500 0.200000
0.435000 0.907500 0.200000
0.570000 0.907500 0.200000
0.705000 0.907500 0.200000
0.840000 0.907500 0.200000
0.975000 0.907500 0.200000
1.000000 0.907500 0.200000
0.030000 1.000000 0.200000
0.165000 1.000000 0.200000
0.300000 1.000000 0.200000
0.435000 1.000000 0.200000
0.570000 1.000000 0.200000
0.705000 1.000000 0.200000
0.840000 1.000000 0.200000
0.975000 1.000000 0.200000
1.000000 1.000000 0.200000
0.030000 0.015000 0.310000
0.165000 0.015000 0.310000
0.300000 0.015000 0.310000
0.435000 0.015000 0.310000
0.570000 0.015000 0.310000
0.705000 0.015000 0.310000
0.840000 0.015000 0.310000
0.975000 0.015000 0.310000
1.000000 0.015000 0.310000
0.030000 0.142500 0.310000
0.165000 0.142500 0.310000
0.300000 0.142500 0.310000
0.435000 0.142500 0.310000
0.570000 0.142500 0.310000
0.705000 0.142500 0.310000
0.840000 0.142500 0.310000
0.975000 0.142500 0.310000
1.000000 0.142500 0.310000
0.030000 0.270000 0.310000
0.165000 0.270000 0.310000
0.300000 0.270000 0.310000
0.435000 0.270000 0.310000
0.570000 0.270000 0.310000
0.705000 0.270000 0.310000
0.840000 0.270000 0.310000
0.975000 0.270000 0.310000
1.000000 0.270000 0.310000
0.030000 0.397500 0.310000
0.165000 0.397500 0.310000
0.300000 0.397500 0.310000
0.435000 0.397500 0.310000
0.570000 0.397500 0.310000
0.705000 0.397500 0.310000
0.840000 0.397500 0.310000
0.975000 0.397500 0.310000
1.000000 0.397500 0.310000
0.030000 0.525000 0.310000
0.165000 0.525000 0.310000
0.300000 0.525000 0.310000
0.435000 0.525000 0.310000
0.570000 0.525000 0.310000
0.705000 0.525000 0.310000
0.840000 0.525000 0.310000
0.975000 0.525000 0.310000
1.000000 0.525000 0.310000
0.030000 0.652500 0.310000
0.165000 0.652500 0.310000
0.300000 0.652500 0.310000
0.435000 0.652500 0.310000
0.570000 0.652500 0.310000
0.705000 0.652500 0.310000
0.840000 0.652500 0.310000
0.975000 0.652500 0.310000
1.000000 0.652500 0.310000
0.030000 0.780000 0.310000
0.165000 0.780000 0.310000
0.300000 0.780000 0.310000
0.435000 0.780000 0.310000
0.570000 0.780000 0.310000
0.705000 0.780000 0.310000
0.840000 0.780000 0.310000
0.975000 0.780000 0.310000
1.000000 0.780000 0.310000
0.030000 0.907500 0.310000
0.165000 0.907500 0.310000
0.300000 0.907500 0.310000
0.435000 0.907500 0.310000
0.570000 0.907500 0.310000
0.705000 0.907500 0.310000
0.840000 0.907500 0.310000
0.975000 0.907500 0.310000
1.000000 0.907500 0.310000
0.030000 1.000000 0.310000
0.165000 1.000000 0.310000
0.300000 1.000000 0.310000
0.435000 1.000000 0.310000
0.570000 1.000000 0.310000
0.705000 1.000000 0.310000
0.840000 1.000000 0.310000
0.975000 1.000000 0.310000
1.000000 1.000000 0.310000
0.030000 0.015000 0.420000
0.165000 0.015000 0.420000
0.300000 0.015000 0.420000
0.435000 0.015000 0.420000
0.570000 0.015000 0.420000
0.705000 0.015000 0.420000
0.840000 0.015000 0.420000
0.975000 0.015000 0.420000
1.000000 0.015000 0.420000
0.030000 0.142500 0.420000
0.165000 0.142500 0.420000
0.300000 0.142500 0.420000
0.435000 0.142500 0.420000
0.570000 0.142500 0.420000
0.705000 0.142500 0.420000
0.840000 0.142500 0.420000
0.975000 0.142500 0.420000
1.000000 0.142500 0.420000
0.030000 0.270000 0.420000
0.165000 0.270000 0.420000
0.300000 0.270000 0.420000
0.435000 0.270000 0.420000
0.570000 0.270000 0.420000
0.705000 0.270000 0.420000
0.840000 0.270000 0.420000
0.975000 0.270000 0.420000
1.000000 0.270000 0.420000
0.030000 0.397500 0.420000
0.165000 0.397500 0.420000
0.300000 0.397500 0.420000
0.435000 0.397500 0.420000
0.570000 0.397500 0.420000
0.705000 0.397500 0.420000
0.840000 0.397500 0.420000
0.975000 0.397500 0.420000
1.000000 0.397500 0.420000
0.030000 0.525000 0.420000
0.165000 0.525000 0.420000
0.300000 0.525000 0.420000
0.435000 0.525000 0.420000
0.570000 0.525000 0.420000
0.705000 0.525000 0.420000
0.840000 0.525000 0.420000
0.975000 0.525000 0.420000
1.000000 0.525000 0.420000
0.030000 0.652500 0.420000
0.165000 0.652500 0.420000
0.300000 0.652500 0.420000
0.435000 0.652500 0.420000
0.570000 0.652500 0.420000
0.705000 0.652500 0.420000
0.840000 0.652500 0.420000
0.975000 0.652500 0.420000
1.000000 0.652500 0.420000
0.030000 0.780000 0.420000
0.165000 0.780000 0.420000
0.300000 0.780000 0.420000
0.435000 0.780000 0.420000
0.570000 0.780000 0.420000
0.705000 0.780000 0.420000
0.840000 0.780000 0.420000
0.975000 0.780000 0.420000
1.000000 0.780000 0.420000
0.030000 0.907500 0.420000
0.165000 0.907500 0.420000
0.300000 0.907500 0.420000
0.435000 0.907500 0.420000
0.570000 0.907500 0.420000
0.705000 0.907500 0.420000
0.840000 0.907500 0.420000
0.975000 0.907500 0.420000
1.000000 0.907500 0.420000
0.030000 1.000000 0.420000
0.165000 1.000000 0.420000
0.300000 1.000000 0.420000
0.435000 1.000000 0.420000
0.570000 1.000000 0.420000
0.705000 1.000000 0.420000
0.840000 1.000000 0.420000
0.975000 1.000000 0.420000
1.000000 1.000000 0.420000
0.030000 0.015000 0.530000
0.165000 0.015000 0.530000
0.300000 0.015000 0.530000
0.435000 0.015000 0.530000
0.570000 0.015000 0.530000
0.705000 0.015000 0.530000
0.840000 0.015000 0.530000
0.975000 0.015000 0.530000
1.000000 0.015000 0.530000
0.030000 0.142500 0.530000
0.165000 0.142500 0.530000
0.300000 0.142500 0.530000
0.435000 0.142500 0.530000
0.570000 0.142500 0.530000
0.705000 0.142500 0.530000
0.840000 0.142500 0.530000
0.975000 0.142500 0.530000
1.000000 0.142500 0.530000
0.030000 0.270000 0.530000
0.165000 0.270000 0.530000
0.300000 0.270000 0.530000
0.435000 0.270000 0.530000
0.570000 0.270000 0.530000
0.705000 0.270000 0.530000
0.840000 0.270000 0.530000
0.975000 0.270000 0.530000
1.000000 0.270000 0.530000
0.030000 0.397500 0.530000
0.165000 0.397500 0.530000
0.300000 0.397500 0.530000
0.435000 0.397500 0.530000
0.570000 0.397500 0.530000
0.705000 0.397500 0.530000
0.840000 0.397500 0.530000
0.975000 0.397500 0.530000
1.000000 0.397500 0.530000
0.030000 0.525000 0.530000
0.165000 0.525000 0.530000
0.300000 0.525000 0.530000
0.435000 0.525000 0.530000
0.570000 0.525000 0.530000
0.705000 0.525000 0.530000
0.840000 0.525000 0.530000
0.975000 0.525000 0.530000
1.000000 0.525000 0.530000
0.030000 0.652500 0.530000
0.165000 0.652500 0.530000
0.300000 0.652500 0.530000
0.435000 0.652500 0.530000
0.570000 0.652500 0.530000
0.705000 0.652500 0.530000
0.840000 0.652500 0.530000
0.975000 0.652500 0.530000
1.000000 0.652500 0.530000
0.030000 0.780000 0.530000
0.165000 0.780000 0.530000
0.300000 0.780000 0.530000
0.435000 0.780000 0.530000
0.570000 0.780000 0.530000
0.705000 0.780000 0.530000
0.840000 0.780000 0.530000
0.975000 0.780000 0.530000
1.000000 0.780000 0.530000
0.030000 0.907500 0.530000
0.165000 0.907500 0.530000
0.300000 0.907500 0.530000
0.435000 0.907500 0.530000
0.570000 0.907500 0.530000
0.705000 0.907500 0.530000
0.840000 0.907500 0.530000
0.975000 0.907500 0.530000
1.000000 0.907500 0.530000
0.030000 1.000000 0.530000
0.165000 1.000000 0.530000
0.300000 1.000000 0.530000
0.435000 1.000000 0.530000
0.570000 1.000000 0.530000
0.705000 1.000000 0.530000
0.840000 1.000000 0.530000
0.975000 1.000000 0.530000
1.000000 1.000000 0.530000
0.030000 0.015000 0.640000
0.165000 0.015000 0.640000
0.300000 0.015000 0.640000
0.435000 0.015000 0.640000
0.570000 0.015000 0.640000
0.705000 0.015000 0.640000
0.840000 0.015000 0.640000
0.975000 0.015000 0.640000
1.000000 0.015000 0.640000
0.030000 0.142500 0.640000
0.165000 0.142500 0.640000
0.300000 0.142500 0.640000
0.435000 0.142500 0.640000
0.570000 0.142500 0.640000
0.705000 0.142500 0.640000
0.840000 0.142500 0.640000
0.975000 0.142500 0.640000
1.000000 0.142500 0.640000
0.030000 0.270000 0.640000
0.165000 0.270000 0.640000
0.300000 0.270000 0.640000
0.435000 0.270000 0.640000
0.570000 0.270000 0.640000
0.705000 0.270000 0.640000
0.840000 0.270000 0.640000
0.975000 0.270000 0.640000
1.000000 0.270000 0.640000
0.030000 0.397500 0.640000
0.165000 0.397500 0.640000
0.300000 0.397500 0.640000
0.435000 0.397500 0.640000
0.570000 0.397500 0.640000
0.705000 0.397500 0.640000
0.840000 0.397500 0.640000
0.975000 0.397500 0.640000
1.000000 0.397500 0.640000
0.030000 0.525000 0.640000
0.165000 0.525000 0.640000
0.300000 0.525000 0.640000
0.435000 0.525000 0.640000
0.570000 0.525000 0.640000
0.705000 0.525000 0.640000
0.840000 0.525000 0.640000
0.975000 0.525000 0.640000
1.000000 0.525000 0.640000
0.030000 0.652500 0.640000
0.165000 0.652500 0.640000
0.300000 0.652500 0.640000
0.435000 0.652500 0.640000
0.570000 0.652500 0.640000
0.705000 0.652500 0.640000
0.840000 0.652500 0.640000
0.975000 0.652500 0.640000
1.000000 0.652500 0.640000
0.030000 0.780000 0.640000
0.165000 0.780000 0.640000
0.300000 0.780000 0.640000
0.435000 0.780000 0.640000
0.570000 0.780000 0.640000
0.705000 0.780000 0.640000
0.840000 0.780000 0.640000
0.975000 0.780000 0.640000
1.000000 0.780000 0.640000
0.030000 0.907500 0.640000
0.165000 0.907500 0.640000
0.300000 0.907500 0.640000
0.435000 0.907500 0.640000
0.570000 0.907500 0.640000
0.705000 0.907500 0.640000
0.840000 0.907500 0.640000
0.975000 0.907500 0.640000
1.000000 0.907500 0.640000
0.030000 1.000000 0.640000
0.165000 1.000000 0.640000
0.300000 1.000000 0.640000
0.435000 1.000000 0.640000
0.570000 1.000000 0.640000
0.705000 1.000000 0.640000
0.840000 1.000000 0.640000
0.975000 1.000000 0.640000
1.000000 1.000000 0.640000
0.030000 0.015000 0.750000
0.165000 0.015000 0.750000
0.300000 0.015000 0.750000
0.435000 0.015000 0.750000
0.570000 0.015000 0.750000
0.705000 0.015000 0.750000
0.840000 0.015000 0.750000
0.975000 0.015000 0.750000
1.000000 0.015000 0.750000
0.030000 0.142500 0.750000
0.165000 0.142500 0.750000
0.300000 0.142500 0.750000
0.435000 0.142500 0.750000
0.570000 0.142500 0.750000
0.705000 0.142500 0.750000
0.840000 0.142500 0.750000
0.975000 0.142500 0.750000
1.000000 0.142500 0.750000
0.030000 0.270000 0.750000
0.165000 0.270000 0.750000
0.300000 0.270000 0.750000
0.435000 0.270000 0.750000
0.570000 0.270000 0.750000
0.705000 0.270000 0.750000
0.840000 0.270000 0.750000
0.975000 0.270000 0.750000
1.000000 0.270000 0.750000
0.030000 0.397500 0.750000
0.165000 0.397500 0.750000
0.300000 0.397500 0.750000
0.435000 0.397500 0.750000
0.570000 0.397500 0.750000
0.705000 0.397500 0.750000
0.840000 0.397500 0.750000
0.975000 0.397500 0.750000
1.000000 0.397500 0.750000
0.030000 0.525000 0.750000
0.165000 0.525000 0.750000
0.300000 0.525000 0.750000
0.435000 0.525000 0.750000
0.570000 0.525000 0.750000
0.705000 0.525000 0.750000
0.840000 0.525000 0.750000
0.975000 0.525000 0.750000
1.000000 0.525000 0.750000
0.030000 0.652500 0.750000
0.165000 0.652500 0.750000
0.300000 0.652500 0.750000
0.435000 0.652500 0.750000
0.570000 0.652500 0.750000
0.705000 0.652500 0.750000
0.840000 0.652500 0.750000
0.975000 0.652500 0.750000
1.000000 0.652500 0.750000
0.030000 0.780000 0.750000
0.165000 0.780000 0.750000
0.300000 0.780000 0.750000
0.435000 0.780000 0.750000
0.570000 0.780000 0.750000
0.705000 0.780000 0.750000
0.840000 0.780000 0.750000
0.975000 0.780000 0.750000
1.000000 0.780000 0.750000
0.030000 0.907500 0.750000
0.165000 0.907500 0.750000
0.300000 0.907500 0.750000
0.435000 0.907500 0.750000
0.570000 0.907500 0.750000
0.705000 0.907500 0.750000
0.840000 0.907500 0.750000
0.975000 0.907500 0.750000
1.000000 0.907500 0.750000
0.030000 1.000000 0.750000
0.165000 1.000000 0.750000
0.300000 1.000000 0.750000
0.435000 1.000000 0.750000
0.570000 1.000000 0.750000
0.705000 1.000000 0.750000
0.840000 1.000000 0.750000
0.975000 1.000000 0.750000
1.000000 1.000000 0.750000
0.030000 0.015000 0.860000
0.165000 0.015000 0.860000
0.300000 0.015000 0.860000
0.435000 0.015000 0.860000
0.570000 0.015000 0.860000
0.705000 0.015000 0.860000
0.840000 0.015000 0.860000
0.975000 0.015000 0.860000
1.000000 0.015000 0.860000
0.030000 0.142500 0.860000
0.165000 0.142500 0.860000
0.300000 0.142500 0.860000
0.435000 0.142500 0.860000
0.570000 0.142500 0.860000
0.705000 0.142500 0.860000
0.840000 0.142500 0.860000
0.975000 0.142500 0.860000
1.000000 0.142500 0.860000
0.030000 0.270000 0.860000
0.165000 0.270000 0.860000
0.300000 0.270000 0.860000
0.435000 0.270000 0.860000
0.570000 0.270000 0.860000
0.705000 0.270000 0.860000
0.840000 0.270000 0.860000
0.975000 0.270000 0.860000
1.000000 0.270000 0.860000
0.030000 0.397500 0.860000
0.165000 0.397500 0.860000
0.300000 0.397500 0.860000
0.435000 0.397500 0.860000
0.570000 0.397500 0.860000
0.705000 0.397500 0.860000
0.840000 0.397500 0.860000
0.975000 0.397500 0.860000
1.000000 0.397500 0.860000
0.030000 0.525000 0.860000
0.165000 0.525000 0.860000
0.300000 0.525000 0.860000
0.435000 0.525000 0.860000
0.570000 0.525000 0.860000
0.705000 0.525000 0.860000
0.840000 0.525000 0.860000
0.975000 0.525000 0.860000
1.000000 0.525000 0.860000
0.030000 0.652500 0.860000
0.165000 0.652500 0.860000
0.300000 0.652500 0.860000
0.435000 0.652500 0.860000
0.570000 0.652500 0.860000
0.705000 0.652500 0.860000
0.840000 0.652500 0.860000
0.975000 0.652500 0.860000
1.000000 0.652500 0.860000
0.030000 0.780000 0.860000
0.165000 0.780000 0.860000
0.300000 0.780000 0.860000
0.435000 0.780000 0.860000
0.570000 0.780000 0.860000
0.705000 0.780000 0.860000
0.840000 0.780000 0.860000
0.975000 0.780000 0.860000
1.000000 0.780000 0.860000
0.030000 0.907500 0.860000
0.165000 0.907500 0.860000
0.300000 0.907500 0.860000
0.435000 0.907500 0.860000
0.570000 0.907500 0.860000
0.705000 0.907500 0.860000
0.840000 0.907500 0.860000
0.975000 0.907500 0.860000
1.000000 0.907500 0.860000
0.030000 1.000000 0.860000
0.165000 1.000000 0.860000
0.300000 1.000000 0.860000
0.435000 1.000000 0.860000
0.570000 1.000000 0.860000
0.705000 1.000000 0.860000
0.840000 1.000000 0.860000
0.975000 1.000000 0.860000
1.000000 1.000000 0.860000
