assets/luts/warm.cube
# Warm look: golden hour, sunset.
# Generated procedurally by videokit gen-luts.py
TITLE "warm"
LUT_3D_SIZE 5
DOMAIN_MIN 0.0 0.0 0.0
DOMAIN_MAX 1.0 1.0 1.0
0.030000 0.015000 0.000000
0.300000 0.015000 0.000000
0.570000 0.015000 0.000000
0.840000 0.015000 0.000000
1.000000 0.015000 0.000000
0.030000 0.270000 0.000000
0.300000 0.270000 0.000000
0.570000 0.270000 0.000000
0.840000 0.270000 0.000000
1.000000 0.270000 0.000000
0.030000 0.525000 0.000000
0.300000 0.525000 0.000000
0.570000 0.525000 0.000000
0.840000 0.525000 0.000000
1.000000 0.525000 0.000000
0.030000 0.780000 0.000000
0.300000 0.780000 0.000000
0.570000 0.780000 0.000000
0.840000 0.780000 0.000000
1.000000 0.780000 0.000000
0.030000 1.000000 0.000000
0.300000 1.000000 0.000000
0.570000 1.000000 0.000000
0.840000 1.000000 0.000000
1.000000 1.000000 0.000000
0.030000 0.015000 0.200000
0.300000 0.015000 0.200000
0.570000 0.015000 0.200000
0.840000 0.015000 0.200000
1.000000 0.015000 0.200000
0.030000 0.270000 0.200000
0.300000 0.270000 0.200000
0.570000 0.270000 0.200000
0.840000 0.270000 0.200000
1.000000 0.270000 0.200000
0.030000 0.525000 0.200000
0.300000 0.525000 0.200000
0.570000 0.525000 0.200000
0.840000 0.525000 0.200000
1.000000 0.525000 0.200000
0.030000 0.780000 0.200000
0.300000 0.780000 0.200000
0.570000 0.780000 0.200000
0.840000 0.780000 0.200000
1.000000 0.780000 0.200000
0.030000 1.000000 0.200000
0.300000 1.000000 0.200000
0.570000 1.000000 0.200000
0.840000 1.000000 0.200000
1.000000 1.000000 0.200000
0.030000 0.015000 0.420000
0.300000 0.015000 0.420000
0.570000 0.015000 0.420000
0.840000 0.015000 0.420000
1.000000 0.015000 0.420000
0.030000 0.270000 0.420000
0.300000 0.270000 0.420000
0.570000 0.270000 0.420000
0.840000 0.270000 0.420000
1.000000 0.270000 0.420000
0.030000 0.525000 0.420000
0.300000 0.525000 0.420000
0.570000 0.525000 0.420000
0.840000 0.525000 0.420000
1.000000 0.525000 0.420000
0.030000 0.780000 0.420000
0.300000 0.780000 0.420000
0.570000 0.780000 0.420000
0.840000 0.780000 0.420000
1.000000 0.780000 0.420000
0.030000 1.000000 0.420000
0.300000 1.000000 0.420000
0.570000 1.000000 0.420000
0.840000 1.000000 0.420000
1.000000 1.000000 0.420000
0.030000 0.015000 0.640000
0.300000 0.015000 0.640000
0.570000 0.015000 0.640000
0.840000 0.015000 0.640000
1.000000 0.015000 0.640000
0.030000 0.270000 0.640000
0.300000 0.270000 0.640000
0.570000 0.270000 0.640000
0.840000 0.270000 0.640000
1.000000 0.270000 0.640000
0.030000 0.525000 0.640000
0.300000 0.525000 0.640000
0.570000 0.525000 0.640000
0.840000 0.525000 0.640000
1.000000 0.525000 0.640000
0.030000 0.780000 0.640000
0.300000 0.780000 0.640000
0.570000 0.780000 0.640000
0.840000 0.780000 0.640000
1.000000 0.780000 0.640000
0.030000 1.000000 0.640000
0.300000 1.000000 0.640000
0.570000 1.000000 0.640000
0.840000 1.000000 0.640000
1.000000 1.000000 0.640000
0.030000 0.015000 0.860000
0.300000 0.015000 0.860000
0.570000 0.015000 0.860000
0.840000 0.015000 0.860000
1.000000 0.015000 0.860000
0.030000 0.270000 0.860000
0.300000 0.270000 0.860000
0.570000 0.270000 0.860000
0.840000 0.270000 0.860000
1.000000 0.270000 0.860000
0.030000 0.525000 0.860000
0.300000 0.525000 0.860000
0.570000 0.525000 0.860000
0.840000 0.525000 0.860000
1.000000 0.525000 0.860000
0.030000 0.780000 0.860000
0.300000 0.780000 0.860000
0.570000 0.780000 0.860000
0.840000 0.780000 0.860000
1.000000 0.780000 0.860000
0.030000 1.000000 0.860000
0.300000 1.000000 0.860000
0.570000 1.000000 0.860000
0.840000 1.000000 0.860000
1.000000 1.000000 0.860000
